/* XPM */
static const char *app_icon_xpm[] = {
/* columns rows colors chars-per-pixel */
"128 128 5831 2",
"+x c Black",
"AZ c #B9D3E7",
"Wa c #AFB3B2",
"h  c #80A2BA",
"sD c #EAF4F4",
"O& c #80A2BE",
"Fb c #EAF4F5",
"^V c #717272",
"d, c #7892A1",
"Gx c #B3D3DE",
"Dr c #738287",
"7t c #738288",
"^S c #7DA2BF",
"0w c #738289",
"$g c #E7F4F6",
"QZ c #B0D3DD",
"Da c #B3D3EE",
"6c c #B0D3DE",
"D4 c #B5E3FB",
"*p c #666256",
"9. c #7592A7",
"'  c #7592A8",
"`  c #7592A9",
"Z0 c #A6B3AF",
"=, c #7592AA",
"2F c #ADD3DD",
"zD c #B0D3EE",
"50 c #A6B3B9",
"zb c #2D3133",
"2N c #2D3134",
"Gi c #636257",
"hC c #E1F4FE",
"%x c #E1F4FF",
"Cb c #DCE4E5",
"!8 c #A3B3BC",
"#+ c #DEF4F9",
"9M c #9EA3A4",
"4: c #6A8290",
"Kk c #DEF4FF",
"h* c #6A8293",
"Ad c #D9E4E6",
"Uy c #D9E4E7",
"Wu c #D9E4E8",
"6r c #D9E4E9",
"o4 c #A5C3D4",
"l3 c #A5C3D6",
"ag c #A2C3D3",
"$m c #62727E",
"s1 c #A2C3D6",
"!f c #D8F4FF",
"-V c #1F2121",
"*h c #9FC3D1",
"ty c #555246",
"-u c #555247",
"&0 c #555248",
"lz c #CED4D5",
"MM c #D3E4F0",
"sb c #D3E4F1",
"!c c #D3E4F2",
"Cd c #CBD4D6",
"nr c #CBD4D7",
"2s c #D2F4FE",
"gl c #D0E4F4",
"Ck c #D0E4F5",
"n7 c #92A3AC",
"tC c #8D9394",
"@j c #CDE4F6",
"c= c #94B3C7",
"@$ c #94B3CA",
"5p c #CCF4FF",
"W0 c #474236",
"za c #C0C4C1",
"NM c #C5D4DF",
"(- c #91B3C9",
"Sv c #0E1111",
"Ow c #44423B",
"Yt c #BDC4C6",
"~e c #BDC4C7",
"Q7 c #84939A",
"5, c #C6F4FE",
"wC c #BFD4E1",
"$l c #C4E4FC",
"JV c #46525C",
"@< c #86A3B3",
">e c #81939B",
"E& c #86A3B7",
">N c #B7C4C4",
"@c c #BCD4E6",
"J% c #83A3B6",
"Kf c #BCD4E8",
"t- c #C0F4FE",
"N& c #83A3B7",
"M3 c #C0F4FF",
"DX c #83A3B9",
"9  c #83A3BA",
"[3 c #7E93A0",
"z  c #83A3BB",
"x  c #83A3BC",
"A9 c #83A3BD",
"5n c #79838B",
"T0 c #B6D4D4",
"'9 c #B4C4CC",
"ZZ c #B9D4EA",
"$p c #717369",
"~Z c #B6D4DF",
"Xb c #EAF5F6",
"Rl c #EAF5F7",
";k c #EAF5F8",
"Hs c #B6D4EA",
"Ph c #B6D4EB",
"MA c #B6D4EC",
"J+ c #7893A3",
"XM c #B3D4DF",
"6: c #7893A4",
"}Z c #AEC4C6",
"r; c #B8E4FC",
"Ew c #73838A",
"tf c #E7F5F7",
"ps c #E7F5F8",
"vS c #B8E4FE",
"UX c #7893A9",
"Gt c #AEC4CC",
"Fi c #E2E5E3",
"HD c #B0D4DF",
"3F c #B0D4E0",
"v> c #B5E4FC",
"^@ c #B5E4FE",
"Yi c #666357",
"d. c #7593A8",
"|  c #7593A9",
"|6 c #7593AA",
">m c #E4F5FC",
"'O c #708390",
"#2 c #7593AB",
"t< c #7593AC",
"Nf c #ABC4D4",
"s8 c #B2E4FC",
"{g c #ABC4D8",
"w> c #B2E4FE",
")5 c #E1F5FA",
"R1 c #6D8390",
"Ms c #ABC4DC",
"ac c #E1F5FE",
"nl c #E1F5FF",
"vz c #DCE5E6",
"'4 c #A8C4D5",
"j> c #DEF5FA",
"^C c #9EA4A5",
"T; c #D9E5E4",
";j c #DEF5FF",
"hX c #6A8396",
"Qp c #D9E5E8",
"tt c #A0B4BD",
"h2 c #A5C4D8",
"$a c #A5C4DC",
"Vg c #DBF5FE",
"92 c #62737B",
"#m c #62737E",
"Y, c #A2C4D7",
"Uw c #555349",
"_n c #CED5D5",
"7j c #CED5D6",
"zC c #D3E5F2",
"s5 c #A4D4F7",
"mv c #D3E5F3",
"Q* c #A4D4F8",
";M c #D3E5F4",
"9X c #CBD5D3",
"WB c #D0E5F0",
"1b c #D0E5F1",
"rp c #CBD5D7",
"8i c #CBD5D8",
"Ze c #CBD5D9",
"Oz c #D0E5F5",
"Ej c #D0E5F6",
"Dz c #CFF5FE",
"Aq c #C8D5DB",
"l, c #94B4C7",
"4f c #C3C5C3",
"{$ c #94B4C9",
"+$ c #94B4CA",
"pa c #CCF5FF",
"6m c #4C5356",
"n* c #91B4C9",
"G& c #91B4CA",
"ab c #C5D5E1",
"0O c #C7E5EF",
"d3 c #8CA4B3",
"a< c #C7E5F0",
"4V c #C9F5FD",
"-8 c #87949C",
"ad c #C7E5F9",
"Yq c #F6F6F6",
"Ru c #BDC5C6",
"!r c #BDC5C8",
"sk c #C2D5E3",
"-w c #BDC5C9",
"y+ c #C1E5E2",
"3& c #C6F5FD",
" 1 c #8EB4D3",
"pM c #C4E5FB",
"VN c #C4E5FC",
"{q c #41433E",
"<h c #BFD5E6",
"Ie c #81949A",
"ge c #81949B",
",0 c #B5B5B2",
"U* c #C3F5FF",
">$ c #86A4B8",
"w# c #86A4B9",
"fV c #F0F6F6",
"Sp c #C1E5FC",
"]0 c #B7C5CA",
"$8 c #C0F5FC",
"`@ c #C0F5FE",
"6C c #BCD5E9",
"-O c #83A4B9",
"Ut c #B2B5B4",
".a c #798484",
"l  c #83A4BB",
"l. c #83A4BC",
" X c #83A4BD",
"rF c #EDF6F7",
"2p c #BEE5FC",
"0Z c #B9D5E2",
"QS c #B6D5E0",
"cy c #768489",
"%A c #BBE5FD",
"Ch c #EAF6F9",
"o7 c #EAF6FC",
"uq c #ACB5B9",
"oM c #B3D5E0",
"JD c #B3D5E1",
"D% c #7894A6",
"Jd c #E7F6F8",
"|S c #B8E5FE",
"~a c #E7F6F9",
"E$ c #7894A8",
"-X c #7894A9",
"A6 c #E7F6FB",
"*& c #B3D5E5",
".h c #E7F6FD",
"vn c #6E7476",
"*a c #B3D5F1",
"Ko c #B5E5FD",
"8& c #B5E5FE",
"@: c #B5E5FF",
"b# c #E4F6FB",
">y c #6B7475",
"^2 c #708490",
"S8 c #7594AB",
"bj c #E4F6FD",
"*6 c #ABC5D5",
"#F c #ABC5D7",
"!d c #ABC5D8",
"6< c #B2E5FF",
"@V c #A6B5C0",
"L> c #6D8492",
"_m c #E1F6FF",
"UB c #A6B5C3",
"|p c #5E5444",
"f4 c #A8C5D5",
"}t c #A3B5BB",
"2q c #D7D6D3",
"r3 c #65747B",
";o c #6A8496",
"jX c #6A8497",
"Xp c #D9E6E9",
"]b c #222323",
"=h c #A2C5D3",
"U1 c #627481",
"I9 c #9FC5D9",
"QN c #9AB5BF",
"Ug c #CED6D7",
"V3 c #A4D5F7",
"|f c #CED6D8",
"hm c #D3E6F4",
"#V c #D3E6F6",
"4u c #95A5AA",
",8 c #95A5AD",
"4M c #92A5A7",
"1S c #D0E6F4",
"8r c #C6C6C2",
"1> c #97B5C8",
"vq c #C6C6C4",
"dC c #8D9594",
"/i c #CFF6FE",
"yv c #CFF6FF",
"Va c #94B5C9",
"2x c #8A9594",
"&& c #94B5CA",
"Hg c #C3C6C6",
"D5 c #8FA5B0",
"[$ c #94B5CB",
")- c #94B5CC",
"s= c #94B5CD",
"@, c #99C5E8",
"8c c #111314",
"'d c #91B5C4",
"tw c #474439",
"Oh c #CAE6F8",
"$f c #CAE6FA",
"gt c #C0C6C8",
"-Z c #C5D6E4",
"h< c #C9F6FD",
"AB c #C9F6FE",
"iZ c #C2D6E0",
"IC c #849595",
"/l c #C7E6FC",
"Fc c #C7E6FD",
"Hw c #BDC6C9",
"7B c #C2D6E5",
"L< c #89A5B5",
"Z# c #C6F6FE",
"+r c #84959C",
"i9 c #C6F6FF",
"T6 c #84959D",
"O> c #89A5B8",
"M1 c #8EB5D4",
"Zn c #465458",
"oN c #C4E6FC",
"ul c #BFD6E3",
"*q c #BAC6CC",
"'@ c #C3F6FE",
"su c #B5B6B2",
"-= c #C3F6FF",
"9: c #86A5B8",
"S+ c #86A5BB",
"~O c #86A5BC",
"aB c #030303",
"zV c #030304",
"c0 c #B7C6CE",
"IV c #BCD6EA",
"}o c #83A5BB",
"x. c #83A5BC",
"1z c #B7C6D2",
"z. c #83A5BD",
"t2 c #7E95A3",
"UA c #B9D6E0",
"qZ c #B9D6E2",
"n@ c #83A5C1",
"dn c #EDF7F8",
"`x c #EDF7F9",
"Dq c #E8E7E6",
"CZ c #B9D6ED",
"%m c #3B444B",
",y c #76858A",
".> c #7B95A5",
"9t c #76858B",
"%e c #76858C",
"Bw c #76858D",
"&g c #EAF7FA",
")D c #B8E6FD",
"9@ c #7895A9",
"W4 c #73858F",
"=X c #7895AA",
"e4 c #738590",
"v4 c #7895AE",
"bd c #E2E7E5",
"Jx c #AEC6D2",
"57 c #AEC6D3",
"H1 c #B5E6FD",
"MD c #AEC6D9",
"JA c #E4F7FB",
"5g c #AEC6DB",
"xb c #E4F7FF",
"<X c #708593",
"/x c #DFE7E8",
"K5 c #ABC6D4",
"VC c #2D3436",
",, c #E1F7FB",
"3g c #ABC6DB",
"3b c #E1F7FE",
"N% c #68757B",
"Au c #DCE7EA",
"ky c #DCE7EB",
"xj c #A8C6D7",
"th c #DEF7FF",
":o c #6A8597",
"Wh c #DBF7FD",
"^f c #DBF7FE",
"Bp c #A5C6E0",
" n c #222424",
"10 c #9BA6AC",
"yX c #A2C6D2",
"Kt c #58554A",
"Lt c #58554B",
"8F c #D1D7D7",
"gS c #D1D7D8",
"gc c #D1D7D9",
"4x c #CED7D6",
"'6 c #A4D6F6",
"0f c #CED7D8",
"Ua c #D5F7FE",
"Py c #CED7D9",
"3s c #D5F7FF",
",t c #CED7DA",
"3r c #CED7DB",
"Nx c #D3E7F6",
"jl c #D3E7F8",
"[1 c #9AB6C7",
"af c #D2F7FE",
"C6 c #97B6C7",
"%r c #92A6AE",
"&< c #97B6C9",
"fC c #8D9695",
"C* c #97B6CB",
"Cv c #94B6BE",
"-7 c #8D969A",
";q c #C8D7DD",
"!h c #CDE7F9",
"@s c #94B6C8",
"Zs c #94B6C9",
"#* c #94B6CA",
"dh c #C3C7C6",
"N; c #94B6CB",
",- c #94B6CC",
"d= c #94B6CD",
">6 c #99C6E8",
"D1 c #CAE7F2",
"v# c #CAE7F4",
"l8 c #8A969E",
"Lq c #47453A",
"6F c #879693",
"{e c #47453D",
"6f c #C0C7C8",
"-t c #C0C7C9",
"Tt c #C0C7CA",
"`2 c #8CA6B6",
"iv c #C7E7FC",
"*N c #C2D7E5",
"<D c #C2D7E6",
"~q c #BDC7CC",
"}1 c #C6F7FF",
",7 c #84969F",
"c@ c #8EB6D5",
"{6 c #8EB6D6",
">g c #C4E7FC",
"fj c #C4E7FE",
"!N c #BFD7E4",
"MO c #C3F7FB",
"0, c #C3F7FE",
"dv c #BFD7EA",
"&2 c #86A6BA",
"AX c #86A6BC",
"q@ c #86A6BD",
"*. c #86A6BE",
"ff c #C1E7FB",
"uS c #BCD7E2",
"FM c #BCD7E3",
"HV c #C1E7FF",
"wc c #7C868F",
"Pz c #BCD7EB",
"Ov c #B7C7D3",
"/< c #798689",
"q8 c #83A6C1",
"DM c #B9D7E2",
"mZ c #BEE7FE",
"]; c #83A6C2",
"tx c #EDF8F9",
"k5 c #B9D7E3",
"Vz c #EDF8FA",
"O< c #7B96A4",
"Wy c #76868A",
"ae c #76868D",
"Nw c #76868E",
"e= c #7B96A9",
"^g c #EAF8FB",
".6 c #76868F",
"Kd c #EAF8FC",
"-2 c #EAF8FD",
"VB c #717676",
"'7 c #B1C7D3",
"hf c #B6D7F2",
"/, c #B8E7FD",
"L2 c #B8E7FF",
"Z. c #7896AA",
".. c #7896AB",
"V  c #7896AC",
"'3 c #738692",
"C  c #7896AD",
"+5 c #7896AE",
"G: c #7896AF",
")V c #A9B7B7",
"!; c #B5E7FD",
"NS c #B3D7F3",
"qk c #AEC7D8",
"pc c #A9B7BF",
"pb c #A9B7C1",
"3d c #AEC7DC",
"cs c #E4F8FE",
"!v c #E4F8FF",
"bz c #DFE8E9",
"BD c #ABC7D8",
"Ff c #ABC7D9",
"|d c #ABC7DA",
"]D c #B0D7F7",
"%s c #ABC7DE",
"a, c #6D8694",
"3B c #A6B7C6",
"A% c #6D8697",
"]O c #68767C",
"_# c #6D8698",
"]h c #A5C7D5",
"%p c #5B5649",
"Xh c #DBF8FD",
"gk c #A2C7D2",
"}m c #62767B",
".n c #222525",
"35 c #969795",
"H> c #627682",
" q c #58564D",
"u, c #627683",
"Qx c #D1D8D8",
"(k c #D1D8D9",
"YZ c #D6E8F5",
"xh c #D1D8DA",
"E5 c #A7D7FA",
"fb c #D6E8F6",
"Qc c #D6E8F7",
"0X c #D3E8E8",
"Rp c #CED8DA",
"S= c #A4D7FA",
"+i c #CED8DB",
"mr c #CED8DC",
"Ak c #D3E8F9",
")y c #95A7AD",
"Jp c #D2F8FE",
"$j c #D0E8F9",
"=r c #92A7AE",
"K& c #97B7CC",
"uC c #C6C8C8",
"+V c #141517",
"1- c #94B7CE",
"M2 c #99C7EB",
"3V c #CCF8FD",
"p# c #99C7EC",
"~, c #CCF8FE",
"@d c #CCF8FF",
"0B c #858787",
"Nd c #C0C8C9",
"oi c #C0C8CA",
"/e c #C0C8CB",
"1i c #C9F8FD",
"7e c #C0C8CC",
"-C c #C9F8FE",
"R@ c #C9F8FF",
"v7 c #87979F",
"BC c #49565A",
"<z c #C2D8E5",
"Y# c #C6F8FE",
"M5 c #C6F8FF",
"^h c #C2D8E9",
"H= c #8EB7D6",
"O% c #89A7BC",
"f@ c #89A7BD",
",n c #BFD8E3",
"v< c #C3F8FE",
"Q; c #C3F8FF",
"*O c #86A7BC",
"PB c #BFD8ED",
"ZX c #86A7BD",
"7m c #41464B",
"=. c #86A7BE",
"5o c #86A7BF",
"z: c #F0F9F9",
"@M c #BCD8E4",
"_% c #C0F8FF",
"/b c #3E464B",
"Xu c #B2B8B8",
"(d c #BCD8EE",
"3e c #B2B8BA",
"~5 c #83A7C3",
" l c #EDF9FB",
"F2 c #EDF9FD",
"eq c #E8E9E7",
"VZ c #B9D8F0",
"nq c #AFB8BC",
"Ek c #EAF9F9",
"*g c #EAF9FB",
"l* c #7B97AA",
"uf c #EAF9FC",
"`z c #78979E",
"/& c #B8E8FD",
"M$ c #B8E8FE",
"K0 c #ACB8BE",
"n> c #B8E8FF",
"3S c #E7F9FD",
"5. c #7897AB",
"B  c #7897AC",
"&* c #E7F9FE",
"N  c #7897AD",
"A  c #7897AE",
"T+ c #7897AF",
"4; c #7897B0",
"@8 c #B5E8FD",
"c1 c #B5E8FF",
"Yk c #E4F9FF",
"@n c #A9B8C3",
"81 c #708793",
"0= c #708798",
"82 c #DAD9D7",
",j c #E1F9FF",
"FN c #A6B8C6",
"xV c #68777E",
"I. c #6D8799",
"Qu c #DCE9EB",
"SO c #6D879A",
"Ai c #DCE9EC",
"04 c #687780",
"At c #A3B8C0",
"=d c #A8C8E0",
"uB c #65777C",
"fk c #A5C8D4",
"{p c #5B5749",
"Hy c #5B574D",
",9 c #9BA8B0",
"kZ c #D1D9D9",
"n2 c #A7D8F9",
".A c #D1D9DA",
"[< c #A7D8FA",
"ov c #D6E9F7",
"`p c #9DB8C6",
"=; c #A7D8FC",
"(r c #D1D9DD",
"Rn c #D6E9F8",
"[2 c #9DB8CB",
"qe c #CED9DD",
"~< c #9AB8CA",
"_> c #9AB8CB",
"!e c #C9C9C7",
"|x c #D2F9FE",
"x5 c #D2F9FF",
"p0 c #4D473C",
"V* c #97B8CC",
"B* c #97B8CD",
"wu c #C8D9D6",
"~* c #9CC8EB",
"|4 c #9CC8EC",
"xq c #4A473C",
";r c #4A473D",
"%f c #CDE9FC",
"EB c #C8D9E7",
"=B c #CCF9FD",
"-* c #CCF9FE",
"Go c #CCF9FF",
"sd c #CAE9FB",
";w c #C0C9CD",
"~S c #87989F",
"#< c #8CA8BA",
"_C c #828889",
"Ka c #C7E9FD",
"wN c #C2D9E5",
"K1 c #C6F9FD",
"(, c #C6F9FE",
")< c #C6F9FF",
"Lm c #444747",
"CB c #444748",
";$ c #89A8BC",
"vN c #EDCAD2",
".3 c #B8B9B7",
"0# c #89A8BD",
"QO c #89A8C0",
"Fn c #BFD9E3",
"eb c #BFD9E4",
"HM c #BFD9E5",
"74 c #C3F9FE",
"y8 c #F3FAFF",
"{= c #C3F9FF",
"|# c #86A8BD",
"yC c #B5B9B9",
"z+ c #86A8BE",
"7o c #86A8BF",
"8o c #86A8C0",
")2 c #8198A7",
"'A c #F0FAFB",
"i> c #86A8C5",
"{M c #F0FAFC",
"<6 c #86A8C6",
"33 c #F0FAFD",
"Oa c #83A8BA",
"[q c #393730",
"xn c #B7C9D5",
"kA c #BEE9FE",
"by c #79888D",
"(t c #79888F",
">k c #EDFAFC",
"ij c #EDFAFD",
"h; c #E8EAE7",
"aq c #AFB9BD",
"Pt c #AAA9A4",
"0A c #EAFAFD",
"W$ c #7B98AB",
"t6 c #AAA9A6",
"&X c #7B98AE",
"^  c #7B98AF",
"$@ c #B8E9FE",
":l c #B1C9D9",
"#: c #B8E9FF",
"[l c #B1C9DB",
"=D c #B1C9DD",
"4. c #7898AC",
"!+ c #7898AE",
"7O c #7898AF",
"g5 c #7898B0",
"(x c #E2EAEB",
"=6 c #AEC9D8",
"L5 c #AEC9D9",
"u- c #B5E9FF",
"mD c #AEC9DC",
"oD c #B3D9F9",
"ml c #E4FAFF",
"Cm c #A4A9A9",
"RX c #6B787C",
"au c #DFEAED",
"wi c #DFEAEF",
")i c #DADAD7",
"Ay c #A6B9C1",
"uh c #E1FAFF",
"_7 c #A6B9C4",
"Gm c #F75B76",
"T$ c #6D889A",
"&o c #687880",
"(. c #6D889B",
"). c #6D889C",
"S1 c #A8C9DA",
"1m c #D7DAD9",
"73 c #ADD9FB",
"h0 c #9EA9AE",
"Q2 c #657881",
"[y c #5B584D",
"8X c #D4DAD7",
"wB c #D4DADA",
"hc c #D4DADB",
"5s c #D8FAFE",
"97 c #A7D9F9",
"Yg c #D1DADB",
"l& c #627889",
" g c #D1DADC",
"hy c #D1DADE",
"ll c #D6EAFA",
"Kp c #D5FAFE",
"[V c #5A686D",
"Qj c #D3EAFA",
"*< c #9AB9CC",
"f: c #9AB9CD",
"7- c #9AB9CE",
"Ca c #9AB9CF",
"f6 c #95A9B6",
"Cn c #97B9C2",
"=2 c #D0EAF4",
"tv c #D2FAFF",
"nm c #92A9A9",
"u7 c #97B9C9",
"Rf c #D0EAFC",
"&> c #97B9CE",
"V; c #97B9CF",
"4, c #CFFAFE",
"Jt c #8D999C",
"/c c #54686D",
"iC c #888989",
"ye c #4A483F",
"Bd c #C3CACB",
"#y c #C3CACC",
"@z c #C8DAE7",
"AV c #CCFAFE",
"~r c #C3CACE",
"Ti c #8FA9B9",
"Dc c #CAEAFE",
"tb c #C5DAE6",
"eN c #C5DAE7",
"[5 c #C9FAFF",
"Bj c #C5DAEB",
"le c #8799A1",
"b= c #8CA9BC",
"H* c #8CA9BD",
"ru c #BBBAB8",
"Gv c #C2DAE6",
"]@ c #C6FAFD",
"$; c #C6FAFE",
"<5 c #C6FAFF",
"nd c #B8BAB9",
"Z+ c #89A9BF",
"OX c #89A9C0",
"y4 c #8499A6",
"7$ c #8EB9DC",
"'m c #060707",
"<4 c #F3FBFE",
"6g c #BFDAE8",
"mf c #BFDAEF",
"/s c #B5BABA",
"oO c #86A9C0",
"FC c #BACAD7",
"wV c #BFDAF2",
"$d c #C1EAFF",
"A0 c #F0FBFB",
"M6 c #86A9C5",
"Bc c #F0FBFC",
"+b c #F0FBFD",
"K= c #86A9C7",
"L, c #86A9C8",
"Am c #E5BBC4",
"se c #798990",
"r0 c #7E99AB",
"<k c #EDFBFD",
"E= c #B9DAE7",
">d c #EDFBFE",
"Y3 c #BBEAFC",
";5 c #BBEAFD",
"z$ c #BBEAFF",
"`0 c #AFBABF",
"<g c #B9DAF5",
"FS c #B4CADD",
"Q= c #EAFBFE",
"ho c #7B99AD",
"hr c #717977",
"l+ c #7B99AE",
"g. c #7B99AF",
"bX c #7B99B0",
"}6 c #7B99B2",
"_8 c #B8EAFE",
"+S c #B6DAF7",
"az c #E7FBFF",
"Z9 c #7899AF",
"E1 c #738996",
"fz c #A9BAB7",
"V1 c #7899B2",
"@2 c #7899B3",
"nz c #E2EBEC",
"{j c #E4FBFF",
"~8 c #A9BAC4",
"ed c #AECADF",
"^o c #6B797F",
"ys c #DFEBED",
"ly c #DFEBEF",
"Sg c #E1FBFE",
"ih c #E1FBFF",
"yt c #A6BAC3",
"]n c #F54C69",
"%a c #ABCAE4",
")m c #DCEBEB",
"kk c #A8CAD7",
">o c #6D899B",
"lX c #6D899C",
"9O c #A8CADA",
"t3 c #687984",
")f c #DEFBFE",
">5 c #ADDAFA",
"b5 c #ADDAFB",
"tX c #A5CAD1",
":1 c #ADDAFD",
"vV c #A5CAD3",
"5& c #ADDAFE",
"QB c #25282A",
"!s c #DBFBFE",
"|t c #5B5950",
"_S c #D4DBDB",
"$= c #AADAFB",
"xz c #D4DBDC",
"^; c #AADAFC",
"H5 c #A0BAC8",
"7N c #62797F",
"Pb c #222829",
"rk c #D6EBF4",
"LS c #D6EBF7",
"qf c #D1DBDD",
"Ci c #D1DBDE",
"`e c #D1DBDF",
"Vy c #98AAAF",
"j2 c #9DBACC",
"(7 c #98AAB4",
"m7 c #98AAB5",
"pf c #D5FBFD",
"Sz c #D5FBFF",
"Bf c #9ABAC9",
"%j c #D3EBFB",
"As c #9ABACD",
"H; c #9ABACE",
"6- c #9ABACF",
"q; c #D2FBFE",
"J8 c #D2FBFF",
" = c #97BACD",
"0c c #52595D",
"2Z c #CBDBE6",
"rA c #CBDBE7",
"DC c #52595F",
"98 c #9CCAEC",
"_Z c #CBDBE8",
"2& c #CFFBFE",
"[X c #CFFBFF",
"=3 c #9CCAEF",
"Y8 c #8D9AA1",
"Cf c #94BAC9",
"SD c #C8DBE6",
"/3 c #FCFCFC",
">0 c #CCFBFC",
")8 c #CCFBFD",
"sy c #C3CBCD",
"/N c #C8DBE8",
"(e c #C3CBCE",
"n0 c #CCFBFF",
"8e c #C3CBCF",
"/y c #8A9AA0",
"!0 c #F9FCFC",
"EA c #C5DBE7",
"T# c #C9FBFE",
"f% c #C9FBFF",
"j, c #8CAABC",
"ze c #879AA2",
"J, c #91BAD8",
",; c #91BAD9",
"Tq c #BBBBB9",
"6u c #828A8A",
"uM c #C7EBFE",
"Mb c #BDCBCB",
"pS c #C2DBE9",
"o9 c #F6FCFF",
"9> c #C6FBFF",
"&O c #89AABF",
"to c #89AAC0",
"ro c #89AAC1",
"v+ c #89AAC2",
"b+ c #89AAC3",
"Im c #060808",
"B4 c #F3FCFF",
"TM c #7F8A93",
"+a c #86AABE",
"]9 c #BACBD4",
";p c #819AA7",
"Vc c #F0FCFD",
"[x c #F0FCFE",
"b@ c #86AAC8",
"(+ c #F0FCFF",
"]f c #B2BBBA",
"4C c #BCDBF3",
"'5 c #BEEBFE",
"f, c #7E9AA9",
"Mq c #B2BBBF",
"Fr c #798A8F",
"7: c #7E9AAA",
"!w c #798A91",
"z@ c #7E9AAD",
"Z5 c #798A93",
"z* c #7E9AAE",
"KX c #7E9AB0",
"~n c #B1CBC8",
"8, c #BBEBFE",
"9& c #BBEBFF",
"#h c #B4CBDB",
"AA c #B4CBDD",
"2. c #7B9AAF",
"h. c #7B9AB0",
"d  c #7B9AB1",
"{O c #7B9AB3",
"z- c #7B9AB4",
"I= c #7B9AB5",
"{; c #7B9AB6",
"/6 c #B1CBD8",
"&; c #B8EBFE",
"&M c #717A81",
"l6 c #B1CBD9",
"q> c #B8EBFF",
"Tz c #B1CBDA",
"SA c #B1CBDB",
"5S c #E7FCFE",
"Nl c #E7FCFF",
"*C c #E2ECED",
"OV c #6E7A81",
"Cj c #AECBD8",
"{h c #AECBDA",
"bx c #E4FCFE",
".z c #E4FCFF",
"N5 c #DDDCDA",
"bD c #AECBE2",
">X c #708A9B",
"Si c #DFECEF",
"!u c #DFECF0",
"Q& c #A8CBCC",
"*2 c #ABCBDC",
"ql c #A8CBD6",
"xu c #5E5A4F",
"<f c #DEFCFE",
"!2 c #687A86",
"c$ c #ADDBFB",
"kO c #ADDBFC",
"<* c #ADDBFD",
"b$ c #ADDBFE",
"v$ c #ADDBFF",
"On c #25292B",
"J> c #657A86",
"3, c #DBFCFF",
"b1 c #AADBFA",
"i, c #657A88",
"`= c #AADBFB",
"Jl c #D4DCDC",
"+k c #D4DCDD",
"hb c #D9ECFA",
",M c #D9ECFC",
"s4 c #A0BBCB",
".4 c #A0BBCD",
"qn c #98ABA8",
"Mx c #D6ECFB",
" e c #D1DCE1",
"`t c #98ABB2",
"!< c #9DBBCD",
"pr c #98ABB3",
")> c #9DBBCF",
"Pd c #D5FCFD",
"Fo c #D5FCFE",
"J7 c #9ABBCA",
"BN c #5A6A74",
"h= c #9ABBCF",
"g= c #9ABBD0",
"*> c #9ABBD1",
"0S c #CEDCE8",
"^a c #D2FCFE",
"#6 c #95ABB7",
"Mp c #9ABBD2",
"aO c #D2FCFF",
"{v c #171919",
"R= c #97BBCF",
"N9 c #9CCBEC",
"xC c #CBDCE8",
"hh c #C6CCCD",
"ZB c #CFFCFE",
"'Z c #CBDCE9",
"jh c #C6CCCE",
"tZ c #CBDCEA",
"#M c #4F5A5F",
"yb c #C8DCE8",
"^p c #FCFDFF",
"1n c #C8DCE9",
"z6 c #CCFCFF",
"4y c #8A9BA1",
"ak c #C8DCED",
"R6 c #8A9BA5",
"[@ c #C9FCFD",
"L1 c #C9FCFE",
"s; c #C9FCFF",
"Tw c #474A47",
"ca c #C2DCDB",
"_; c #91BBDA",
"X% c #8CABC0",
"1$ c #8CABC1",
"Z3 c #91BBDC",
"Z6 c #C2DCE7",
".$ c #89ABBF",
"Lx c #444A4E",
"=b c #C2DCF1",
"Ud c #C4ECFC",
"LO c #89ABC2",
"FB c #C4ECFE",
"6V c #C4ECFF",
"[S c #F3FDFE",
"OA c #F3FDFF",
"oV c #7F8B93",
"Na c #86ABBC",
"lv c #BACCD3",
"Kx c #414A4E",
"Yu c #B5BCBD",
"K8 c #C1ECFE",
"qV c #BFDCF6",
"4> c #7C8B90",
"sh c #F0FDFD",
"4S c #F0FDFE",
"ny c #7C8B91",
"{x c #F0FDFF",
";7 c #7C8B94",
"sq c #B2BCC0",
"5X c #ADACA9",
"-S c #B7CCE0",
"G% c #7E9BAF",
"go c #7E9BB0",
"O: c #BBECFD",
"X@ c #BBECFE",
"|X c #BBECFF",
"Td c #B9DCF7",
"T= c #7B9BAF",
"|* c #7B9BB0",
"4z c #363A3E",
"b  c #7B9BB1",
"mn c #AFBCC7",
"p  c #7B9BB2",
"/2 c #768B98",
"|7 c #7B9BB4",
"2X c #717B7F",
"d8 c #B8ECFD",
"5< c #B8ECFE",
"Bl c #E7FDFF",
"*D c #B1CCDF",
"x9 c #ACBCC4",
"tV c #6E7B86",
"8g c #E4FDFE",
"sN c #ABCCCF",
"`# c #708B9C",
"TX c #6B7B84",
"K. c #708B9F",
"dp c #E1FDFD",
"}p c #615B4F",
".m c #E1FDFF",
"C@ c #708BA2",
"O* c #708BA4",
"t; c #B0DCFC",
"Y7 c #B0DCFD",
"un c #282A2A",
"+9 c #DEFDFD",
"cd c #DEFDFE",
"cu c #5E5B50",
"X8 c #DEFDFF",
"%= c #ADDCFB",
"E: c #ADDCFC",
"Yo c #ADDCFD",
"sc c #9EACB1",
"(p c #DBFDFE",
"0% c #DBFDFF",
"}9 c #AADCFA",
",4 c #D9EDF6",
"}4 c #AADCFB",
"ww c #606B6F",
"*o c #657B8A",
"ch c #D4DDDE",
"z& c #657B8C",
"nv c #D9EDFA",
"lm c #D9EDFB",
".9 c #A0BCCE",
"<8 c #9BACB5",
"V# c #D8FDFE",
"gr c #98ACB4",
",> c #9DBCD0",
"Ea c #CCCDCB",
"d: c #9DBCD1",
"j$ c #D5FDFE",
"|+ c #D5FDFF",
",v c #555B5B",
"x> c #D2FDFD",
"=> c #9ABCD2",
"6b c #CEDDE8",
"3i c #D2FDFE",
"5D c #CEDDE9",
"&B c #D2FDFF",
"-9 c #909CA3",
"<e c #4D4B41",
")+ c #FFFEFE",
"}M c #CFFDFE",
"No c #FFFEFF",
"Lg c #C6CDCE",
"R9 c #CFFDFF",
"dm c #CBDDEA",
"V4 c #FCFEFC",
"7r c #FCFEFD",
"%+ c #FCFEFE",
"q* c #CCFDFE",
"`: c #FCFEFF",
"g% c #CCFDFF",
"/# c #4F5B63",
")b c #C8DDEB",
"Aw c #BEBDB9",
"j1 c #858C89",
"ur c #8A9CA4",
"4k c #CAEDFE",
"h4 c #F9FEFD",
"c3 c #F9FEFE",
"-@ c #C9FDFE",
"C, c #F9FEFF",
"0q c #C0CDD3",
"=$ c #8CACC0",
"zg c #C5DDF1",
"8# c #8CACC1",
"s@ c #8CACC2",
"C+ c #8CACC3",
"#O c #8CACC4",
"*1 c #F6FEFE",
"!V c #090A0A",
"** c #F6FEFF",
";n c #090A0B",
"v0 c #BDCDD6",
"/S c #7F8C8F",
"l2 c #F3FEFD",
"W9 c #F3FEFE",
"*7 c #F3FEFF",
",% c #89ACCC",
"[C c #C1EDFD",
"aa c #C1EDFF",
")l c #BFDDF6",
"&w c #B5BDC1",
"-6 c #F0FEFE",
"{5 c #F0FEFF",
"Nt c #7C8C92",
"sA c #86ACC9",
"=e c #7C8C94",
".M c #3E4B4F",
"48 c #B7CDD9",
"Ga c #BCDDF5",
"XZ c #BCDDF7",
"g& c #EDFEFE",
"3A c #B7CDDE",
"P3 c #EDFEFF",
"ZA c #B7CDDF",
"Q$ c #7E9CAF",
"CA c #B7CDE1",
"H+ c #7E9CB0",
"hu c #747C7A",
"JX c #7E9CB1",
"fo c #7E9CB2",
"u  c #7E9CB3",
"{, c #747C7E",
"yq c #6F6C64",
"8+ c #BBEDFE",
"69 c #BBEDFF",
"a9 c #EAFEFC",
"4A c #B4CDDC",
"P5 c #EAFEFD",
"m% c #EAFEFE",
"f& c #EAFEFF",
"$c c #B4CDDE",
" 9 c #7B9CB0",
"A8 c #7B9CB4",
"w8 c #7B9CB5",
"F: c #7B9CB6",
"}O c #7B9CB7",
"9v c #E5EEEF",
"$B c #E5EEF0",
"DA c #B1CDDB",
"86 c #E7FEFC",
"i5 c #E7FEFD",
"d& c #E7FEFE",
"n% c #E7FEFF",
"fu c #696C65",
"s, c #738C9C",
"qw c #6E7C82",
"*- c #738C9D",
"q= c #738C9E",
"ei c #E2EEF2",
"I5 c #E4FEFD",
"2, c #E4FEFE",
"^3 c #E4FEFF",
"Sy c #A9BDC3",
"]t c #A9BDC6",
"vD c #AECDE4",
"xX c #708C9E",
"`. c #708CA0",
"E2 c #E1FEFE",
"+8 c #B0DDF8",
"'. c #708CA1",
"v% c #E1FEFF",
".+ c #708CA2",
"_3 c #6B7C88",
"r$ c #708CA3",
"Lo c #B0DDFC",
"P2 c #B0DDFF",
"9c c #282B2E",
"15 c #DEFEFD",
"e, c #DEFEFE",
"N< c #DEFEFF",
"xy c #5E5C53",
"8x c #D7DEDF",
"cz c #D7DEE0",
"}B c #252B2D",
"Z> c #DBFEFE",
"72 c #DBFEFF",
"N4 c #D9EEF9",
"<: c #606C71",
".g c #D4DEDF",
"*y c #D4DEE1",
"Se c #D4DEE3",
"_y c #9BADB3",
"{2 c #A0BDCE",
"4i c #CFCECB",
"1& c #D8FEFE",
"M< c #D8FEFF",
"8C c #9BADBC",
"R< c #9DBDD0",
"K6 c #D5FEFD",
"]- c #9DBDD2",
"U: c #D5FEFE",
"x, c #9DBDD3",
"pj c #D5FEFF",
"X= c #D3EEF8",
"d* c #5A6C75",
"%0 c #504C41",
"V> c #D2FEFD",
"y& c #D2FEFE",
"[4 c #D2FEFF",
"1Z c #CEDEEA",
"w5 c #95ADBA",
"C3 c #9FCDF0",
"YM c #555C63",
"{c c #CEDEEB",
";; c #9FCDF1",
"(; c #9FCDF2",
"ug c #97BDCB",
"8n c #909DA6",
"Zf c #97BDCD",
"S6 c #FFFFFC",
"J@ c #FFFFFD",
"d< c #FFFFFE",
"h% c #CFFEFE",
"^X c #FFFFFF",
"M= c #CFFEFF",
"dy c #C6CED0",
"sl c #CBDEEC",
"{w c #C6CED2",
"Nk c #CBDEED",
"<d c #CDEEFD",
"_+ c #FCFFFE",
";@ c #CCFEFE",
"+= c #FCFFFF",
"sB c #4F5C61",
"r+ c #CCFEFF",
"0r c #4A4C4A",
"$< c #8FADBF",
"Z: c #94BDDD",
"Sc c #CAEEFE",
"U& c #8FADC3",
"U4 c #F9FFFD",
"P@ c #F9FFFE",
"^: c #C9FEFE",
"m# c #F9FFFF",
"wX c #C2DEDC",
":4 c #8CADC0",
"+h c #C5DEF2",
"~i c #C7EEFD",
"If c #C5DEF3",
"V+ c #8CADC3",
"@O c #8CADC4",
"6$ c #91BDDF",
"}u c #F6FFFD",
"d$ c #F6FFFE",
"dZ c #BDCECE",
"'+ c #F6FFFF",
"!M c #BDCECF",
"ec c #828D96",
"os c #89ADBD",
"M0 c #849DA4",
"21 c #F3FFFD",
"], c #F3FFFE",
"&+ c #F3FFFF",
"F7 c #89ADCC",
"o& c #89ADCE",
"7k c #BFDEF5",
"0V c #BFDEF8",
"}> c #F0FFFE",
"Nq c #B5BEC2",
"yO c #F0FFFF",
"/h c #BACEDE",
"gv c #BACEDF",
"de c #7C8D94",
"S4 c #BEEEFE",
"cv c #EBEFEF",
"A# c #BEEEFF",
"1, c #EDFFFD",
"_, c #EDFFFE",
"hv c #B7CEDD",
"[+ c #EDFFFF",
"lx c #B7CEE0",
"1. c #7E9DB2",
"[v c #747D7D",
"y  c #7E9DB4",
"-  c #7E9DB5",
"=  c #7E9DB6",
"X, c #BBEEFF",
"g< c #EAFFFC",
"_: c #EAFFFD",
"2= c #EAFFFE",
"GZ c #B4CEDE",
"L$ c #EAFFFF",
"*A c #B9DEFA",
"`9 c #AFBEC5",
".f c #B4CEE1",
"9k c #B4CEE3",
"f5 c #7B9DB7",
"vc c #E5EFF0",
"*k c #E5EFF1",
"B< c #E7FFFD",
"g$ c #E7FFFE",
"!# c #E7FFFF",
".D c #B6DEFC",
"k* c #738D9E",
"Su c #E2EFF2",
"1k c #E4FFFD",
"K$ c #E4FFFE",
"&i c #E2EFF4",
"O; c #E4FFFF",
")w c #9F9E98",
"/0 c #A4AEB3",
"wl c #ABCED9",
"=z c #ABCEDA",
"}v c #2B2C2D",
"n3 c #E1FFFD",
"cX c #708DA0",
"<& c #E1FFFE",
"J$ c #E1FFFF",
"~+ c #ABCEDE",
":5 c #B0DEFA",
"`u c #615D52",
"y3 c #6B7D88",
"X+ c #708DA3",
"$& c #708DA4",
"+: c #B0DEFD",
"To c #B0DEFE",
"]z c #A8CED9",
"cB c #282C2D",
"+3 c #DEFFFD",
"p& c #DEFFFE",
"e6 c #DEFFFF",
"{7 c #ADDEFB",
"ey c #5E5D54",
"E* c #ADDEFD",
"EM c #DCEFF9",
"*; c #ADDEFE",
"Rr c #5E5D56",
" b c #D7DFDF",
"_k c #D7DFE0",
"@k c #D7DFE1",
"m3 c #DBFFFD",
"P1 c #DBFFFE",
"Do c #DBFFFF",
"3: c #657D8A",
"3@ c #657D8E",
"X0 c #5B5D59",
"rs c #D4DFE1",
"Gk c #D9EFFD",
"^j c #D9EFFE",
"d2 c #A0BED0",
"n, c #A0BED1",
"Zc c #D8FFFD",
"dr c #9BAEB7",
"C> c #D8FFFE",
"p: c #A0BED3",
"e3 c #CFCFCE",
"J- c #D8FFFF",
"TV c #9BAEB9",
"$C c #627D8A",
"k7 c #D5FFFD",
"-< c #9DBED2",
"F$ c #D5FFFE",
"!> c #9DBED3",
"{N c #D1DFE9",
"d; c #D5FFFF",
"~> c #9DBED4",
"*f c #D3EFFE",
"7; c #9ABECF",
"K9 c #909E9A",
"te c #504D43",
"4< c #D2FFFD",
"m< c #D2FFFE",
"D$ c #D2FFFF",
"eA c #CEDFEB",
"UM c #555D63",
".k c #C9CFD0",
"lh c #C9CFD1",
">c c #CEDFEC",
"(4 c #95AEBC",
"&4 c #9FCEF2",
"LM c #CEDFED",
"R8 c #909EA5",
":@ c #CFFFFD",
"7> c #CFFFFE",
" - c #CFFFFF",
"{i c #C6CFD1",
"9e c #C6CFD3",
"<s c #CDEFFC",
" 6 c #888E8E",
"nB c #C3CFD0",
"iX c #8FAEBE",
"|q c #4A4D4C",
"dc c #4A4D4E",
"Ye c #8A9EA6",
"4h c #C8DFF2",
">a c #CAEFFE",
"t> c #94BEDE",
"xg c #C8DFF4",
"*4 c #94BEDF",
" % c #8FAEC5",
"z4 c #94BEE0",
"^4 c #8A9EAC",
"1w c #807E76",
"fN c #C0CFCF",
"gN c #C0CFD0",
"L% c #8CAEC3",
"#x c #474D52",
"o$ c #8CAEC5",
"1# c #8CAEC6",
"/n c #BDCFD0",
"|; c #BFDFEB",
"'; c #89AECC",
":7 c #7F8E96",
"u> c #89AECD",
"c5 c #C1EFFE",
"(8 c #BACFDA",
"Kh c #BFDFF7",
"DZ c #BACFE0",
"]y c #777E7A",
"/w c #7C8E95",
"l@ c #819EB2",
"}X c #BEEFFE",
"3x c #B2BFBF",
"cj c #B7CFDE",
".Z c #BCDFFB",
"3o c #7E9EB3",
"4m c #747E7F",
"H  c #7E9EB5",
"p; c #BBEFFD",
"bp c #798E9B",
"@  c #7E9EB6",
"b: c #BBEFFE",
"7  c #7E9EB7",
"c2 c #BBEFFF",
"r< c #7E9EB9",
"6n c #747E85",
"*S c #B4CFE3",
" > c #768E9E",
"rj c #E5F0F2",
"J3 c #B1CFDF",
"2< c #E0E0DE",
"ob c #A7AFB0",
"$D c #B1CFE7",
"+p c #E2F0F3",
"'# c #738EA1",
"8@ c #738EA2",
"U, c #738EA5",
"+1 c #738EA6",
"y< c #738EA7",
"{b c #DDE0DF",
"qv c #2B2D2D",
"D@ c #ABCFDF",
"1+ c #B0DFFA",
"'u c #615E52",
"f> c #708EA4",
"7g c #DFF0F8",
"~@ c #B0DFFD",
"y; c #B0DFFE",
"j6 c #A6BFCC",
"}V c #A8CFD8",
"'B c #A8CFD9",
"$4 c #ADDFFB",
"`6 c #ADDFFC",
"{: c #687E8B",
"9j c #D7E0E1",
"vh c #D7E0E2",
"L6 c #D2D0CD",
"8N c #252D2F",
"-d c #A3BFD6",
"ma c #A3BFD7",
"(o c #657E8E",
"a+ c #657E90",
"xe c #5B5E5B",
"Zi c #D4E0E3",
"Xz c #D9F0FE",
"=j c #D9F0FF",
"fn c #5B5E5F",
"sr c #9BAFB7",
",< c #A0BFD2",
"Xt c #9BAFB8",
"/> c #A0BFD3",
"i: c #A0BFD4",
"#a c #A0BFD5",
"Mg c #D6F0FE",
"dB c #98AFB9",
" M c #9ABFC7",
"CC c #1A1D1F",
"~k c #C9D0D0",
"JC c #CEE0EE",
"+C c #CEE0EF",
"p2 c #95AFC0",
"bf c #D0F0FD",
">8 c #909FA7",
"]> c #92AFC1",
"j: c #92AFC2",
"i7 c #C8E0E9",
"tD c #C3D0D1",
"&F c #C8E0ED",
"j5 c #8FAFC1",
"N+ c #8FAFC5",
"M+ c #8FAFC6",
"#, c #94BFE1",
" & c #94BFE2",
"wn c #C0D0D0",
"ZV c #0C0D0D",
"(n c #C0D0D1",
"Rv c #0C0D0E",
"]M c #F0D1D8",
";B c #C7F0FE",
"nV c #474E53",
"%N c #C0D0DF",
"h> c #C2E0EC",
"(a c #C4F0FD",
"sM c #C2E0F6",
",B c #C2E0F9",
"Fw c #B8C0C4",
"my c #7F8F94",
"2y c #7F8F95",
")* c #89AFCF",
"p6 c #7F8F99",
"{A c #C1F0FE",
"e% c #C1F0FF",
"=Z c #BAD0DF",
"dq c #B5C0C5",
"$Z c #BAD0E2",
"8: c #819FB2",
"t= c #819FB4",
")O c #819FB5",
"x< c #BEF0FD",
"!4 c #7C8F9B",
"Y* c #BEF0FE",
"Y2 c #BEF0FF",
"RV c #B7D0DE",
"'l c #B7D0E4",
"<A c #B7D0E5",
"P# c #BBF0FD",
"}. c #7E9FB6",
"y- c #BBF0FE",
"p3 c #798F9C",
"+  c #7E9FB7",
"sC c #E8F1F0",
"U+ c #7E9FBA",
"QD c #E8F1F2",
"l- c #7E9FBB",
"bc c #E8F1F3",
"7n c #747F86",
"l: c #AAB0AE",
"Cx c #AFC0CB",
"gp c #6C6F67",
"o< c #768F9D",
"Nh c #E5F1F2",
"wr c #717F85",
"#e c #717F86",
"bw c #717F87",
">4 c #B1D0DF",
"@1 c #768FA6",
"28 c #ACC0CB",
"'o c #738FA2",
"gu c #696F6D",
"a. c #738FA4",
"pi c #645F54",
"$2 c #738FA6",
"L8 c #B3E0FE",
"V@ c #738FA7",
"zv c #A4B0B3",
"[z c #ABD0DA",
"6; c #708FA4",
"bo c #ABD0E1",
"|0 c #A1B0AC",
"I8 c #B0E0FD",
"=v c #666F71",
"&v c #666F72",
"qF c #DAE1E2",
"&6 c #A6C0CE",
"2c c #A8D0D9",
"3c c #A8D0DA",
"l9 c #A1B0B7",
"gX c #687F8F",
"Tg c #D7E1E3",
"Hk c #DCF1FE",
"%u c #D7E1E4",
"X4 c #A3C0D1",
"k3 c #A3C0D2",
"9; c #D9F1F6",
"Rx c #99A0A0",
"m- c #D9F1F7",
"tg c #A0C0CE",
":> c #A0C0D4",
"L* c #98B0AD",
"Np c #A0C0D8",
"yn c #1D1E1E",
"Qf c #D6F1FE",
"AD c #D1E1ED",
"5b c #D1E1EE",
"gd c #D3F1FE",
"Eb c #1A1E21",
"|9 c #9FD0F1",
"1s c #D0F1FD",
"mB c #C6D1D1",
"/q c #C6D1D7",
"I< c #92B0C2",
"+j c #CBE1F3",
"v= c #92B0C4",
"R> c #92B0C5",
"hN c #C3D1D1",
"mb c #C3D1D2",
"L9 c #8AA0A3",
"-q c #C3D1D8",
"Gh c #CAF1FE",
"-N c #4A4F51",
"b* c #8FB0C4",
"g- c #94C0DF",
"i@ c #8FB0C5",
"m+ c #8FB0C6",
"[m c #C3D1DC",
">; c #94C0E2",
"u4 c #8AA0AD",
"cw c #423F39",
"5f c #BBC1C1",
"&b c #C5E1F8",
":C c #C4F1FE",
"#B c #B8C1C1",
"Ls c #C2E1F7",
"ZN c #C2E1F8",
"4B c #BDD1E1",
"Or c #7F9096",
";e c #7F9098",
"B2 c #89B0CE",
",e c #7F9099",
"N- c #C1F1FE",
"8s c #EEF2F1",
"5B c #BAD1DF",
"YB c #BAD1E0",
"&q c #B5C1C6",
"(% c #7C9095",
"H% c #81A0B3",
"r# c #81A0B4",
"so c #81A0B6",
"0> c #BEF1FE",
"Qo c #BEF1FF",
"E  c #81A0B8",
"Ap c #BCE1F9",
";d c #B7D1E0",
"NZ c #BCE1FD",
"@v c #B2C1CA",
";m c #393F43",
"Pp c #ADB1B0",
"_w c #ADB1B1",
"D- c #BBF1FD",
"|. c #7EA0B6",
"5i c #ADB1B2",
"lB c #B2C1CE",
"@. c #7EA0B8",
"`S c #E8F2F2",
"H< c #7990A0",
"C2 c #7EA0BB",
"Db c #E8F2F3",
"XS c #B9E1FC",
"%S c #B4D1EA",
"Ar c #718085",
"Qg c #E5F2F3",
" r c #718086",
"#g c #E5F2F4",
"ie c #718087",
"nw c #718088",
"DN c #71808B",
"[t c #ACC1C9",
"it c #ACC1CA",
"#D c #B1D1EA",
"3q c #A7B1B5",
"+q c #A7B1B6",
"{z c #AED1DC",
"kp c #646053",
"q. c #7390A4",
"ii c #646054",
"aX c #6E808A",
"s. c #7390A5",
"<2 c #B3E1FD",
"Ji c #646055",
"`3 c #6E808B",
"[  c #7390A6",
"c# c #AED1E3",
"93 c #B3E1FE",
"5; c #7390A7",
"g7 c #B3E1FF",
"#& c #7390A8",
"qm c #ABD1DA",
"}D c #AED1EB",
"|V c #ABD1DB",
"lV c #2B2F32",
"<p c #AED1F0",
":* c #B0E1FD",
"%3 c #B0E1FE",
"71 c #6B808D",
"Kl c #DAE2E3",
"tz c #DFF2FE",
"#k c #DAE2E4",
"vm c #DFF2FF",
"9b c #A8D1DA",
"`a c #ABD1EE",
"!C c #9CA1A2",
"T. c #688090",
"Wc c #DCF2FD",
"x& c #688091",
"(j c #DCF2FE",
"iu c #D7E2E4",
"_r c #D7E2E6",
"wh c #D9F2FF",
"41 c #607079",
"|y c #565044",
"XN c #60707A",
"p1 c #A0C1D4",
":< c #A0C1D5",
"&h c #9DC1CF",
"N0 c #535044",
",q c #535045",
"C0 c #535046",
"5w c #586061",
"He c #535047",
"Cl c #CCD2CF",
"dz c #CCD2D1",
"jz c #CCD2D2",
"<Z c #D1E2EF",
"Kv c #D1E2F0",
"@C c #D1E2F1",
"i# c #A2D1F8",
"Ex c #C9D2D3",
"qs c #C9D2D4",
"^z c #CEE2EF",
"^r c #C9D2D5",
"}w c #C9D2D7",
"Ct c #90A1A8",
"`C c #8B9192",
")n c #C6D2D2",
"Bm c #C6D2D3",
"Ac c #CDF2FE",
"Ee c #8DA1A8",
"|- c #92B1C5",
"y$ c #92B1C8",
"q< c #97C1E4",
"Uq c #838179",
"Uf c #C8E2F7",
"I% c #8FB1C7",
"U% c #8FB1C8",
"T, c #C5E2ED",
"SB c #C7F2FD",
"Vs c #8CB1C1",
"hi c #C7F2FE",
"oe c #424039",
".i c #BBC2C3",
"pd c #C5E2F9",
"Nu c #BBC2C4",
"4e c #BBC2C5",
"!m c #C0D2E0",
"Vj c #C0D2E1",
"w1 c #87A1B4",
"K, c #8CB1D0",
"aM c #C2E2F9",
"HZ c #BDD2E1",
"Bq c #B8C2C6",
",h c #BDD2E3",
"^u c #B3B2AE",
"u# c #84A1B4",
"k@ c #84A1B5",
"dO c #C1F2FE",
"== c #C1F2FF",
"'g c #BFE2FA",
"#Z c #BAD2E4",
"V, c #B0B2AE",
"lr c #B0B2B0",
"Y5 c #BEF2FD",
"ju c #778180",
":O c #81A1B6",
"&@ c #BEF2FE",
"4o c #81A1B7",
"R  c #81A1B8",
"#  c #81A1B9",
"(2 c #7C919F",
"c  c #81A1BA",
"tl c #B7D2E0",
"%d c #BCE2FB",
"!S c #B4D2DB",
"W1 c #79919F",
";z c #B4D2DE",
"Tl c #E8F3F4",
"{k c #E8F3F5",
"^8 c #AFC2CC",
"ms c #B4D2EA",
"YA c #B1D2DB",
"7w c #718188",
" d c #E5F3F5",
"]# c #7691A4",
"is c #E5F3F6",
"b& c #7691A5",
"ya c #E5F3F7",
":X c #7691A6",
"qy c #ACC2CA",
"^5 c #7691AB",
"1@ c #A9C2BF",
"tS c #AED2DB",
"_c c #AED2DC",
"Fx c #AED2DD",
"(& c #B3E2FB",
"n$ c #B3E2FC",
"7& c #B3E2FD",
"Ki c #646155",
"Z- c #B3E2FE",
"&= c #B3E2FF",
"1O c #6E818D",
"l# c #7391A8",
"^d c #E2F3FA",
"ti c #646158",
"2C c #6E8191",
"Av c #ABD2DB",
"+v c #697179",
"0b c #ABD2DC",
"9n c #A4B2BB",
"d9 c #9FA2A1",
"44 c #B0E2FD",
"l5 c #DFF3F8",
"D, c #B0E2FE",
"9A c #DFF3FA",
"4O c #6B8190",
"R- c #6B8191",
"Ev c #DFF3FE",
"9= c #6B8192",
"bl c #DFF3FF",
"0j c #DAE3E5",
"qd c #A6C2D6",
"Ss c #A6C2D7",
"lf c #A6C2D8",
"Y. c #688191",
"ZO c #688193",
"yp c #D7E3E6",
"De c #D7E3E7",
"7y c #9EB2B9",
"^M c #5E6162",
"M7 c #9EB2BC",
"`1 c #A3C2D7",
"ls c #A3C2DA",
"=i c #565146",
"g6 c #9BB2BE",
"4D c #D4E3F1",
"-f c #D6F3FE",
"&V c #1D2020",
"!9 c #96A2A9",
"kz c #CCD3D3",
"jZ c #CCD3D4",
"e0 c #A2D2F4",
"v6 c #A2D2F5",
"+, c #A2D2F6",
":c c #D1E3F1",
"s- c #A2D2F8",
"Rs c #D3F3FE",
"Bi c #C9D3D4",
"Tp c #C9D3D5",
"Rj c #CEE3F4",
"Xs c #95B2C4",
"ir c #90A2A9",
"2> c #95B2C6",
"E6 c #90A2AD",
"+l c #CDF3FE",
"^i c #CDF3FF",
"9B c #4D5152",
"3# c #92B2C8",
"2# c #92B2C9",
"^* c #97C2E5",
">V c #0F1010",
"6z c #0F1011",
"Id c #CAF3FE",
"+s c #8FB2C4",
"]V c #C3D3DE",
"Tv c #4A5156",
"#f c #C8E3F9",
"S& c #8FB2C8",
"fm c #C3D3DF",
"mV c #C3D3E1",
"f7 c #C7F3FE",
"tu c #BBC3C4",
"'i c #BBC3C5",
"pN c #C0D3E0",
"Gc c #C5E3FB",
"Gw c #BBC3C6",
"GN c #C0D3E2",
"<u c #829296",
"A3 c #8CB2D0",
"+A c #C4F3FD",
"l$ c #C4F3FE",
"ON c #C2E3F9",
":s c #C2E3FA",
"6k c #C2E3FB",
">B c #C2E3FC",
"Pc c #BDD3E3",
"H6 c #C1F3FD",
"a% c #C1F3FE",
"., c #C1F3FF",
"/O c #84A2B8",
"/V c #EEF4F4",
"]v c #B5C3C3",
"yl c #BAD3E1",
"|C c #BFE3FE",
"<C c #BFE3FF",
"P0 c #B5C3C9",
"Iz c #BAD3E7",
"f8 c #BEF3FD",
"kV c #3C4145",
"mu c #B0B3B2",
"I# c #BEF3FE",
"i< c #81A2B7",
"nO c #BEF3FF",
"T  c #81A2B8",
",  c #81A2B9",
">  c #81A2BA",
"J  c #81A2BB",
"kb c #778288",
"p> c #81A2BE",
":z c #B7D3E1",
"c9 c #B2C3CC",
",A c #B7D3E8",
"rD c #AFC3C1",
"Mt c #748288",
"-k c #E8F4F5",
"yj c #E8F4F6",
"Vh c #E8F4F7",
"2j c #AAB3B0",
"1g c #B4D3EC",
"8b c #B1D3DD",
"WS c #B1D3DE",
"4q c #AAB3B8",
"sp c #E5F4F7",
";X c #7692A7",
"n4 c #7692A8",
"Ht c #ACC3CA",
"G7 c #7692A9",
"t7 c #7692AA",
"1F c #AED3DC",
"qC c #ACC3D1",
"0D c #AED3DE",
"@D c #B1D3EE",
"Cp c #B1D3F1",
"k< c #B3E3FC",
"3* c #B3E3FD",
"l< c #B3E3FE",
":v c #697273",
"jS c #DDE4E5",
"0x c #DDE4E6",
"*n c #6B8288",
"L: c #DFF4F7",
"i- c #B0E3FF",
"2O c #667277",
"xt c #DAE4E8",
"w9 c #A6C3D3",
"Za c #A6C3D8",
"Wd c #A6C3DA",
"-j c #DCF4FF",
"BO c #637278",
"sX c #637279",
")o c #688294",
":, c #A3C3D7",
"Bg c #D9F4FE",
"gn c #202121",
"3N c #D4E4F0",
"YN c #D4E4F1",
".v c #D4E4F2",
"Wt c #CCD4D6",
"MV c #D1E4F2",
"Ia c #D3F4FE",
"Xx c #93A3AD",
"1D c #CEE4EF",
"5l c #CEE4F4",
"By c #90A3A8",
"t1 c #95B3C6",
"f0 c #C4C4C2",
"L; c #95B3C7",
"d6 c #90A3AE",
"k8 c #8B9397",
"ue c #4D5250",
";g c #CDF4FE",
"5d c #92B3C3",
"4# c #92B3C8",
"q7 c #97C3E4",
"TN c #C6D4DF",
"yB c #C6D4E0",
"u= c #92B3CA",
"5$ c #97C3E6",
"i= c #92B3CB",
"ZC c #0F1112",
"In c #88939C",
"Cs c #8FB3C5",
"(s c #BEC4C6",
"B, c #8AA3B0",
"iV c #C3D4E2",
">r c #BEC4C7",
"u2 c #8AA3B3",
"/d c #C5E4F7",
"sw c #BBC4C8",
"$N c #C0D4E3",
"6A c #C0D4E4",
"v@ c #8CB3D1",
"<; c #8CB3D2",
"K2 c #C4F4FF",
">% c #8CB3D4",
",m c #7D8385",
"jg c #BDD4E6",
"j7 c #C1F4FE",
"c* c #84A3B8",
"po c #84A3B9",
">z c #BAD4E2",
"a; c #BEF4FE",
"#. c #81A3BB",
"lS c #EBF5F5",
"*, c #81A3BE",
"bN c #EBF5F6",
"`* c #81A3C0",
"|n c #EBF5F7",
"[a c #B7D4E4",
"M4 c #B7D4E5",
"@w c #E6E5E5",
"2d c #B7D4EB",
"h& c #E8F5F4",
"RA c #B4D4DF",
"{r c #748389",
"mw c #74838B",
"~g c #E8F5F8",
"ba c #B4D4E7",
"$S c #B4D4EC",
"#q c #AAB4B9",
"5+ c #B6E4FF",
"=p c #676357",
"]. c #7693A8",
"FO c #7693A9",
"u$ c #B1D4E6",
"_  c #7693AA",
"R* c #B3E4FD",
"H4 c #B3E4FE",
"[N c #2E3235",
"Oo c #B3E4FF",
"T4 c #697374",
"F< c #6E8391",
"Ix c #E2F5FF",
"7v c #DDE5E6",
"Ll c #DDE5E7",
"!o c #ABD4DD",
"/+ c #DFF5F9",
"[D c #AED4F4",
"_j c #DFF5FF",
"Ey c #61635E",
"bh c #DAE5E6",
"$h c #A6C4D2",
"{s c #DAE5E8",
"&u c #DAE5E9",
"Br c #DAE5EA",
"S0 c #D5D5D3",
"-o c #688395",
"~f c #D9F5FE",
";f c #D9F5FF",
"em c #607379",
"'b c #202222",
"`q c #565348",
"Iq c #565349",
"UD c #CFD5D5",
"dA c #96A4A4",
"Gl c #CFD5D6",
"IM c #5B636A",
"Ok c #CFD5D7",
"Lv c #D4E5F2",
"e5 c #9BB4C2",
"4b c #D4E5F3",
"ga c #A0C4E2",
"Ib c #1D2224",
"Yb c #1D2225",
"Qn c #96A4AD",
"`s c #CCD5D7",
"bB c #93A4A6",
"%y c #CCD5D8",
"/7 c #93A4AD",
"px c #D0F5FE",
"#o c #95B4C3",
"A* c #95B4C8",
"x= c #95B4C9",
"I& c #95B4CA",
"!l c #CDF5FD",
" N c #CDF5FE",
"fS c #889490",
"~t c #484339",
"w: c #92B4C9",
")B c #C6D5E1",
"F= c #97C4E6",
"n1 c #97C4E7",
"^+ c #C8E5EF",
"U3 c #CAF5FD",
"=8 c #88949B",
"Hq c #454338",
"md c #BEC5C6",
"Up c #BEC5C7",
"zr c #BEC5C8",
"^y c #85949A",
"NB c #808485",
"aA c #C0D5DF",
"<m c #F4F6F6",
"fx c #C5E5FB",
"bk c #C0D5E4",
"Lj c #C0D5E5",
"Qe c #B6B5B1",
"Ho c #C4F5FF",
"Z8 c #8CB4D4",
"O6 c #82949F",
"*i c #78746C",
"qB c #F1F6F6",
"c< c #C1F5FD",
"UV c #BDD5E8",
"%; c #C1F5FE",
"kx c #BDD5E9",
"m> c #C1F5FF",
"X; c #7F949F",
"k  c #84A4BB",
"j  c #84A4BC",
"^Z c #BAD5E1",
"<c c #010202",
" x c #BAD5E2",
"`l c #BAD5E9",
",c c #B5C5D0",
"yA c #B7D5DF",
":0 c #B9E5EA",
"=4 c #81A4BE",
"c4 c #81A4BF",
"<V c #EBF6F7",
"An c #B7D5E1",
"L= c #81A4C0",
"o5 c #81A4C1",
"Bz c #EBF6F8",
"Wr c #E6E6E4",
"Ob c #ADB5B6",
"iq c #ADB5BA",
"SM c #B4D5E0",
"Ww c #74848B",
"Xd c #E8F6F9",
"<$ c #74848D",
"as c #E8F6FA",
"/5 c #7994AD",
" m c #313333",
"*= c #B6E5FE",
"#@ c #B6E5FF",
"[o c #7694A8",
"lp c #676458",
"y# c #71848E",
"8. c #7694A9",
" . c #7694AA",
"e8 c #7694AB",
"R+ c #7694AC",
";4 c #7694AD",
"^6 c #ACC5D4",
"+D c #B1D5F2",
"Yh c #ACC5D7",
"{4 c #B3E5FE",
"7u c #64645B",
"Pk c #E2F6FF",
"|j c #DDE6E5",
"}e c #69747A",
"`k c #DDE6E7",
"$k c #DDE6E8",
"Ri c #AED5F3",
"WM c #A6C5CD",
"zy c #DAE6E5",
"L. c #6B8495",
"$i c #DAE6E8",
"pu c #DAE6E9",
"|2 c #A6C5D8",
"ot c #A1B5BE",
"Lp c #D5D6D5",
"^n c #9EB5B3",
"Cg c #DCF6FF",
"2m c #5E6464",
"Zj c #A0C5D0",
"Xn c #202324",
"'v c #96A59E",
"'M c #F5879B",
"^t c #56544B",
"-0 c #56544C",
"(A c #CFD6D7",
"]c c #5B646A",
"Pv c #D4E6F3",
"Es c #D6F6FE",
"4n c #D4E6F4",
"N: c #A5D5FA",
":M c #D4E6F5",
"0a c #CCD6D8",
"Lw c #CCD6DB",
"Zk c #D1E6F7",
"^< c #98B5C6",
"6p c #D0F6FF",
"s0 c #CBE6E5",
"^s c #C4C6C4",
"E% c #95B5CA",
"]$ c #95B5CB",
"mp c #95B5CC",
":; c #9AC5E9",
"53 c #CDF6FE",
"O7 c #CDF6FF",
"m* c #92B5CB",
"f- c #97C5E6",
"o8 c #CAF6FC",
"w% c #CAF6FD",
"@9 c #CAF6FE",
"<i c #CAF6FF",
"qg c #C8E6F8",
"(< c #F7F7F5",
"{> c #F7F7F7",
"Xi c #BEC6C7",
"^e c #BEC6C8",
"6e c #BEC6C9",
"w; c #C7F6FE",
"yr c #85959C",
",2 c #C7F6FF",
"Rz c #8595A0",
"[b c #F4F7F7",
"Vq c #BBC6CB",
"Wm c #C0D6E6",
"h, c #87A5B6",
"@7 c #C4F6FE",
";b c #C0D6E9",
"w& c #C4F6FF",
"^% c #87A5B9",
"h@ c #87A5BA",
"95 c #8295A2",
";a c #C2E6FB",
"wM c #EFE7ED",
".x c #BDD6E3",
"q+ c #C1F6FE",
"*@ c #C1F6FF",
"N. c #84A5BB",
"U  c #84A5BC",
"L  c #84A5BD",
".X c #84A5BE",
"Sn c #BAD6E1",
"^D c #EEF7F8",
"0N c #BAD6E2",
"[M c #EEF7F9",
"Vv c #7C959B",
"yd c #BAD6EC",
"01 c #7C95A3",
")a c #BCE6FD",
"El c #EBF7F8",
":k c #EBF7F9",
":A c #B7D6EE",
"si c #6F7571",
"od c #E8F7FA",
"[# c #7995A9",
"ko c #7995AA",
"65 c #748590",
"#S c #B4D6F1",
"K# c #B6E6FD",
"l0 c #AAB6BD",
"12 c #B6E6FE",
"bm c #ACC6C9",
"[. c #7695A9",
"%1 c #E5F7FB",
"R, c #E5F7FC",
"|8 c #7695AB",
"V6 c #7695AC",
"|O c #7695AE",
"vC c #6C757B",
"k6 c #ACC6D4",
"js c #B1D6F1",
"'< c #B3E6FE",
"z9 c #A7B6BE",
"Ik c #E2F7FF",
"E- c #6E8596",
"qj c #DDE7E8",
"Yy c #DDE7EB",
"3t c #DDE7EC",
"wd c #A9C6DA",
"Ds c #A9C6DB",
":j c #DFF7FF",
"#p c #DAE7E5",
"ZM c #A6C6D0",
"## c #6B8596",
"6@ c #6B8597",
"ea c #DAE7E9",
"f+ c #6B8598",
"Yr c #A1B6BE",
"}b c #232424",
"@m c #63757F",
":y c #59554B",
"A< c #637581",
"[% c #A8D6F8",
"kd c #D9F7FF",
"Xq c #949690",
"Aj c #A0C6D2",
">p c #A3C6E2",
"1: c #607580",
"k; c #607582",
"U- c #607583",
" A c #CFD7D7",
"-m c #5B656C",
"NO c #98B6B5",
"a4 c #9BB6C5",
"zB c #D4E7F7",
"+B c #919696",
"Wj c #D1E7F9",
"et c #93A6AD",
"`> c #98B6C9",
"2k c #D0F7FF",
"QM c #90A6A8",
"$> c #95B6CA",
"P& c #95B6CB",
"S7 c #9AC6E7",
"q5 c #90A6B3",
"]& c #9AC6E9",
"Y: c #CDF7FD",
"|M c #CDF7FE",
"Gq c #48453D",
"7f c #C1C7C9",
"Yv c #C6D7E4",
"7l c #C6D7E5",
"J9 c #838680",
"Ne c #BEC7CA",
"uX c #8AA6B4",
"dw c #BEC7CB",
"<b c #C3D7E6",
"'C c #C7F7FE",
".j c #C3D7E8",
"y> c #8FB6D5",
"7b c #C0D7E2",
"Ja c #C5E7FD",
"/Z c #C0D7E3",
",1 c #C4F7FC",
"x6 c #C4F7FE",
"!& c #C4F7FF",
"A5 c #8296A0",
":$ c #87A6BB",
"A+ c #87A6BC",
":# c #87A6BD",
"&. c #87A6BE",
"TS c #BDD7E1",
"3Z c #BDD7E2",
"8m c #040404",
"wb c #BDD7E3",
"{m c #040405",
"5C c #BDD7EC",
"|o c #84A6BC",
"-r c #7A8688",
"oX c #84A6BE",
"tF c #EEF8F8",
">n c #BAD7E2",
"`A c #EEF8F9",
"}C c #BFE7FE",
"Dn c #BAD7E3",
"Mc c #EEF8FA",
"+Z c #BAD7ED",
"3w c #37352F",
" S c #BCE7FD",
"lA c #BCE7FE",
"tr c #77868C",
"Zh c #EBF8FA",
"y6 c #77868F",
"cf c #EBF8FE",
"XC c #394549",
"38 c #B2C7D3",
"5q c #ADB7BB",
"F1 c #E8F8FB",
"IX c #7996AA",
"vX c #7996AB",
"(  c #7996AD",
"h7 c #B6E7FE",
"W: c #B6E7FF",
";D c #AFC7DA",
"5% c #E5F8FC",
"~v c #E5F8FF",
"ED c #E0E8E8",
"Pl c #E0E8EA",
"$F c #ACC7D8",
"OD c #B1D7F4",
"kD c #B1D7F6",
"'j c #E2F8FF",
"Zr c #69767A",
"&- c #6E8697",
"nh c #DDE8E9",
"(h c #A9C7D4",
"Sd c #DDE8EA",
",X c #6E8699",
"ct c #DDE8EC",
"zs c #A9C7D8",
"yh c #DFF8FF",
"!. c #6B8697",
"E. c #6B8698",
"_o c #6B8699",
"X# c #DCF8F9",
"nj c #DCF8FE",
"'a c #A6C7E2",
"BM c #63767B",
" y c #59564B",
",x c #5E6666",
"ry c #59564C",
";x c #5E6668",
"e9 c #D7E8F0",
"ZD c #D7E8F6",
"W8 c #99A7AF",
"X2 c #A5D7F8",
"Zd c #CFD8DA",
"kt c #CFD8DB",
" 4 c #9BB7C7",
"h3 c #9BB7C8",
",w c #CCD8DD",
"*r c #93A7AF",
"y1 c #98B7CA",
"K; c #98B7CB",
"E> c #98B7CC",
" w c #505654",
"_- c #95B7CD",
"`- c #95B7CE",
"89 c #9AC7E9",
"l4 c #9AC7EA",
"/4 c #90A7B5",
"F@ c #CBE8F2",
"k$ c #CDF8FD",
"dV c #868787",
"]d c #92B7C8",
"JM c #4D565B",
"7X c #C1C8C8",
"@y c #C1C8C9",
"ez c #C6D8E4",
"Qa c #C1C8CA",
"EX c #889799",
"<r c #C1C8CB",
"xM c #838786",
"Is c #C8E8FB",
"tA c #C3D8E3",
")z c #4A565B",
"Tc c #C3D8E4",
"qt c #85979D",
"je c #85979F",
"J* c #8AA7BA",
"O2 c #8FB7D6",
"ci c #B9B8B7",
"R& c #8AA7BC",
".5 c #8FB7D7",
"s# c #8FB7D8",
"Ym c #C5E8FC",
"5t c #F4F9F8",
"DD c #C0D8E3",
"iM c #C5E8FE",
"qN c #C0D8E4",
"ek c #C0D8E6",
"$3 c #C4F8FD",
"g8 c #C4F8FE",
"G- c #C4F8FF",
"F9 c #B6B8B5",
"Lf c #C0D8EC",
"q# c #87A7BB",
"uo c #87A7BD",
"@X c #87A7BE",
"j& c #7D8789",
"~4 c #8297A4",
"m. c #87A7BF",
"um c #BDD8E3",
"iS c #BDD8E4",
"7V c #C2E8FF",
"CM c #040505",
"!3 c #C1F8FD",
"ox c #3F464A",
" O c #84A7BD",
"PV c #BDD8EF",
"Qr c #B3B8B9",
".O c #84A7BE",
"gs c #BFE8FD",
"J< c #7F97A6",
"D: c #84A7C3",
"'x c #EEF9FA",
"(S c #B5C8CA",
"0$ c #84A7C4",
"Cz c #EEF9FB",
"C< c #E9E9E7",
"/8 c #B5C8D3",
"1y c #77878C",
"Xr c #77878D",
"&e c #77878E",
"/g c #EBF9FB",
"=g c #EBF9FC",
"Fa c #B7D8F0",
"{n c #E6E9EB",
"a0 c #6F776F",
"}S c #B9E8FE",
"nA c #B7D8F3",
"$q c #ADB8BD",
"C. c #7997AB",
"*X c #7997AC",
"o= c #E8F9FE",
"f. c #7997AD",
"`M c #FA3A5B",
"S  c #7997AE",
"N@ c #7997AF",
"N6 c #7997B0",
"I, c #7997B1",
"n: c #B6E8FD",
"J4 c #B6E8FF",
"_9 c #AAB8BF",
"-D c #AFC8DB",
"H7 c #7697AC",
"!n c #E5F9FE",
"iz c #E5F9FF",
"o1 c #7697B0",
"X< c #718796",
"'k c #E0E9EA",
"%k c #E0E9EB",
"S9 c #ACC8D7",
"oF c #ACC8DD",
"]j c #E2F9FF",
"Pu c #A4B8B4",
"5: c #6E8797",
"*u c #DDE9EC",
"Qt c #DDE9ED",
"8y c #A4B8C0",
"94 c #D8D9D7",
"Ag c #DFF9FE",
"QA c #A6C8D1",
"~. c #6B8799",
"t0 c #616767",
"#1 c #A6C8DB",
">f c #DCF9FF",
"jO c #ABD8FA",
"!6 c #A1B8C5",
"5N c #63777C",
"hk c #A3C8D3",
"51 c #637783",
"vf c #D9F9FE",
"PD c #99A8A8",
"Hl c #D2D9D9",
"Iv c #D7E9F7",
"4s c #D6F9FE",
"8A c #D4E9F4",
"2a c #D6F9FF",
"|l c #D4E9F5",
"|i c #CFD9DB",
"Zt c #96A8B0",
"Uu c #CAC9C8",
";y c #CCD9D7",
"(i c #D3F9FF",
"%C c #535757",
"kq c #CCD9DF",
"ik c #D1E9FA",
".7 c #98B8C9",
"GB c #586773",
"l= c #98B8CC",
"J& c #98B8CD",
"24 c #D0F9FE",
"F6 c #D0F9FF",
"%v c #151617",
"bg c #CEE9FB",
"e: c #95B8CD",
"i4 c #90A8B6",
"mN c #CDF9FE",
"z8 c #8B98A0",
"qS c #C6D9E4",
"+u c #C1C9CA",
";t c #C1C9CB",
"cr c #C1C9CC",
"ha c #8DA8B8",
"$b c #C8E9FC",
">F c #C3D9E3",
"#l c #C8E9FE",
"4a c #F7FAFA",
".w c #454742",
"pA c #C3D9E6",
"(6 c #C7F9FE",
"gq c #BEC9CE",
"9* c #C7F9FF",
"#w c #B9B9B6",
"(* c #8FB8D7",
"w7 c #8FB8D8",
"<n c #C0D9E4",
"rb c #C0D9E5",
"=@ c #C4F9FE",
"e& c #C4F9FF",
"Kc c #C0D9EC",
"~$ c #87A8BD",
"yo c #87A8BE",
"c. c #87A8BF",
"6o c #87A8C0",
"x+ c #87A8C1",
">C c #C2E9FF",
"kC c #7D8891",
"_l c #BDD9EF",
"|A c #BFE9FD",
"V2 c #84A8C3",
"/% c #7F98A9",
"yx c #EEFAFB",
"{8 c #84A8C5",
".l c #EEFAFC",
"I+ c #84A8C6",
",k c #EEFAFD",
"(z c #B5C9D6",
"Rq c #B0B9BD",
"W& c #77888E",
"{# c #7C98AD",
"L# c #B9E9FD",
"cO c #B9E9FE",
"X. c #7998AD",
"M  c #7998AE",
"i3 c #748894",
"k# c #7998B0",
"w$ c #7998B1",
"A- c #B6E9FD",
"S, c #B6E9FE",
"GS c #AFC9DB",
"1p c #B4D9F6",
"6S c #E5FAFE",
"Uh c #AFC9DD",
"Ml c #E5FAFF",
"|: c #718897",
"cZ c #E0EAEA",
"YX c #718898",
"wj c #E0EAEC",
"dg c #ACC9D8",
"be c #DBDAD8",
"'D c #B1D9F9",
"oy c #DBDAD9",
"<j c #E2FAFF",
"m8 c #A7B9C3",
"XF c #ACC9DF",
"kf c #ACC9E0",
"i+ c #69787C",
"ai c #5F5848",
" V c #69787F",
"g+ c #6E889B",
"op c #DDEAED",
"[h c #A9C9D7",
"e- c #DFFAFC",
"'t c #A4B9C0",
"N7 c #A4B9C4",
"}y c #5C584D",
"02 c #667883",
"{y c #5C584E",
"S< c #667885",
"Io c #ABD9FA",
":N c #D5DADA",
"Uo c #ABD9FB",
"h6 c #A1B9C5",
"G# c #ABD9FC",
"0l c #A3C9D4",
"O0 c #59584F",
"2: c #637885",
"Y- c #637886",
"Qs c #D9FAFE",
"R. c #637887",
",d c #D9FAFF",
"C8 c #A8D9F9",
"gV c #D2DADA",
"Rc c #5E686D",
"&3 c #A8D9FA",
"kN c #D2DADB",
"W* c #A8D9FB",
"gb c #D7EAF9",
"I3 c #D6FAFF",
"9i c #CFDADC",
"Ae c #CFDADE",
"Pw c #CFDADF",
"oz c #D4EAFB",
".t c #96A9B1",
"M, c #9BB9CC",
"ji c #D3FAFE",
"8h c #D1EAFB",
"k= c #98B9CD",
"N* c #98B9CE",
"@a c #98B9CF",
"C# c #D0FAFC",
"r: c #98B9D0",
"J2 c #D0FAFE",
"Vr c #898981",
"eM c #D0FAFF",
"`N c #151718",
"Vf c #95B9C6",
"9r c #4B483E",
"3v c #C4CACB",
"Jg c #C4CACC",
"pl c #C9DAE8",
"2i c #CDFAFE",
"Kb c #8DA9A9",
"YS c #C6DAE4",
"9p c #FAFBFA",
"6D c #C6DAE5",
")Z c #C6DAE6",
"7a c #C1CACB",
"eZ c #C6DAE7",
"T9 c #CAFAFF",
"Ij c #C6DAEA",
"Vt c #8899A0",
"PC c #8FB9CE",
"%8 c #C7FAFE",
"d% c #C7FAFF",
"zN c #454848",
"Bv c #8599A1",
"lg c #C3DAEE",
"^- c #8AA9BD",
"9# c #8AA9BE",
"v* c #8AA9BF",
"N2 c #8FB9DA",
"WO c #8AA9C0",
"`g c #C5EAFD",
"Dp c #C5EAFE",
"[Z c #8CB9CF",
"pm c #C0DAE6",
"w+ c #C4FAFE",
"sv c #C0DAEE",
"+n c #42484B",
"1B c #C0DAEF",
"1N c #42484C",
"LB c #C0DAF0",
" $ c #87A9BF",
">q c #787970",
"OO c #87A9C1",
"]A c #F1FBFC",
"Hb c #F1FBFD",
"L3 c #F1FBFE",
"v9 c #B8CAD3",
"Yw c #3A3831",
"bu c #B5CAC6",
"#A c #BFEAFE",
"nZ c #BFEAFF",
"(5 c #BADAE5",
":3 c #84A9C4",
"Xl c #EEFBFD",
"wO c #EEFBFF",
"Lh c #BADAF1",
"6, c #BCEAFD",
"oZ c #BADAF4",
"6q c #B0BABF",
"K* c #778992",
"M- c #EBFBFF",
"B. c #7C99AF",
"%X c #7C99B0",
"7+ c #B9EAFE",
":S c #B2CADB",
"bA c #B7DAF6",
";l c #B2CADC",
"(v c #E8FBFF",
"A@ c #7999AF",
"@& c #7999B2",
"pD c #E3EBEC",
"MS c #B4DAF8",
"Dv c #31383B",
"Tk c #E5FBFF",
"nD c #AFCADF",
"y7 c #7699AE",
"mh c #E0EBED",
"0C c #6C7981",
"Dd c #E0EBEE",
"ph c #E2FBFF",
".F c #ACCAE2",
"$# c #6E899A",
"Fj c #A9CAD8",
"$t c #A4BAC3",
"D0 c #9FAAAF",
"=C c #262828",
"(u c #5C594D",
"Fy c #5C594E",
"Y1 c #667985",
"dX c #667986",
"zd c #DCFBFE",
"F# c #ABDAFA",
"b> c #ABDAFB",
"kB c #616970",
"%6 c #A1BAC8",
"r5 c #A1BACA",
"_4 c #A1BACB",
"l; c #637985",
"vs c #D9FBFF",
"_b c #D7EBF6",
"A= c #A8DAFC",
"<t c #D2DBDF",
"5u c #99AAAF",
"r8 c #9EBACE",
"*F c #D4EBF6",
")q c #CFDBE2",
"<> c #9BBACE",
"17 c #96AAB4",
"W6 c #96AAB5",
"4- c #9BBAD0",
"q% c #D3FBFD",
">2 c #D3FBFE",
"aj c #D3FBFF",
"ng c #D1EBFC",
"Z; c #98BACF",
":F c #CCDBE6",
"C; c #98BAD0",
"RZ c #CCDBE7",
"t: c #98BAD1",
"}< c #9DCAEE",
"gh c #C4CBCC",
"rZ c #C9DBE8",
"2V c #CDFBFE",
"@u c #C4CBCD",
"ht c #C4CBCE",
"i2 c #90AABB",
"^1 c #90AABC",
":8 c #8B9AA2",
"~o c #8DAAAD",
"Bb c #868A8B",
"^N c #C6DBE7",
"[7 c #CAFBFD",
"77 c #CAFBFE",
"I* c #CAFBFF",
"@r c #889AA1",
"U; c #8DAABC",
"+> c #8DAABF",
"^l c #C8EBFE",
"x2 c #C7FBFD",
"~3 c #C7FBFE",
"WX c #BECBCE",
"}= c #C7FBFF",
"=q c #BECBD1",
"H3 c #8AAABD",
"%O c #8AAAC0",
"VX c #8AAAC1",
":% c #8FBADC",
"># c #8AAAC2",
"'c c #070808",
"n# c #F4FCFD",
"a$ c #F4FCFE",
"Oc c #C0DBEF",
"Oy c #B6BBBC",
"yF c #F1FCFC",
"wv c #F1FCFD",
"P+ c #87AAC7",
"1l c #F1FCFE",
"k- c #87AAC9",
"0t c #7A8A90",
"ol c #EEFCFE",
"*e c #7A8A92",
"Mo c #EEFCFF",
"X6 c #7A8A93",
"Du c #E9ECEA",
"BB c #373939",
"-F c #EBFCFF",
"GO c #7C9AAF",
"Q4 c #778A95",
"%& c #7C9AB0",
" a c #6D6A60",
"~  c #7C9AB1",
"o; c #ADBBB9",
"Y+ c #7C9AB5",
"O8 c #B9EBFD",
"cC c #727A81",
"%F c #B2CBDB",
",N c #E8FCFE",
")v c #E8FCFF",
"jB c #ADBBC7",
"5m c #6F7A7C",
"Z2 c #799AB4",
"8v c #E3ECED",
"_6 c #B6EBFE",
"]k c #E3ECEE",
">S c #AFCBDA",
"fg c #AFCBDC",
"Rk c #E5FCFF",
" f c #AFCBDE",
"Fs c #AFCBE1",
"]p c #625A4C",
"Ty c #E0ECF0",
"`f c #E2FCFE",
"zX c #6E8A9D",
")3 c #697A85",
"1f c #DFFCFE",
"R3 c #AEDBFA",
"E3 c #AEDBFB",
"I2 c #AEDBFC",
"hO c #AEDBFD",
"ks c #A9CBE5",
"30 c #9FABB0",
"~s c #DCFCFF",
";1 c #ABDBFB",
"|v c #D5DCDC",
")k c #D5DCDD",
"M: c #ABDBFD",
"8j c #D5DCDE",
"6s c #D9FCFE",
":d c #D7ECF4",
"3a c #D9FCFF",
":Z c #D7ECF6",
"U$ c #637A89",
"2@ c #637A8A",
"Eu c #D2DCDE",
"lt c #D2DCDF",
"4r c #D2DCE0",
"Dk c #D7ECFB",
"=5 c #D6FCFE",
")g c #D6FCFF",
"D2 c #D4ECF6",
"B0 c #514A3E",
"9h c #D4ECFD",
"9d c #9BBBCE",
"bC c #96ABB4",
"5- c #9BBBCF",
"f= c #9BBBD0",
"7p c #D3FCFD",
"=& c #D1ECF5",
"Ef c #D1ECFE",
"zw c #4E4A40",
" k c #C7CCCA",
"PA c #CCDCE7",
"UC c #8E9B9B",
"*c c #C7CCCD",
"4F c #93ABB8",
"1V c #D0FCFF",
"d- c #9DCBEE",
"gB c #CCDCEA",
"}% c #9DCBEF",
"T8 c #8E9BA2",
"EN c #15191B",
"pC c #898B8B",
"dd c #CEECFD",
"b< c #CDFCFD",
"dN c #8B9B9B",
"|5 c #FDFDFD",
"U5 c #CDFCFE",
"r, c #FDFDFE",
"6i c #C4CCCE",
"N= c #CDFCFF",
"Mk c #C9DCEB",
"2u c #8B9B9F",
"f3 c #90ABBB",
"Ny c #8B9BA1",
"R7 c #CAFCFE",
"0* c #CAFCFF",
"zi c #FAFDFF",
"VD c #C6DCEA",
"^q c #C1CCD1",
"31 c #BCBCB8",
"3h c #C6DCEE",
"Ue c #889BA3",
"w< c #92BBDB",
"s6 c #889BA6",
"Y& c #8DABC1",
"{& c #92BBDC",
"[> c #838B8C",
"+6 c #889BA7",
"B9 c #92BBDD",
"dj c #C8ECFF",
"Xe c #7E7B74",
"e+ c #C7FCFE",
"r9 c #F7FDFE",
"np c #8AABBF",
"V& c #8AABC0",
"%n c #BECCD7",
"BX c #8AABC1",
"eo c #8AABC2",
",# c #8AABC3",
"{3 c #859BA9",
"a* c #F4FDFC",
"k> c #F4FDFD",
"6% c #F4FDFE",
"SN c #C0DCF0",
"+f c #C0DCF2",
"gi c #C2ECFE",
"KB c #C0DCF5",
"q1 c #829BAB",
"H@ c #F1FDFD",
"+< c #829BAC",
"S3 c #87ABC7",
"@b c #F1FDFE",
"f# c #87ABC8",
"ev c #F1FDFF",
"1; c #87ABC9",
"$w c #B3BCBF",
"n- c #BADCE9",
"Le c #7A8B92",
"~w c #7A8B93",
"r= c #7F9BAE",
"Jo c #BCECFE",
"j< c #BCECFF",
"rB c #EBFDFF",
"]l c #B5CCDF",
"0@ c #7C9BB0",
"!  c #7C9BB1",
"f  c #7C9BB2",
"S- c #B9ECFD",
"|1 c #B9ECFE",
"M@ c #7C9BB7",
"N3 c #B9ECFF",
"tc c #727B83",
"{l c #B2CCDC",
"vA c #B7DCF8",
"Vl c #E8FDFF",
"lj c #B2CCE0",
"&k c #E3EDEE",
"v; c #748B9D",
"ej c #E3EDEF",
"hD c #B4DCF9",
"Op c #E0EDF0",
"Gj c #ACCCDA",
"7@ c #718B9F",
"S2 c #ACCCDC",
"3f c #E2FDFE",
"Dg c #E2FDFF",
"`D c #B1DCFB",
"+t c #A7BCC6",
" F c #ACCCE5",
"F0 c #A2ACB1",
"Gu c #5F5B50",
"vd c #DFFDFE",
")& c #AEDCFC",
"}N c #A6CCD2",
"3+ c #AEDCFD",
"6& c #AEDCFF",
"&z c #A6CCD7",
"(9 c #9FACB2",
"H2 c #DCFDFE",
"ln c #DCFDFF",
"K3 c #DAEDF6",
"hA c #D5DDDD",
"vB c #A3CCD3",
"En c #DAEDFB",
",Z c #DAEDFC",
"om c #232A2B",
"4d c #A1BCCE",
"b8 c #9CACB4",
"Ld c #D9FDFD",
"Z4 c #D9FDFE",
"V% c #637B8A",
"HA c #D7EDF8",
"$u c #D2DDDF",
"Ep c #D2DDE0",
"Mr c #D2DDE1",
"we c #D2DDE2",
"~j c #D7EDFD",
"j3 c #9EBCCE",
"cq c #CDCDCA",
"_1 c #9EBCCF",
"m, c #9EBCD0",
"8p c #D6FDFE",
";+ c #D6FDFF",
"}; c #9BBCCD",
"=< c #9BBCCF",
"}x c #D3FDFE",
"P$ c #919C9C",
"TC c #919C9D",
"F5 c #96ACB9",
"yg c #98BCC9",
"Zw c #4E4B40",
"P9 c #98BCCF",
"Fq c #4E4B42",
"nN c #D0FDFE",
"3j c #C7CDCE",
"Jv c #CCDDE9",
"ds c #D0FDFF",
"`Z c #CCDDEA",
"yZ c #CCDDEB",
"hB c #CCDDEC",
"-n c #151A1B",
"3C c #93ACC0",
";2 c #FDFEFC",
"d0 c #FDFEFD",
"68 c #CDFDFE",
"M# c #FDFEFE",
"8a c #C4CDCE",
"O= c #FDFEFF",
"wp c #C4CDCF",
"7A c #C9DDEB",
"Jw c #C4CDD1",
"Z, c #CAFDFD",
"+4 c #FAFEFD",
"|= c #CAFDFE",
"3= c #FAFEFE",
"&: c #CAFDFF",
"ew c #484B46",
"S> c #FAFEFF",
"+m c #4D5B61",
"#5 c #8DACC0",
"5a c #BCBDBC",
"/- c #8DACC1",
"!5 c #92BCDC",
"/* c #92BCDD",
"a# c #92BCDE",
"@4 c #F7FEFD",
"X3 c #F7FEFE",
"!= c #F7FEFF",
"wo c #8AACC2",
"n+ c #8AACC3",
"w- c #808C8E",
"w@ c #8AACC4",
"y2 c #859CAB",
"<, c #F4FEFD",
"k1 c #F4FEFE",
"fA c #BBCDCE",
"}5 c #F4FEFF",
"O9 c #F1FEFD",
"7F c #B8CDCD",
"Zo c #F1FEFE",
"x: c #F1FEFF",
"}r c #7D8C93",
"e7 c #87ACC9",
"U6 c #7D8C95",
"c> c #BFEDFE",
"@A c #BFEDFF",
"KV c #BDDDF6",
"_X c #EEFEFE",
"*9 c #EEFEFF",
"_O c #7F9CB2",
"i% c #BCEDFE",
"5* c #BCEDFF",
",& c #EBFEFD",
"Ao c #EBFEFE",
"I@ c #EBFEFF",
"L0 c #B0BDC3",
"-l c #B5CDE1",
"F  c #7C9CB2",
"'r c #6D6C62",
":u c #727C7D",
"]3 c #778C98",
"3  c #7C9CB3",
"r2 c #778C9A",
"a> c #7C9CB6",
"%@ c #B9EDFE",
"j# c #7C9CB7",
"dk c #B2CDDB",
"5A c #B2CDDC",
"if c #E8FEFD",
"K- c #E8FEFE",
"o- c #E8FEFF",
"OS c #B7DDFA",
"Mh c #E3EEF0",
"Wg c #E3EEF1",
"p9 c #E5FEFC",
"*5 c #E5FEFD",
"s& c #E5FEFE",
"{+ c #E5FEFF",
"2g c #AFCDE3",
"Sa c #AFCDE7",
"H. c #718C9E",
"us c #E0EEF0",
"%# c #718C9F",
"ta c #E0EEF1",
"-g c #E2FEFC",
"O3 c #E2FEFD",
"y. c #718CA1",
"): c #E2FEFE",
"rx c #676C6C",
"U@ c #E2FEFF",
"}* c #718CA3",
"9y c #A7BDC4",
"#t c #A7BDC6",
"G0 c #A2ADB2",
"*z c #A9CDD8",
"Vp c #ACCDE9",
":2 c #DFFEFD",
"c% c #DFFEFE",
"Hu c #5F5C50",
"q2 c #697C87",
"h$ c #DFFEFF",
"Ju c #5F5C51",
"O@ c #AEDDFB",
"P8 c #AEDDFD",
"y% c #AEDDFE",
"LC c #A4BDCB",
"'z c #A6CDD8",
"fa c #A9CDEA",
"z1 c #DCFEFE",
"l7 c #9A9D9C",
"61 c #667C87",
"3< c #DCFEFF",
"`8 c #ABDDFB",
".2 c #ABDDFC",
"2D c #DAEEF8",
"p- c #ABDDFE",
"j; c #616C71",
"IS c #DAEEFB",
"*m c #616C74",
")r c #D5DEE2",
"Wn c #DAEEFD",
"cN c #F46F86",
"%t c #9CADB4",
"D8 c #A1BDD0",
"z% c #D9FEFE",
"f; c #D9FEFF",
" p c #D2DEDF",
"kw c #D2DEE4",
"(> c #9EBDD0",
"(: c #D6FEFD",
"W# c #D6FEFE",
"F; c #9EBDD2",
"r- c #D6FEFF",
"D; c #9EBDD3",
"%* c #D4EEF8",
"Fe c #8F8D88",
"mg c #D4EEFE",
"n9 c #D3FEFC",
"E# c #D3FEFD",
".- c #D3FEFE",
"-> c #9BBDD2",
";F c #CFDEE9",
"58 c #D3FEFF",
";> c #9BBDD3",
"ub c #CFDEEB",
"!* c #A0CDF1",
"fd c #D1EEFD",
"n< c #D0FEFD",
"Pq c #4E4C44",
"R# c #D0FEFE",
"w* c #D0FEFF",
"kh c #C7CECF",
"GC c #CCDEEB",
"1r c #C7CED2",
"Ys c #CEEEFD",
"#7 c #CDFEFC",
"Y4 c #FDFFFD",
" , c #CDFEFE",
"s$ c #FDFFFE",
">= c #CDFEFF",
"/X c #FDFFFF",
"fc c #C4CECF",
":w c #C4CED2",
"no c #CBEEFB",
"Oj c #C9DEF1",
"La c #CBEEFD",
"<7 c #8B9DA6",
"@l c #CBEEFE",
"s9 c #FAFFFD",
"L@ c #FAFFFE",
"Vo c #FAFFFF",
"}q c #484C47",
"m4 c #8DADC0",
"S5 c #889DA8",
"RO c #8DADC3",
"+O c #8DADC4",
"Jy c #7E7D75",
"I4 c #F7FFFD",
"I: c #F7FFFE",
"(X c #F7FFFF",
" B c #BECECF",
"mc c #0A0B0B",
"av c #C3DEF3",
"r@ c #8AADC4",
"W, c #F4FFFD",
"L- c #F4FFFE",
"tO c #F4FFFF",
"V9 c #8AADCC",
"Kq c #3D3C34",
"2e c #EFEFEE",
"id c #C0DEF5",
"JB c #C0DEF7",
"', c #F1FFFD",
"iw c #B6BEC1",
"vt c #F1FFFE",
"pw c #B6BEC2",
"]+ c #F1FFFF",
"B8 c #B8CEDA",
"`, c #EEFFFD",
"8% c #EEFFFE",
"7q c #B3BEC2",
"*+ c #EEFFFF",
"2A c #B8CEE0",
"Q9 c #AEAEAB",
"eD c #7A8D96",
"G+ c #7F9DB2",
"<. c #7F9DB3",
"Q  c #7F9DB4",
"t  c #7F9DB5",
"[= c #BCEEFD",
"^& c #BCEEFE",
"!: c #BCEEFF",
"u* c #EBFFFE",
"/= c #EBFFFF",
">h c #B5CEDF",
"=S c #B5CEE1",
"0z c #373C40",
"G  c #7C9DB3",
"O. c #7C9DB4",
"-4 c #7C9DB6",
"q$ c #7C9DB7",
"87 c #B9EEFE",
"WD c #E6EFEF",
"sn c #E6EFF0",
"ix c #E8FFFD",
"Z7 c #E8FFFE",
"=+ c #E8FFFF",
"cA c #B7DEFB",
"AS c #B2CEE4",
"@g c #E3EFF1",
"A> c #E5FFFD",
"X- c #E5FFFE",
"`X c #E5FFFF",
"J. c #718DA0",
"ss c #E2FFFD",
"u. c #718DA1",
"So c #E2FFFE",
"[p c #625D50",
"t. c #718DA2",
"iO c #E2FFFF",
"q4 c #6C7D88",
"Q+ c #718DA3",
"5O c #718DA4",
"$9 c #B1DEFB",
"n5 c #B1DEFD",
"T7 c #B1DEFF",
"j0 c #A2AEB3",
"40 c #A2AEB4",
"&9 c #DFFFFD",
"<= c #DFFFFE",
"'X c #DFFFFF",
"lu c #5F5D53",
"Xo c #AEDEFF",
"0F c #D8DFE0",
"Ax c #A6CED8",
"Iu c #DCFFFD",
"i& c #DCFFFE",
",@ c #DCFFFF",
"z; c #667D8A",
"T- c #667D8B",
"Eh c #DAEFFA",
"jy c #D5DFE1",
"xl c #DAEFFE",
"'e c #D5DFE4",
"@3 c #D9FFFD",
"w, c #D9FFFE",
"pO c #D9FFFF",
"bb c #99AEAA",
"*j c #D7EFFE",
"4= c #CDCFCC",
"P4 c #D6FFFD",
"i1 c #9EBED1",
"<1 c #D6FFFE",
"s: c #9EBED2",
"l% c #D6FFFF",
"W= c #D4EFF8",
"]a c #9EBED8",
"Wf c #D4EFFE",
"62 c #D3FFFD",
"e* c #D3FFFE",
"6> c #D3FFFF",
"!k c #CACFD0",
"07 c #A0CEF0",
"3z c #565D63",
"W5 c #A0CEF1",
"F, c #A0CEF2",
"&n c #181C1E",
"lC c #919EA8",
"xB c #919EA9",
"|N c #8E9E9B",
"z2 c #D0FFFE",
"S$ c #D0FFFF",
"{f c #C7CFD0",
"Oi c #C7CFD1",
":t c #C7CFD2",
"@; c #CDFFFE",
"`c c #90AEB7",
"/: c #CDFFFF",
"bs c #CBEFFD",
"~l c #CBEFFE",
"F* c #90AEC2",
"fZ c #C1CFCF",
"XB c #C1CFD0",
"0: c #8DAEC2",
"4p c #C8EFFF",
"B+ c #8DAEC3",
"TO c #8DAEC4",
"KM c #484D52",
"YO c #8DAEC5",
"~M c #BECFCF",
"mm c #BECFD0",
".N c #0A0C0D",
"$o c #859EA4",
"oc c #C3DFF4",
"]q c #403D36",
"Hc c #C3DFF5",
"s3 c #859EAB",
"z7 c #808E96",
"59 c #BBCFDA",
"<B c #C0DFF6",
"0n c #B8CFCD",
"Y> c #829EAE",
"lw c #B1AFAB",
"n; c #829EB1",
"o6 c #7D8E98",
"63 c #BFEFFC",
"e; c #BFEFFD",
"u9 c #BFEFFF",
";s c #BDDFF6",
"%Z c #B8CFDF",
"'0 c #B3BFC4",
"1A c #B8CFE2",
"$X c #7F9EB4",
"W  c #7F9EB5",
"j. c #7F9EB6",
"*  c #7F9EB7",
"9, c #BCEFFE",
"Wo c #BCEFFF",
"*Z c #B5CFDD",
"&Z c #B5CFDE",
"Wv c #B0BFC7",
"#8 c #B9EFFB",
"}8 c #7C9EB6",
"P, c #7C9EB7",
"+& c #7C9EB8",
")x c #E6F0F0",
":n c #B2CFDA",
"L+ c #778E9F",
"Sb c #E6F0F1",
"Mz c #E6F0F2",
"Hj c #B2CFDD",
"nS c #B7DFFC",
"sm c #ADBFC9",
"Gs c #B2CFE5",
"ZS c #B2CFE7",
"el c #AFCFDB",
"|s c #E3F0F3",
"ri c #E3F0F4",
"gD c #B4DFFC",
"ut c #AABFC7",
"b4 c #748EA7",
"`7 c #AABFCB",
"cD c #AFCFE8",
"H0 c #A5AFB5",
"<o c #718EA1",
"i. c #718EA2",
":i c #625E51",
"d> c #718EA3",
"Y= c #718EA4",
"-i c #625E53",
"G4 c #B1DFFD",
"4+ c #B1DFFE",
"~6 c #A7BFCC",
"Sx c #A9CFD9",
"#= c #AEDFFB",
"T1 c #697E8A",
"a8 c #AEDFFC",
"b2 c #AEDFFD",
"~; c #AEDFFE",
"kc c #D8E0E1",
"(B c #DDF0FD",
"rS c #A6CFD9",
"`4 c #A4BFD0",
"<9 c #9FAFB6",
"$- c #667E8C",
"g* c #667E8F",
"1t c #D5E0E2",
"CO c #667E90",
"Iy c #D5E0E3",
"5r c #D5E0E4",
".e c #D5E0E6",
"Cy c #9CAFB6",
"0d c #A1BFD2",
"b, c #A1BFD3",
"ja c #9CAFBB",
"uk c #D7F0FE",
"qh c #D7F0FF",
">> c #9EBFD3",
"c, c #9EBFD4",
"Qh c #D4F0FC",
"f9 c #949FA6",
"%h c #9BBFCC",
"lM c #1B1D1F",
"tq c #514E43",
"Ge c #514E44",
"Wk c #CAD0CF",
"Xk c #CAD0D1",
"~c c #CFE0ED",
"}c c #CFE0EE",
"=% c #A0CFF3",
"0g c #D1F0FC",
"7i c #C7D0D2",
"+z c #CCE0ED",
"Bk c #CCE0EF",
"^7 c #8E9FA6",
"M% c #C4D0CF",
"oB c #C4D0D1",
"Zq c #C4D0D6",
"ax c #CBF0FE",
"@> c #90AFC3",
"08 c #95BFE0",
"en c #C1D0D1",
"{0 c #C1D0D7",
"Fp c #C8F0FE",
"Z& c #8DAFC4",
"oC c #484E53",
"($ c #8DAFC6",
"O$ c #8DAFC7",
"2z c #838F98",
"vi c #B9C0C1",
"hM c #BED0DE",
"K: c #C0E0EB",
">b c #BED0E1",
"x7 c #808F97",
"jA c #C2F0FD",
"34 c #C2F0FE",
"vZ c #C2F0FF",
"jM c #BBD0DE",
"vb c #B8D0CF",
"HB c #C0E0FA",
"Pe c #7D8F96",
"x* c #829FB4",
"85 c #7D8F9A",
"p% c #BFF0FE",
"Fu c #736F67",
"^, c #BFF0FF",
"uV c #B8D0DE",
">l c #B8D0DF",
"Uz c #B8D0E3",
"HO c #7F9FB4",
",. c #7F9FB5",
"r  c #7F9FB6",
"X  c #7F9FB7",
"o# c #B0C0BD",
"o  c #7F9FB8",
"bO c #BCF0FF",
"rl c #B5D0DD",
"zf c #B5D0E2",
"09 c #7C9FB6",
"X1 c #7C9FBA",
":r c #E1E1DF",
"re c #E1E1E0",
"jf c #B2D0EA",
"Ke c #6F7F85",
"Rw c #6F7F86",
"S% c #748FA1",
"ap c #E3F1F4",
"&# c #748FA3",
",V c #6A6F6F",
"G3 c #748FA7",
",5 c #B4E0FE",
"hn c #2C2E2E",
"c- c #718FA4",
";i c #625F53",
";, c #718FA5",
"]= c #B1E0FC",
"~2 c #6C7F8B",
"H# c #B1E0FD",
"u% c #B1E0FE",
"rq c #625F56",
"-v c #676F71",
"*v c #676F72",
"|m c #A9D0D9",
"(c c #A9D0DA",
"]< c #AEE0FC",
"R5 c #AEE0FD",
"O, c #AEE0FE",
"K> c #697F8C",
"%5 c #DDF1FA",
";u c #5F5F58",
"zZ c #D8E1E2",
"rz c #DDF1FE",
"vl c #DDF1FF",
"WN c #262E30",
"QC c #9AA0A0",
"Wp c #D5E1E3",
"/j c #DAF1FE",
"!a c #D5E1E4",
"g> c #A1C0D2",
"Lr c #9CB0B8",
"Q6 c #9CB0BD",
"I$ c #5E6F78",
"=f c #D4F1FE",
"g9 c #94A0A7",
"!b c #1B1E20",
"5j c #CAD1D1",
"gz c #CAD1D2",
"'8 c #A0D0F3",
"fy c #CAD1D4",
"yN c #CFE1EF",
"p4 c #96B0BE",
"k4 c #A0D0F4",
"Ts c #D1F1FE",
"=9 c #8C9090",
";Z c #CCE1EC",
"6x c #C7D1D2",
"Kw c #C7D1D5",
"Tj c #CCE1F1",
"*t c #C2C1BF",
"yD c #C4D1D2",
"k, c #90B0C1",
"5h c #C9E1F5",
"&$ c #90B0C4",
"%$ c #90B0C5",
" 5 c #95C0E2",
"-3 c #95C0E4",
"Pm c #0D0E0E",
"rn c #C1D1D2",
"ic c #0D0E0F",
"O+ c #8DB0C4",
"S@ c #8DB0C5",
")$ c #8DB0C6",
"_$ c #8DB0C7",
"Y; c #839096",
" 0 c #8DB0D1",
"i8 c #C5F1FE",
"It c #F2F2F1",
"_i c #B9C1C2",
"gx c #C3E1F8",
"bi c #B9C1C3",
"Mu c #B9C1C4",
"aw c #B9C1C5",
"HN c #BED1E0",
"fv c #BED1E2",
"Y6 c #809098",
"W2 c #7B807F",
"~m c #BBD1DE",
"JN c #BBD1E0",
"#c c #BBD1E2",
"hg c #BBD1E4",
"F+ c #82A0B5",
"V$ c #BFF1FE",
"6* c #BFF1FF",
"|a c #BDE1F5",
" u c #ECF2F1",
"hV c #B3C1C1",
" Z c #BDE1FD",
"x0 c #B3C1C8",
"O  c #7FA0B8",
"aD c #E9F2F3",
"h# c #7FA0BC",
"kS c #E9F2F4",
"kj c #B5D1E7",
"B1 c #7CA0BA",
"qr c #728086",
"=k c #E6F2F3",
"[r c #728087",
"w= c #7790A2",
"=- c #7790A3",
",: c #E1E2DF",
"Fv c #ADC1CB",
"CS c #B2D1EA",
"1e c #A3A19C",
"G. c #7490A3",
"!p c #E3F2F5",
"K+ c #6F8089",
"0. c #7490A5",
"E4 c #6F808A",
"A1 c #7490A6",
"U7 c #B4E1FD",
"x- c #7490A7",
"at c #AAC1C8",
"o* c #7490A8",
"{* c #7490A9",
"B7 c #AAC1CC",
"uA c #ACD1DA",
"Dx c #ACD1DB",
"xD c #AFD1EC",
"k0 c #A5B1B7",
"mM c #2C2F32",
"7, c #B1E1FB",
"'% c #B1E1FD",
";v c #677071",
"6O c #7190A9",
"6v c #DBE2E3",
"lc c #DBE2E4",
"qM c #F8637D",
")c c #A9D1DA",
"Zv c #A9D1DB",
"$x c #A2B1B9",
"p, c #69808D",
"W. c #69808E",
"bv c #DDF2FD",
"Xg c #D8E2E4",
"Jk c #DDF2FF",
"qi c #D8E2E5",
"d4 c #A4C1D0",
")7 c #9FB1BC",
"Sf c #A1C1D2",
"1q c #D0D2CF",
"^> c #A1C1D4",
"E0 c #545046",
"yc c #596066",
"ok c #CDD2D4",
"$n c #D2E2EF",
"{% c #A3D1F4",
"Ux c #94A1A5",
":9 c #94A1A7",
"<M c #94A1AC",
"Ig c #CAD2D3",
"}f c #CAD2D4",
"Ly c #CAD2D5",
")e c #CAD2D6",
"fl c #CFE2F1",
"2r c #CAD2D7",
"Vk c #CFE2F2",
"uD c #C7D2D2",
",l c #CCE2EF",
"vj c #CCE2F0",
" c c #CEF2FE",
",a c #CEF2FF",
"P; c #93B1C5",
"q: c #90B1C5",
"6# c #90B1C6",
"[6 c #95C1E1",
"u@ c #90B1C7",
"y= c #90B1C8",
">, c #C6E2EE",
"-B c #C8F2FD",
"00 c #C1D2DA",
"W7 c #839199",
"(l c #C3E2F9",
"Tm c #C3E2FA",
"o> c #85A1B3",
"d# c #8AB1CF",
":e c #80919A",
"J= c #8AB1D0",
"Ha c #C0E2F9",
"EV c #BBD2DF",
"GX c #82A1B7",
")6 c #BFF2FE",
"B= c #BFF2FF",
";  c #82A1BA",
"Xf c #B8D2E6",
"n= c #7A919B",
"=l c #B8D2E7",
"m@ c #7FA1BC",
"[; c #7FA1BD",
"Nz c #E9F3F4",
"&A c #BAE2FB",
"39 c #B0C2CC",
"Sr c #728186",
"|e c #728187",
"<O c #7791A4",
" D c #B7E2FD",
"rX c #AFD2D3",
"{t c #ADC2CB",
")0 c #A8B2B7",
"F. c #7491A4",
"]o c #7491A5",
"]  c #7491A6",
"Li c #656155",
"w4 c #6F818B",
"{  c #7491A7",
"x$ c #B4E2FE",
"Pi c #656156",
"}  c #7491A8",
"B6 c #7491A9",
"`B c #ACD2DB",
"GD c #ACD2DC",
"ES c #ACD2DD",
"cm c #2C3033",
"m: c #B1E2FE",
"2M c #E0F3FC",
"TD c #DBE3E3",
"#v c #E0F3FE",
"_A c #DBE3E4",
"qA c #E0F3FF",
"^x c #DBE3E5",
"%- c #698191",
"ts c #D8E3E5",
"Zu c #D8E3E7",
"`y c #9FB2B8",
"$s c #A4C2D7",
"Hi c #575145",
"qu c #575146",
"W< c #A1C2D5",
"*V c #1E2020",
"_h c #9EC2CE",
"=V c #1E2021",
"9z c #1E2022",
"i0 c #545146",
"#0 c #545147",
"Wz c #596165",
"7x c #CDD3D3",
"Vm c #CDD3D4",
"Mn c #D2E3EF",
"qz c #596167",
"Fl c #CDD3D5",
" v c #D2E3F0",
"*3 c #A3D2F5",
"-M c #D2E3F1",
":p c #9EC2DD",
"E8 c #94A2A9",
"Tb c #1B2022",
"#u c #CAD3D5",
"&m c #566169",
">t c #CAD3D6",
"g3 c #96B2C2",
"<@ c #CEF3F2",
"K7 c #CCE3ED",
">w c #C7D3D7",
"sV c #4E5151",
"3k c #CEF3FF",
"pk c #CCE3F4",
"!B c #4E5152",
" t c #8EA2A9",
"F> c #C2C3C0",
"#> c #93B2C7",
"|$ c #93B2C8",
"@6 c #8EA2AE",
"Oe c #4B514F",
"cg c #C9E3F7",
"x# c #90B2C7",
"Y% c #90B2C9",
"}3 c #8BA2B1",
"#C c #C1D3DB",
"rw c #434138",
"_q c #F5F4F4",
"vx c #BCC3C4",
"ou c #BCC3C5",
"Me c #BCC3C6",
"5e c #BCC3C7",
"gM c #C1D3E2",
"sS c #88A2B5",
"]C c #C5F3FE",
",6 c #8DB2D2",
"Je c #40413C",
"CN c #C3E3FB",
"jv c #BED3E1",
"+% c #85A2B7",
".@ c #C2F3FE",
"eB c #B6C3C3",
"#z c #BBD3DF",
"vk c #BBD3E2",
"}# c #82A2B7",
"0+ c #BFF3FE",
"FX c #82A2B8",
"~& c #BFF3FF",
"Y  c #82A2B9",
":  c #82A2BA",
"w  c #82A2BB",
"|z c #B8D3E0",
"Yd c #BDE3FD",
"td c #B8D3E8",
"~A c #7A929D",
"@% c #7A92A1",
"D3 c #7FA2BC",
"<% c #7FA2BD",
"}z c #B5D3DE",
"r7 c #7FA2BE",
"Lb c #374143",
"eS c #B2D3DC",
"nC c #B2D3DD",
"7Z c #B2D3DE",
"!Z c #B2D3DF",
"8w c #728288",
"Hd c #E6F4F6",
"9w c #728289",
".d c #E6F4F7",
"~p c #E6F4F8",
"@5 c #7792A8",
"h5 c #7792AA",
"Ft c #ADC3CB",
"@N c #72828F",
"TA c #AFD3DD",
"Rd c #B2D3ED",
"yS c #AFD3DE",
"J0 c #A8B3B9",
"_= c #B4E3FC",
"J# c #B4E3FD",
"2o c #7492A6",
"@@ c #B4E3FE",
"Ii c #656256",
"%2 c #7492A7",
"Ro c #B4E3FF",
"u3 c #6F828E",
"H: c #7492A9",
"s> c #7492AA",
"9D c #ACD3DD",
"}g c #AAC3D5",
"@F c #AAC3D7",
"B3 c #B1E3FD",
" 2 c #B1E3FE",
"PS c #E0F4FD",
"du c #62625A",
"I- c #677275",
"yz c #E0F4FF",
"O# c #677277",
"xZ c #DBE4E5",
"&c c #677278",
"n8 c #A2B3BC",
"~C c #9DA3A3",
")j c #DDF4FF",
"Z% c #698292",
"]Z c #A4C3CF",
"5@ c #698293",
"AO c #698294",
"]e c #D8E4E8",
"+o c #A9D3EE",
"}2 c #A4C3D5",
"': c #D3D4D1",
"g2 c #A4C3D6",
"mo c #DAF4FC",
"(w c #5C6261",
"G5 c #9CB3C1",
"h9 c #97A3AA",
"`h c #9EC3D0",
"5z c #1E2123",
"(V c #CDD4D3",
"`& c #A3D3F4",
"/k c #CDD4D4",
"}7 c #A3D3F5",
"OB c #CDD4D5",
"gm c #D2E4F2",
"-; c #A3D3F7",
"uN c #D2E4F3",
"KZ c #CFE4EF",
"}i c #CAD4D6",
"0e c #CAD4D8",
"_t c #91A3AA",
"'> c #96B3C6",
"sf c #CEF4FE",
"jq c #C7D4DA",
"}$ c #93B3C9",
"#$ c #93B3CA",
"Q5 c #98C3E6",
"8z c #101112",
"Y0 c #C4D4DC",
"D& c #90B3C8",
"Yf c #C9E4F9",
"F& c #90B3C9",
"iN c #4B5257",
"@+ c #C6E4ED",
"-5 c #C8F4FE",
"xa c #BCC4C0",
"Ky c #BCC4C5",
"Ps c #C6E4FB",
"]i c #BCC4C6",
"'w c #BCC4C7",
")t c #83939A",
" j c #C1D4E6",
"c7 c #83939B",
"o: c #C5F4FE",
"(= c #C5F4FF",
";0 c #809392",
"bn c #F2F5F5",
"oa c #85A3B0",
"KN c #BED4E3",
"fq c #B9C4C9",
"m; c #85A3B6",
"06 c #C2F4FD",
"e# c #85A3B7",
"j@ c #85A3B8",
"7* c #C2F4FF",
"io c #85A3B9",
"_z c #425256",
"'n c #E4B5C1",
"w3 c #BFF4FD",
";O c #82A3B7",
"Yn c #3D4246",
":. c #82A3B9",
"0  c #82A3BA",
"q  c #82A3BB",
"8D c #B8D4DE",
"eF c #ECF5F6",
"Hx c #B8D4E0",
"B5 c #78838A",
"MZ c #BDE4FD",
"MB c #AEB4B4",
"8k c #B8D4EA",
"xv c #AEB4B5",
"RS c #B5D4DD",
"WZ c #B5D4DE",
"8Z c #B5D4DF",
".* c #7FA3BF",
"rr c #758389",
"}k c #E9F5F7",
".S c #BAE4FD",
"4Z c #B2D4DE",
"9N c #B2D4DF",
"ua c #E6F5F8",
"sa c #B7E4FD",
"V5 c #72838C",
"*# c #7793A7",
")% c #B4E4F0",
"dM c #728390",
"VS c #B2D4EE",
"ka c #A8B4B9",
"o@ c #B4E4FB",
"Eo c #B4E4FC",
"m$ c #B4E4FD",
"@o c #B4E4FF",
">i c #656357",
"O1 c #7493AC",
"RD c #DEE5E6",
";6 c #B1E4FE",
"w0 c #B1E4FF",
"=F c #E0F5FD",
"aZ c #A2B4B2",
"jV c #E0F5FE",
"}: c #6C8391",
"`V c #E0F5FF",
"Rg c #DBE5E6",
"yw c #D6D5D4",
"qO c #DDF5FA",
"&C c #9DA4A5",
"yV c #A2B4C1",
".0 c #647378",
"d+ c #698395",
"qX c #DAF5F4",
"Pr c #9FB4BC",
";V c #212222",
"/o c #61737E",
"TZ c #D5E5F3",
"jd c #D7F5FE",
")4 c #9CB4C3",
"~9 c #97A4AA",
"1c c #5E7379",
">9 c #97A4AB",
"$% c #9EC4D7",
"79 c #A3D4F5",
"jN c #CDD5D5",
"t8 c #D2E5F1",
"/; c #A3D4F8",
"/r c #CDD5D8",
"gy c #CDD5D9",
"zn c #96B4B4",
" 3 c #99B4C4",
"hl c #D2E5F6",
"VM c #1B2223",
"*0 c #4C4335",
"<a c #D1F5FE",
"hw c #CAD5D9",
"5y c #91A4A9",
"Jr c #91A4AB",
"N, c #96B4C6",
"U< c #96B4C7",
"g: c #96B4C8",
"`v c #C7D5D3",
"Hp c #CEF5FE",
"}0 c #C7D5DD",
"6h c #CCE5F8",
"M; c #93B4C9",
"W% c #93B4CA",
"p= c #93B4CB",
"]8 c #98C4E6",
"a= c #93B4CC",
"Zx c #506368",
"Cw c #46433B",
"H& c #90B4CA",
"ay c #BFC5C8",
"nf c #C6E5F8",
"%b c #C6E5FA",
"mi c #BCC5C6",
"JS c #C1D5E3",
"Qm c #C1D5E4",
"3y c #83949A",
"`; c #8DB4D3",
"96 c #C5F5FF",
"a6 c #83949E",
"m6 c #8DB4D4",
";N c #F2F6F6",
"vM c #B9C5C5",
"Jh c #C3E5FC",
"nc c #404343",
"J1 c #C2F5FC",
"@h c #BED5E7",
"|u c #B4B5B2",
"T2 c #C2F5FE",
"-- c #85A4B8",
"_< c #C2F5FF",
"D+ c #85A4B9",
";# c #85A4BA",
"^O c #85A4BB",
"M. c #85A4BC",
"3X c #7B8487",
"am c #020202",
"80 c #B6C5CD",
"64 c #BFF5FE",
"@Z c #BBD5E9",
"^c c #B6C5CF",
"of c #BBD5EA",
"%. c #82A4BB",
"$. c #82A4BC",
"~D c #ECF6F6",
"e< c #82A4BF",
"9Z c #B8D5E1",
"Gb c #ECF6F7",
">A c #B8D5EB",
"(C c #AEB5B6",
"5x c #B0C5C2",
"rm c #B5D5E0",
"<y c #758489",
"dS c #7FA4C0",
".r c #75848A",
"zA c #BAE5FD",
"%g c #E9F6F9",
"AM c #B2D5DF",
"_0 c #ABB5BA",
"xO c #B7E5FD",
"dD c #B7E5FE",
"S. c #7794A8",
"zp c #686458",
"A. c #7794A9",
")  c #7794AA",
"BS c #B2D5F0",
"<v c #2F3333",
"o, c #B4E5FE",
"+F c #ADC5D9",
"uc c #2F3336",
"G@ c #E3F6FA",
"p$ c #E3F6FC",
"C1 c #7494AC",
"&x c #E3F6FF",
"zc c #DEE6E7",
"pn c #DEE6E8",
"lD c #AFD5F2",
"19 c #A5B5BD",
"]N c #A5B5C0",
"vv c #E0F6FE",
"Lk c #E0F6FF",
"og c #DBE6E7",
"c& c #6C8496",
"wf c #DBE6E9",
"=y c #DBE6EA",
"`r c #DBE6EB",
"Df c #A7C5D5",
"sg c #A7C5D6",
"Zy c #A2B5BD",
"oq c #D6D6D3",
"rh c #DDF6FF",
"nn c #D3D6D5",
"gC c #D5E6E6",
"2v c #212323",
"'h c #A1C5D2",
"&t c #575449",
"xw c #57544A",
"fX c #617480",
"=x c #5C6466",
"}, c #617481",
"YD c #D0D6D6",
"zz c #D0D6D7",
"Xv c #D5E6F3",
"*% c #A6D5F9",
"db c #D5E6F4",
"jm c #D5E6F5",
"v8 c #97A5AD",
"Ub c #1E2325",
"k& c #5E7482",
" 8 c #D2E6F1",
"Vu c #CDD6D8",
"Vi c #CDD6D9",
"_e c #CDD6DA",
"~z c #D2E6F6",
"a2 c #99B5C6",
"(1 c #99B5C8",
"(q c #CAD6DC",
"#j c #CFE6F8",
"Z* c #96B5CA",
"pB c #93B5BD",
"_g c #CEF6FF",
"vg c #CCE6F9",
"Nv c #C7D6E1",
">- c #93B5CC",
"-% c #98C5E9",
"MN c #CBF6FD",
"7d c #90B5C6",
"Xy c #F8F7F7",
"la c #BFC6C6",
"Md c #BFC6C7",
"+y c #BFC6C8",
",r c #BFC6C9",
"1u c #86959A",
"My c #86959B",
";C c #C8F6FE",
"!7 c #86959D",
".c c #C6E6FC",
"42 c #C5F6FD",
"78 c #C5F6FE",
"A: c #8DB5D3",
"X& c #8DB5D5",
"[8 c #8DB5D7",
",z c #BED6E3",
"Lc c #BED6E8",
"U# c #C2F6FE",
"=O c #85A5BA",
"SX c #85A5BB",
"Nn c #B9C6D1",
"I  c #85A5BC",
"P  c #85A5BD",
"XX c #85A5BE",
"wS c #BBD6E0",
"Fm c #FD183E",
",C c #C0E6FF",
"Qi c #BDE6FC",
"g# c #82A5C1",
"%B c #ECF7F8",
"fi c #BDE6FD",
"2; c #82A5C2",
"$5 c #B8D6E5",
"lq c #E7E7E6",
"jj c #B8D6EC",
"=s c #B8D6ED",
"tm c #B5D6E0",
"#% c #75858A",
"Mw c #75858C",
"Qw c #75858D",
"$* c #B5D6E5",
" z c #E9F7FC",
"36 c #7A95AE",
"V7 c #B0C6D2",
"S# c #B7E6FD",
"66 c #E6F7FC",
"7. c #7795AA",
"B@ c #7795AD",
"[* c #7795AF",
"#4 c #B4E6FD",
"v2 c #B4E6FE",
"ND c #ADC6D9",
"OF c #ADC6DB",
"Pn c #A8B6C1",
"uz c #E3F7FF",
"iD c #DEE7E7",
"Zb c #DEE7E8",
"c; c #6F8596",
"y5 c #AAC6D4",
"`j c #E0F7FE",
"nx c #E0F7FF",
"up c #DBE7EA",
"3O c #67757D",
"O4 c #A7C6D7",
"z3 c #A7C6D9",
"Ir c #A2B6BF",
"yk c #DDF7FE",
":f c #DAF7FE",
"rC c #9AA6A8",
"<0 c #9AA6AB",
"^9 c #9AA6AC",
"j9 c #9AA6AD",
"on c #212425",
"Un c #212426",
"+w c #57554B",
"-x c #5C6567",
"]: c #617582",
"y0 c #57554D",
"VO c #617583",
")S c #D0D7D7",
"%4 c #A6D6F8",
"4v c #D0D7D8",
"8< c #A6D6F9",
"#n c #D5E7F4",
"F8 c #D5E7F5",
"km c #D5E7F6",
"a- c #A6D6FC",
"Ns c #9CB6C9",
"(# c #5E7584",
"CD c #D2E7F3",
"1a c #D4F7FE",
"ws c #CDD7D9",
"h1 c #99B6C6",
"*8 c #C8C7C5",
" h c #CFE7F1",
"9V c #566571",
"z, c #96B6C9",
"7h c #CFE7FA",
"}- c #96B6CA",
"T% c #96B6CC",
"R% c #96B6CD",
"G, c #9BC6E9",
"Yx c #131414",
"rM c #CEF7FF",
"Ec c #C2C7C7",
"<- c #93B6CD",
"|% c #98C6E9",
"/a c #CBF7FD",
"`5 c #CBF7FF",
"[, c #F8F8F8",
"Mi c #BFC7C8",
"xr c #BFC7C9",
"]w c #BFC7CB",
"Pj c #C4D7E7",
">+ c #C8F7FE",
"(m c #818686",
">s c #C6E7FC",
"9q c #BCC7CD",
"Rh c #C1D7E8",
"1h c #C1D7E9",
"8* c #C5F7FF",
"he c #83969E",
"}& c #8DB6D6",
"g@ c #88A6BC",
"7D c #BED7E1",
":q c #F2F8F8",
"wZ c #BED7E3",
"fB c #BED7E4",
"s% c #C2F7FE",
"+c c #BED7EA",
"rV c #BED7EB",
"K% c #85A6BA",
"Xa c #8096A0",
"K  c #85A6BD",
";. c #85A6BE",
"a3 c #8096A3",
"MX c #85A6BF",
"/D c #EFF8F9",
"+M c #BBD7E3",
"L7 c #EFF8FD",
"*l c #BBD7EC",
"OM c #B8D7E1",
"ym c #B8D7E2",
"$A c #BDE7FE",
"|k c #ECF8FA",
"uj c #ECF8FB",
"ku c #737673",
"^m c #78868F",
"p7 c #ECF8FD",
"mA c #B8D7F0",
"bq c #AEB7BA",
";A c #B8D7F1",
"[g c #B8D7F2",
"B- c #BAE7FE",
"yf c #E9F8FA",
"`O c #7A96A8",
"LD c #7A96A9",
".= c #B5D7E5",
"C5 c #75868F",
"n& c #7A96AA",
"<+ c #B7E7FC",
"_v c #E6F8F8",
"/@ c #B7E7FE",
"i; c #B7E7FF",
"NC c #72868E",
"-& c #E6F8FB",
"6. c #7796AA",
"PZ c #E6F8FD",
"q9 c #7796AB",
"Z  c #7796AD",
"U= c #7796AF",
"qc c #6D767E",
"C= c #B4E7FE",
"zj c #ADC7D9",
"`m c #A8B7C0",
"/B c #E3F8FE",
"_V c #E3F8FF",
"5F c #7496AE",
"g4 c #AAC7D8",
">j c #E0F8FF",
"hp c #5D5648",
"-h c #A7C7D7",
"Zg c #DDF8FE",
"2l c #DDF8FF",
"|b c #242525",
"Sj c #A4C7D4",
"9g c #DAF8FE",
"9m c #61767B",
"$v c #9AA7AD",
"^b c #212527",
"jC c #9AA7B2",
"o0 c #57564D",
"@- c #617683",
"88 c #A6D7F7",
"6= c #617685",
"pV c #D5E8F3",
"Ws c #D7F8FE",
"e> c #A6D7F9",
"yu c #D0D8DB",
"Tn c #D5E8F6",
";c c #D5E8F7",
"'N c #D5E8F8",
"xf c #D2E8F4",
"|w c #CDD8DC",
"&r c #94A7AF",
"<< c #99B7CA",
"Mj c #CFE8F9",
"wq c #CAD8DF",
"z= c #96B7CA",
"L& c #96B7CB",
"%> c #96B7CC",
"B; c #96B7CD",
"); c #9BC7EA",
"0< c #9BC7EB",
"$1 c #CCE8F4",
"*M c #131516",
"<q c #49463B",
"'q c #49463D",
"Tf c #CCE8FB",
"lb c #C7D8E2",
"Px c #C7D8E4",
"WV c #C7D8E5",
"SV c #CBF8FD",
"A4 c #CBF8FE",
"sO c #CBF8FF",
";8 c #89979E",
"pZ c #8EA7BA",
"IN c #848787",
"nk c #C4D8E6",
"GA c #C4D8E7",
"~1 c #8BA7B6",
"q0 c #C8F8FE",
"{X c #C8F8FF",
"e1 c #8BA7B9",
"Hz c #C6E8FC",
"EZ c #C1D8E3",
"5k c #C6E8FE",
"D9 c #BCC8CB",
"}l c #C1D8E6",
"J6 c #C5F8FD",
"M> c #C5F8FE",
"C$ c #C5F8FF",
"CV c #434647",
"Em c #C1D8EA",
"kg c #C1D8EB",
";- c #88A7BC",
"!O c #88A7BE",
"n. c #88A7BF",
"aC c #F2F9F9",
"Ox c #050505",
"GM c #BED8E4",
"~N c #BED8E5",
"$: c #C2F8FE",
"I0 c #B9C8CF",
"2n c #404649",
"jx c #BED8ED",
"eV c #BED8EE",
"Of c #BED8EF",
"-. c #85A7BE",
"mX c #85A7BF",
"'S c #EFF9FA",
"oA c #EFF9FB",
".8 c #EFF9FD",
"lN c #B1B8B8",
"OZ c #BBD8F0",
"vy c #78878C",
"N1 c #82A7C2",
"Ah c #ECF9FB",
"Q- c #7D97AA",
"N8 c #B3C8D3",
"pq c #AEB8BC",
"#9 c #BAE8FE",
"cS c #BAE8FF",
"=# c #7A97AA",
"/m c #E9F9FD",
"PX c #7A97AB",
"/  c #7A97AE",
"^# c #ABB8B6",
"@S c #B5D8F3",
"6+ c #B7E8FE",
"rg c #B0C8D9",
"`% c #B7E8FF",
"Th c #B0C8DA",
"^v c #E6F9FE",
"e2 c #728793",
"o+ c #7797AE",
"[O c #728796",
"di c #B2D8EE",
"an c #E1E9EA",
"xc c #E1E9EB",
"Ei c #B2D8F3",
"c6 c #B4E8FE",
":D c #ADC8D9",
"[c c #A8B8C2",
" 7 c #7497AC",
"Uk c #E3F9FF",
"%i c #DEE9ED",
"]4 c #AAC8D9",
".u c #D9D9D7",
"Aa c #AAC8E0",
"_B c #67777E",
"Q. c #6C8799",
"Dj c #A7C8D6",
"^. c #6C879A",
"Ur c #A2B8C0",
"/f c #DDF9FE",
"Po c #ACD8FA",
"g0 c #9DA8AC",
"20 c #9DA8AD",
"RN c #64777C",
"_x c #242626",
"p< c #A4C8D9",
".y c #5A574C",
"Gy c #5A574D",
":x c #5F6768",
"|, c #647783",
"_& c #A9D8F8",
"X9 c #D8E9F3",
"ld c #DAF9FE",
"hS c #D3D9DA",
"aN c #D8E9F5",
"{1 c #959893",
"xm c #9AA8B2",
"t, c #959899",
"B% c #617784",
"+# c #617786",
"f* c #617787",
"Ya c #D7F9FF",
"'s c #D0D9DB",
"kl c #D5E9F9",
"jw c #CDD9DE",
"J; c #99B8CC",
"8- c #99B8CD",
"`d c #96B8C7",
"8d c #96B8CA",
"'- c #96B8CF",
"i$ c #CCE9F5",
"[f c #C2C9CA",
")s c #C2C9CB",
"JZ c #C7D9E7",
"Rt c #C2C9CC",
"Be c #C2C9CD",
" @ c #CBF9FF",
"~X c #F8FAFA",
"il c #C4D9E6",
"q6 c #C8F9FE",
"V8 c #C8F9FF",
"ke c #8698A0",
"$, c #90B8D7",
"IA c #C1D9E3",
"dx c #C6E9FE",
"(Z c #C1D9E5",
";= c #C5F9FE",
"-b c #C1D9ED",
"B& c #88A8BD",
"b. c #88A8BE",
"v. c #88A8BF",
"GV c #C3E9FF",
"im c #BED9E4",
"@x c #050606",
"Gn c #BED9E5",
"K4 c #C2F9FF",
"XO c #85A8BE",
"(D c #EFFAFA",
"Q1 c #8098A8",
"Nc c #EFFAFB",
"ux c #EFFAFC",
"&, c #85A8C5",
"_* c #85A8C7",
" * c #85A8C8",
"49 c #B6C9D3",
"!X c #EAEAEB",
"Js c #BBD9F0",
"mq c #B1B9BD",
"U> c #7D98A7",
"Qy c #78888D",
"+2 c #82A8C3",
"Sh c #ECFAFC",
"t# c #7D98AA",
"(g c #ECFAFD",
"u6 c #788890",
"03 c #BAE9FE",
"4* c #BAE9FF",
"~V c #353737",
"F% c #7A98AA",
"jo c #7A98AB",
"pX c #758891",
"V. c #7A98AD",
"3. c #7A98AE",
"D  c #7A98AF",
"QX c #E4EAEB",
"W3 c #B7E9FE",
"60 c #ABB9BF",
"Zp c #B5D9F5",
"SC c #32373A",
"/v c #E6FAFE",
"cb c #E6FAFF",
"(M c #E1EAEB",
"u5 c #ADC9D9",
"jD c #B2D9F8",
"s* c #A3A9A7",
"[j c #E3FAFF",
"/C c #A3A9AA",
"j* c #6F8899",
"Og c #DEEAEB",
"}s c #DEEAEC",
"-y c #DEEAEE",
"na c #AAC9E2",
"!t c #DBEAE8",
"kX c #6C889A",
"/. c #6C889B",
"Lu c #5D584C",
"cM c #D6DAD9",
"(f c #DDFAFF",
"37 c #A2B9C4",
"r% c #ACD9FC",
",* c #ACD9FE",
"/9 c #9DA9AF",
"jk c #A4C9D5",
"aV c #242728",
"LN c #242729",
"'V c #24272A",
">x c #5F6868",
"[e c #5A584E",
"u8 c #DAFAFE",
":m c #5F686C",
"5v c #D3DADA",
"!x c #D3DADB",
"&% c #A9D9FC",
"Uv c #D8EAF9",
"M9 c #A6D9F8",
"&y c #D0DADC",
"Cu c #D0DADD",
"Sk c #D5EAFA",
"]1 c #9CB9CB",
"4l c #D2EAFA",
"Y< c #99B9CA",
"Sq c #CDDAE0",
":B c #596874",
"{- c #99B9CE",
"X: c #D1FAFE",
"P7 c #D1FAFF",
".q c #4C483E",
"b6 c #9BC9EB",
"V: c #9BC9EC",
"4$ c #9BC9ED",
":+ c #CEFAFE",
"wz c #8C99A2",
"P* c #CBFAFB",
"Ni c #C2CACB",
"Bu c #C2CACC",
"mk c #C7DAE8",
"m9 c #CBFAFE",
"[w c #C2CACF",
"~7 c #8999A0",
"[B c #8BA9B1",
"wx c #84898B",
"Z$ c #C8FAFE",
")M c #EBABB8",
"x1 c #C8FAFF",
"Xj c #C4DAEB",
"ft c #BABAB7",
"2h c #C4DAED",
"h- c #90B9D8",
"T& c #8BA9BE",
"99 c #90B9DA",
"o% c #8BA9BF",
"Qk c #BCCACA",
"Hn c #C1DAE6",
"~: c #C5FAFE",
"[0 c #BCCAD1",
"<3 c #88A9BD",
"Pf c #C1DAEF",
"CX c #88A9BF",
"+X c #88A9C0",
"3p c #C3EAFD",
"c+ c #88A9C1",
"rc c #7E8991",
"G8 c #F2FBFF",
"ud c #BEDAF1",
"Lz c #BEDAF2",
"{C c #C0EAFE",
">u c #7B898D",
"]x c #EFFBFC",
"Wl c #EFFBFD",
"-s c #BBDAF2",
"{S c #BDEAFE",
"xS c #BDEAFF",
"Eq c #B1BABE",
"Dh c #ECFBFD",
"b; c #7D99AB",
"tk c #ECFBFE",
"m0 c #BAEAF3",
"I1 c #737977",
"LX c #7D99AE",
"75 c #788994",
"t$ c #7D99AF",
"fO c #BAEAFC",
"N$ c #BAEAFD",
"(@ c #BAEAFE",
"22 c #BAEAFF",
"-A c #B8DAF5",
"0k c #B3CADE",
"m  c #7A99AF",
"s  c #7A99B0",
"1% c #7A99B2",
"]* c #7A99B4",
"Gg c #E4EBEB",
"&d c #B5DAF2",
"T5 c #B7EAFE",
"Q: c #B7EAFF",
">D c #B0CADA",
"wk c #B0CADB",
"3M c #ADCACD",
"pz c #E6FBFF",
"G< c #728998",
"$M c #6D797F",
"Il c #E1EBED",
";h c #ADCAD9",
"9C c #6D7983",
"1j c #E3FBFF",
"#N c #A8BAC9",
"DO c #6F899C",
"ra c #DEEBEE",
"ip c #DEEBEF",
"Ot c #A5BAC3",
"5> c #D9DBD9",
"zu c #5D594D",
"8u c #5D594E",
",f c #DDFBFF",
"]% c #ACDAFB",
"2+ c #ACDAFC",
"oo c #ACDAFD",
"t% c #ACDAFE",
",p c #A7CAE7",
"8B c #242829",
"OC c #9DAAB5",
"[: c #647986",
"#- c #647987",
"43 c #DAFBFF",
"vw c #5F696E",
"7S c #D8EBF8",
"UZ c #D8EBF9",
">M c #D8EBFA",
"!, c #D7FBFD",
"Ta c #D7FBFE",
"d7 c #D7FBFF",
"23 c #D5EBF5",
"qa c #D0DBDC",
"es c #D0DBDD",
"!z c #D5EBFB",
"g1 c #9CBACB",
"6y c #97AAB1",
")1 c #9CBACC",
"s2 c #9CBACD",
"Ql c #D4FBFE",
")p c #D4FBFF",
"j= c #99BACD",
"M* c #99BACE",
"Kn c #16181A",
"[d c #96BACB",
"@0 c #4C493E",
"2w c #4C493F",
"Kg c #C5CBCC",
"*B c #CEFBFD",
"WA c #CADBE9",
"|3 c #91AAB9",
"xi c #FBFCFB",
"|B c #4E595E",
"Hv c #C7DBE7",
"Yp c #C2CBCD",
"A$ c #CBFBFE",
"<S c #C7DBE9",
"[i c #C2CBCE",
"p5 c #CBFBFF",
"P< c #8EAABD",
",s c #C9EBFC",
"wm c #8BAAB3",
"N> c #C8FBFE",
"r& c #C8FBFF",
"Cq c #BFCBD0",
"~% c #8BAABE",
"D7 c #90BAD9",
"d5 c #90BADA",
".& c #90BADB",
":a c #C6EBFD",
"Hh c #C6EBFE",
"EO c #8BAAC2",
"/M c #080808",
"s< c #F5FCFE",
"E, c #F5FCFF",
"%: c #C5FBFF",
"A2 c #88AABD",
"_N c #43494D",
"wg c #C1DBF0",
"JO c #88AAC0",
"KO c #88AAC1",
"IO c #88AAC2",
"P: c #F2FCFC",
"[A c #F2FCFD",
"56 c #BEDBE7",
"&5 c #F2FCFE",
"ow c #3B3931",
"LV c #BEDBF3",
"!y c #7B8A8F",
".: c #EFFCFD",
"Zz c #EFFCFE",
"8; c #BBDBE8",
"P6 c #7B8A91",
"3D c #EFFCFF",
"I6 c #7B8A92",
"KA c #ECFCFD",
";S c #B6CBDD",
"G9 c #ACABA7",
">Z c #ECFCFF",
".V c #788A92",
"-# c #7D9AAD",
",O c #7D9AAF",
"r4 c #788A96",
"z< c #BAEBFC",
"T* c #BAEBFE",
"=a c #B8DBF4",
"vO c #BAEBFF",
"fp c #B0CBCB",
"=A c #B8DBF8",
"z0 c #AEBBC2",
")d c #B3CBDF",
"1x c #707A7A",
"{. c #7A9AB0",
"a  c #7A9AB1",
"X* c #7A9AB3",
"3; c #7A9AB4",
"U9 c #B7EBFE",
"cc c #E4ECEE",
"54 c #B7EBFF",
"HS c #B0CBDA",
"zx c #B0CBDC",
"tB c #E6FCFE",
"^B c #E6FCFF",
"Eg c #E1ECEE",
"+g c #E1ECEF",
"Qz c #E3FCFE",
"ah c #E3FCFF",
")C c #A3ABAC",
"&s c #ADCBE2",
"%o c #6A7A81",
",o c #6F8A9D",
"_. c #6F8A9E",
"co c #6A7A84",
"_f c #E0FCFE",
"9l c #A7CBD7",
"9u c #5D5A4F",
"<x c #626A6A",
"zq c #5D5A51",
"xd c #DDFCFF",
"Q@ c #ACDBFA",
">* c #ACDBFC",
"jc c #D6DCDE",
"%z c #A4CBD5",
"k9 c #9DABB2",
"7s c #DAFCFE",
"7= c #647A87",
"A7 c #A9DBFA",
"=0 c #5A5A52",
"C- c #A9DBFB",
"-c c #D8ECFA",
"!j c #D5ECFB",
"Kr c #97ABB2",
"u1 c #9CBBCD",
"T< c #9CBBCE",
"G; c #9CBBD0",
"3- c #9CBBD1",
"rv c #D4FCFE",
"ki c #D4FCFF",
"A; c #99BBD0",
"y: c #99BBD1",
"T@ c #D1FCFD",
"u: c #99BBD2",
"]6 c #9ECBED",
"@= c #D1FCFF",
"4% c #CFECF5",
"&f c #CFECFD",
"]r c #4C4A40",
"uy c #FEFDFD",
"Ez c #515A5F",
"{9 c #CEFCFD",
"8f c #C5CCCD",
"&8 c #CEFCFE",
"/z c #CADCE9",
"vr c #C5CCCF",
"al c #CADCEA",
"Us c #CCECFC",
"(3 c #878B8B",
"G2 c #FBFDFC",
"), c #CBFCFE",
"[n c #EC9DAC",
"D> c #FBFDFF",
"fw c #C2CCD0",
"Uj c #C7DCEC",
"oj c #C7DCED",
"Hr c #899BA2",
"0p c #BDBCBA",
"uv c #C9ECFD",
"U8 c #848B8C",
"Gz c #C9ECFF",
"L4 c #C8FCFE",
"$+ c #F8FDFF",
":= c #C8FCFF",
"~d c #C4DCEA",
"-$ c #8BABBF",
"9s c #BABCBB",
"d@ c #8BABC0",
"NX c #8BABC1",
"df c #C6ECFE",
"$O c #8BABC2",
"9o c #8BABC3",
"1v c #080908",
";& c #F5FDFE",
"@B c #080909",
"Om c #08090A",
"mO c #C5FCFF",
"*x c #BCCCD1",
"Jc c #C1DCF0",
"!i c #C3ECFD",
")N c #BCCCD8",
"PO c #88ABC2",
"FV c #C3ECFF",
"]S c #F2FDFD",
"jn c #F2FDFE",
"kn c #F2FDFF",
"j8 c #EDEDEC",
"}A c #C0ECFD",
"&l c #BEDCF2",
"hj c #BEDCF4",
"%w c #B4BCBF",
"vo c #809BAC",
"Az c #EFFDFE",
"IZ c #EFFDFF",
"or c #7B8B92",
"i6 c #7B8B94",
")= c #BDECFE",
"%q c #B1BCC1",
"]g c #BBDCF7",
"E7 c #ACACA9",
"@* c #7D9BB0",
"i  c #7D9BB2",
"4  c #7D9BB3",
"5  c #7D9BB4",
"Y9 c #BAECFD",
"67 c #B3CCD8",
"Q3 c #BAECFF",
"Yz c #B3CCDE",
"sz c #E9FDFF",
"DS c #B3CCDF",
"Qv c #353A3C",
"n  c #7A9BB0",
"-p c #6B6B63",
"F3 c #7A9BB4",
">3 c #7A9BB5",
"1C c #758B9C",
"Ab c #E4EDEE",
":h c #B0CCDC",
"Gf c #B0CCDD",
"}j c #E6FDFF",
"mS c #B5DCFB",
"29 c #ABBCC5",
"&D c #B0CCE2",
"P> c #728B9A",
"6w c #6D7B81",
"lo c #728B9C",
"_a c #B2DCF7",
"13 c #ADCCDD",
"D6 c #E3FDFE",
"da c #B2DCF9",
"Fg c #E3FDFF",
"Ed c #ADCCE4",
"fM c #A8BCCB",
"lk c #AACCD8",
"`o c #6F8B9D",
"P. c #6F8B9E",
"h+ c #6F8B9F",
"zo c #6A7B85",
"&p c #605B50",
"W+ c #6F8BA1",
"2f c #E0FDFE",
"v5 c #AFDCFA",
"2% c #6F8BA3",
"F4 c #AFDCFC",
"83 c #AFDCFD",
"H9 c #9B9C97",
"=N c #272A2D",
"0u c #5D5B50",
"0; c #DDFDFE",
"Ry c #5D5B52",
"+7 c #ACDCFC",
"9F c #D6DDDD",
"~x c #D6DDDE",
"wA c #DBEDFC",
"_5 c #DAFDFE",
"Xm c #DAFDFF",
"p+ c #647B88",
"=m c #5F6B72",
"]s c #D3DDDF",
"@i c #D3DDE0",
"uu c #D3DDE1",
"zl c #D8EDFC",
"'1 c #9FBCCE",
"]X c #D7FDFE",
"Fh c #D7FDFF",
"&j c #D5EDFC",
"<w c #D0DDE2",
"J: c #9CBCCE",
"[- c #9CBCD0",
"2- c #9CBCD1",
"W> c #9CBCD2",
"Ol c #D4FDFE",
"+d c #D4FDFF",
"YC c #8F9C9C",
"{u c #D1FDFE",
"'& c #9ECCEF",
"Vx c #CDDDEA",
"x8 c #8F9CA3",
"{B c #161A1C",
"b- c #96BCCF",
"z> c #FEFEFD",
"K@ c #FEFEFE",
"*: c #CEFDFE",
"Bo c #FEFEFF",
"Vd c #C5CDCE",
"w6 c #CEFDFF",
"_s c #C5CDCF",
"Ve c #C5CDD0",
"b7 c #8C9CA5",
"a7 c #FBFEFD",
"#; c #CBFDFD",
">: c #FBFEFE",
"{@ c #CBFDFE",
"l> c #FBFEFF",
"8> c #CBFDFF",
".; c #8EACBE",
"G* c #8EACBF",
"0- c #8EACC0",
"sx c #C9EDFE",
"|< c #93BCDD",
"f< c #F8FEFE",
"eO c #F8FEFF",
"zM c #464B4E",
"^$ c #8BACC1",
"qo c #8BACC2",
"{Z c #869CA8",
"0o c #8BACC3",
"v3 c #F5FEFE",
"z5 c #F5FEFF",
"tM c #080A0A",
"8V c #080A0B",
"90 c #BCCDD4",
"Ba c #88ACC0",
"hx c #C1DDF2",
"qp c #B7BDBF",
">& c #F2FEFD",
"o3 c #F2FEFE",
"^= c #F2FEFF",
"x4 c #88ACC9",
"9$ c #88ACCA",
".1 c #88ACCB",
"bZ c #C0EDFE",
"Ks c #BEDDF4",
"Wq c #B4BDC1",
"li c #EFFEFD",
"X> c #809CAC",
"l1 c #EFFEFE",
"r6 c #EFFEFF",
"!- c #809CAE",
"^w c #7B8C94",
"4& c #BDEDFD",
"zS c #BDEDFE",
"]7 c #B6CDD9",
"Uc c #B6CDDD",
"g; c #ECFEFE",
"C7 c #ECFEFF",
"m& c #7D9CAE",
"|g c #B6CDE0",
"o. c #7D9CB2",
"v  c #7D9CB3",
"2  c #7D9CB4",
"6  c #7D9CB5",
"`< c #BAEDFE",
"V= c #BAEDFF",
"xx c #B3CDDC",
"&7 c #E9FEFD",
"}h c #B3CDDD",
"=* c #E9FEFE",
"y* c #E9FEFF",
"SS c #B3CDE2",
"vp c #6B6C63",
"We c #707C7E",
"qx c #E4EEEE",
"mz c #E4EEEF",
"Ul c #E4EEF0",
"%7 c #E6FEFD",
"b% c #E6FEFE",
"XD c #B5DDF9",
"t* c #E6FEFF",
"zk c #ADCDDA",
"R$ c #728C9E",
"ef c #E1EEF0",
"Ui c #635C4E",
"pp c #E1EEF1",
"E9 c #E3FEFD",
"11 c #E3FEFE",
"a& c #E3FEFF",
"+* c #728CA4",
"@t c #A8BDC7",
"$z c #AACDD9",
"/p c #E0FEFC",
"]u c #605C4F",
"++ c #AACDDD",
"14 c #E0FEFE",
"Ku c #605C51",
"-+ c #E0FEFF",
"y9 c #AFDDFB",
"!@ c #AFDDFD",
"+@ c #AFDDFE",
"1* c #AFDDFF",
"}+ c #DDFEFE",
"H$ c #DDFEFF",
"p8 c #ACDDFB",
" < c #677C89",
"U. c #677C8A",
"QV c #DBEEF8",
"7< c #ACDDFD",
")A c #D6DEDE",
"lZ c #D6DEDF",
"zm c #DBEEFD",
"YV c #626C76",
"'y c #9DADB2",
"Q8 c #9DADB5",
"ia c #DAFEFD",
"Y@ c #DAFEFE",
"G$ c #DAFEFF",
"@# c #647C8D",
"wa c #D3DEE0",
"0i c #D3DEE1",
"Fk c #D8EEFD",
"f1 c #9FBDCE",
"$7 c #D7FEFD",
"fr c #9AADB6",
"#s c #9FBDD2",
".# c #D7FEFE",
";: c #D7FEFF",
"EC c #959D9E",
"u+ c #97ADAA",
"yM c #5C6C74",
"Vw c #575C5B",
"0h c #D5EEFE",
"{d c #9CBDCE",
"-: c #D4FEFD",
"u& c #D4FEFE",
"RC c #929D9D",
"k% c #D4FEFF",
"Q> c #9CBDD3",
"Bn c #596C71",
"/u c #4F4C40",
"+0 c #4F4C42",
"=: c #D1FEFD",
"h8 c #D1FEFE",
"j% c #D1FEFF",
"4j c #C8CECF",
"tN c #CDDEEB",
"uZ c #CDDEEC",
"76 c #FEFFFB",
"G1 c #FEFFFC",
"&1 c #FEFFFD",
"q, c #CEFEFD",
"7% c #FEFFFE",
"}@ c #CEFEFE",
"rO c #FEFFFF",
"t& c #CEFEFF",
"0s c #C5CECF",
"KS c #CADEEB",
"6l c #CADEED",
"Yj c #CADEEF",
"'2 c #91ADBE",
"x3 c #C0BEBA",
"r1 c #91ADBF",
"eu c #FBFFFD",
"W; c #CBFEFD",
"`+ c #FBFFFE",
"B> c #CBFEFE",
"~= c #FBFFFF",
"R2 c #CBFEFF",
"hq c #C2CED4",
"!% c #8EADC2",
".% c #8EADC3",
"m1 c #93BDDE",
"nu c #F8FFFD",
":& c #F8FFFE",
")X c #F8FFFF",
"xs c #C4DEEB",
"Tx c #464C4D",
"8O c #8BADC1",
"DB c #C6EEFE",
"/$ c #8BADC2",
"Jm c #EFCFD8",
"=M c #464C51",
"Dm c #FF002A",
"C& c #8BADC3",
"_M c #FF002B",
"<# c #8BADC4",
"Sm c #FF002C",
"*b c #C4DEF6",
"e@ c #8BADC5",
"4t c #F5FFFD",
"N# c #F5FFFE",
"sZ c #BCCECE",
"Co c #F5FFFF",
".B c #BCCECF",
"+N c #C1DEF3",
"AN c #C1DEF4",
"ne c #B7BEC1",
"V< c #F2FFFD",
"s7 c #F2FFFE",
"~# c #F2FFFF",
"Gr c #7E8D94",
"I7 c #C0EEFE",
"=1 c #EFFFFD",
"f$ c #EFFFFE",
"p* c #EFFFFF",
"ve c #AFAEA9",
"0& c #BDEEFD",
"B$ c #BDEEFE",
"32 c #BDEEFF",
"Q, c #ECFFFD",
",D c #B6CEDD",
":: c #ECFFFE",
"gf c #BBDEF9",
"i* c #ECFFFF",
"BZ c #BBDEFB",
"gg c #B6CEE0",
"Hf c #B6CEE1",
"{o c #7D9DB2",
"nM c #383C40",
"nX c #7D9DB3",
"1  c #7D9DB4",
"+. c #7D9DB5",
"wF c #E7EFF0",
"'* c #7D9DB9",
"FZ c #B3CEDC",
"25 c #E9FFFD",
"c: c #E9FFFE",
"uO c #E9FFFF",
"rd c #B3CEE3",
"Ih c #B3CEE4",
"O5 c #7A9DB6",
"^A c #ABBEBD",
"91 c #758D9C",
"C4 c #E6FFFD",
"b3 c #E6FFFE",
"1= c #E6FFFF",
"%D c #B0CEE5",
"Fd c #E1EFF1",
"v& c #728DA0",
"~u c #E1EFF2",
"H8 c #E3FFFD",
"9% c #E3FFFE",
"j+ c #728DA2",
"|> c #E3FFFF",
"z# c #728DA3",
"St c #A8BEC7",
"^0 c #A3AEB1",
"|D c #ADCEE8",
"BV c #2A2C2C",
"Ra c #E0FFFD",
"R; c #E0FFFE",
")u c #605D51",
"B# c #E0FFFF",
"D# c #AFDEFA",
"_u c #605D52",
"'= c #AFDEFB",
">v c #656D6E",
"jr c #605D54",
"lO c #AFDEFD",
".o c #AFDEFF",
"Od c #DDFFFD",
"x% c #DDFFFE",
"Q# c #DDFFFF",
"a5 c #ACDEFC",
"Z< c #626D6F",
"cl c #DBEFFE",
"Cc c #DAFFFD",
"r* c #DAFFFE",
"+; c #DAFFFF",
"WC c #989E9F",
"MC c #9FBEC8",
"Y$ c #647D8C",
")# c #647D8D",
"5= c #5F6D75",
"tp c #D3DFE2",
"Iw c #D3DFE5",
"Jb c #D7FFFD",
"ar c #9AAEB6",
"84 c #D7FFFE",
"t+ c #D7FFFF",
"a: c #9FBED3",
"S; c #9FBED4",
"#3 c #D4FFFD",
" # c #D4FFFE",
"E; c #D4FFFF",
"LA c #D0DFEC",
"%V c #191C1C",
"NV c #929EA8",
"|@ c #D1FFFD",
">@ c #D1FFFE",
"m= c #8F9E9C",
",= c #D1FFFF",
"Pg c #C8CFD0",
"(N c #CDDFEC",
"o2 c #9ECEF1",
"HC c #CDDFED",
"52 c #CEFFFD",
"v: c #CEFFFE",
"H- c #CEFFFF",
"kv c #CADFEA",
"gw c #C5CFD4",
"yy c #C0BFBB",
"#r c #8C9EA6",
"I; c #91AEC1",
"#b c #CCEFFF",
"X7 c #C7DFEA",
"gZ c #C2CFD0",
"~h c #C7DFF3",
":g c #C9EFFE",
"*$ c #8EAEC3",
"G= c #93BEDE",
"a@ c #8EAEC4",
"n6 c #93BEDF",
"05 c #899EAA",
"UO c #8EAEC5",
";% c #93BEE1",
"6M c #BFCFCF",
"Rm c #899EAE",
"AC c #0B0C0C",
"Mm c #BFCFD0",
"7z c #0B0C0D",
"U0 c #BFCFD6",
"5V c #C6EFFF",
"Jn c #464D52",
"X$ c #8BAEC5",
"5M c #BCCFCF",
"Os c #88AEC1",
"b9 c #BCCFDA",
"Kz c #C1DFF6",
"Dw c #B7BFC2",
"*w c #B7BFC3",
",u c #7E8E92",
"Ic c #BCCFE0",
"X5 c #88AECB",
"S: c #88AECC",
"-e c #7E8E97",
"|& c #88AECE",
",+ c #C0EFFE",
",b c #B9CFDE",
"q3 c #BDEFFE",
"k. c #809EB7",
"|h c #B6CFDF",
"70 c #B1BFC6",
"Mf c #B6CFE2",
"VA c #B6CFE3",
"3n c #383D40",
"v- c #7D9EB3",
"<  c #7D9EB5",
")@ c #BAEFFE",
"16 c #7D9EB9",
".b c #E7F0F1",
"}n c #E7F0F2",
"Yc c #B3CFDD",
"Wi c #B8DFF9",
"oS c #B8DFFC",
"wD c #7A9EB7",
"IB c #707E88",
"Oq c #A6AFB3",
"(0 c #A6AFB4",
"R0 c #686E68",
"r. c #728EA2",
"R4 c #6D7E88",
"e. c #728EA3",
"V- c #B2DFFB",
"Z@ c #728EA4",
"_D c #B2DFFC",
"st c #A8BFC6",
"-, c #728EA5",
",3 c #728EA6",
"k2 c #9E9F9B",
"R: c #AFDFFB",
"%9 c #AFDFFC",
"D< c #6A7E8B",
"in c #D9E0E1",
"5Z c #A7CFD8",
"]B c #A7CFD9",
"4X c #9B9FA0",
"LZ c #DBF0F8",
"+- c #626E72",
"zt c #D6E0E4",
"~0 c #D1D0CE",
"Qd c #A2BFD4",
"vu c #554E42",
"rt c #9AAFB6",
"E< c #9FBFD3",
"mj c #D5F0FD",
"ig c #9CBFCE",
"Af c #9CBFCF",
"ce c #524E44",
"9S c #D0E0EC",
"Al c #CBD0D1",
"US c #D0E0ED",
"Sl c #CBD0D2",
"Dy c #929FA1",
"9< c #A1CFF3",
"oh c #D2F0FC",
";9 c #929FA5",
"Rb c #191D20",
"cx c #545E64",
"Et c #C8D0D2",
"br c #C8D0D3",
"dl c #CDE0EF",
"3u c #8F9FA5",
"hZ c #C5D0D1",
"wt c #8C9FA4",
"3> c #91AFC1",
"Fz c #CCF0FE",
"Te c #8C9FA7",
" ; c #91AFC2",
"/A c #C2D0D0",
"7M c #C2D0D1",
"7# c #8EAFC4",
"p@ c #8EAFC5",
"=u c #7F7F77",
"Nm c #BFD0D1",
"DV c #C6F0FF",
"[9 c #BFD0DA",
"@f c #C4E0F6",
"Jq c #413E38",
"k: c #869FAD",
"_2 c #869FAE",
"!1 c #869FAF",
"T: c #C3F0FE",
"=7 c #F0F1F0",
"4w c #3E3E38",
"%l c #C1E0F9",
"'p c #7E8F92",
"Qq c #B7C0C4",
"K< c #839FAE",
"g, c #839FB1",
"bV c #404E52",
"FA c #B9D0DE",
",g c #BEE0FA",
"M& c #809FB2",
"do c #809FB4",
"#X c #809FB6",
".  c #809FB7",
"A, c #BDF0FF",
"8l c #B6D0DC",
"6X c #ACB0AE",
"BA c #B6D0E5",
"C9 c #7D9FB8",
"/t c #737F84",
"P= c #7D9FBA",
"0v c #E7F1F2",
"xk c #B3D0DD",
"hs c #B8E0F8",
"Yl c #E7F1F3",
"&S c #B3D0E6",
"aS c #B0D0D8",
"+e c #707F84",
"-z c #B0D0DC",
"$e c #707F85",
"cp c #665F50",
"pe c #707F86",
"rf c #E4F1F3",
"1X c #707F87",
"Gd c #E4F1F4",
"xp c #665F52",
"45 c #707F89",
"2B c #707F8A",
"u< c #758FA6",
"0y c #ABC0C8",
" s c #B0D0E8",
"Vn c #ADD0DA",
"&a c #B0D0EC",
"p. c #728FA3",
"jp c #635F53",
"w. c #728FA4",
"yi c #635F54",
" + c #728FA5",
" o c #B2E0FD",
"Z1 c #728FA6",
"2* c #B2E0FE",
"U2 c #B2E0FF",
"47 c #A8C0CB",
"cV c #AAD0D9",
"=n c #AAD0DA",
"v1 c #AFE0FD",
"cn c #DEF1FB",
"Vb c #D9E1E1",
"9x c #D9E1E2",
"bM c #DEF1FD",
"6N c #A7D0D9",
"J5 c #A5C0CF",
"t5 c #A5C0D0",
"_d c #A5C0D1",
" : c #DBF1F6",
"bt c #D6E1DE",
"2S c #DBF1FA",
"8= c #677F8D",
"C% c #677F8E",
"xo c #626F75",
"4@ c #677F90",
"mx c #DBF1FD",
"#i c #D6E1E4",
"Nr c #D6E1E5",
"d1 c #A2C0D2",
"=t c #D1D1CE",
"f2 c #A2C0D3",
"(b c #9DB0BC",
"3l c #D8F1FE",
"}d c #9FC0D2",
"V0 c #524F44",
"$0 c #524F45",
"Cr c #524F46",
"jb c #575F64",
"hz c #CBD1D1",
"^k c #CBD1D2",
"Dl c #CBD1D3",
"Mv c #D0E1EE",
":6 c #A1D0F3",
"|c c #D0E1EF",
"D= c #A1D0F4",
"B: c #A1D0F5",
"c8 c #92A0A8",
"|Z c #C8D1D2",
"Hm c #F2A2B1",
"ep c #C8D1D3",
"$y c #C8D1D4",
"Ce c #C8D1D5",
"(y c #8FA0A6",
"Pa c #CFF1FE",
"KD c #94B0C3",
"8M c #C5D1D2",
"Ma c #91B0C2",
"Nj c #CAE1F4",
"D* c #91B0C4",
"$$ c #91B0C6",
"H, c #96C0E3",
"`b c #879093",
"nb c #C2D1D2",
"Bs c #8EB0BF",
"A& c #8EB0C6",
"P% c #8EB0C7",
"ib c #C2D1DE",
"'$ c #8EB0C8",
"fs c #C6F1FF",
"kr c #F3F2F1",
"Ip c #BAC1C2",
"rN c #BFD1DD",
"pv c #C4E1F8",
" i c #BAC1C3",
"Tu c #BAC1C4",
"`w c #BAC1C5",
"~y c #819095",
"%, c #8BB0CF",
"`n c #7C8080",
"ns c #C1E1F6",
"&N c #BCD1E0",
"fe c #7E9097",
"1< c #7E9099",
"(O c #83A0B7",
"TB c #B9D1DF",
"Jj c #B9D1E0",
"Jf c #B9D1E4",
"SZ c #B9D1E5",
"Sw c #AFB1AF",
">O c #80A0B4",
"HX c #80A0B5",
"3m c #768080",
">. c #80A0B6",
"]5 c #BDF1FE",
"   c #80A0B7",
"9+ c #BDF1FF",
"&  c #80A0B8",
"8  c #80A0B9",
"ck c #B6D1E0",
"NA c #B6D1E8",
"[k c #E7F2F3",
"xA c #B8E1FC",
"*s c #B3D1E8",
",i c #B0D1DC",
"dt c #6B706B",
"@e c #708086",
"Di c #E4F2F5",
"@p c #E4F2F6",
"k+ c #7590A5",
"pt c #ABC1CA",
"O- c #DFE2E1",
"0m c #ADD1DA",
"*d c #B0D1EA",
"4c c #ADD1DB",
"6Z c #ADD1DC",
"gO c #B2E1FB",
"1o c #7290A4",
"T3 c #B2E1FC",
"ui c #636054",
"G6 c #B2E1FD",
"E+ c #7290A6",
"zO c #B2E1FE",
"w2 c #6D808C",
"e$ c #7290A8",
"<l c #E1F2FA",
"Zl c #A3B1AE",
"iB c #AAD1DA",
"mC c #AAD1DB",
" C c #AAD1DC",
")9 c #A3B1B8",
"j4 c #AFE1FC",
"eC c #DEF2F9",
"Z= c #AFE1FE",
"%% c #AFE1FF",
"XA c #D9E2E2",
"x; c #6A8090",
"<N c #DEF2FE",
"1M c #DEF2FF",
".s c #A5C1D7",
"=c c #DBF2FD",
"{a c #DBF2FE",
"s+ c #678092",
"[s c #D6E2E4",
".p c #D6E2E5",
"ee c #D6E2E7",
"Q< c #A2C1D3",
"Tr c #9DB1B9",
">< c #A2C1D4",
"v, c #A2C1D5",
"Ng c #D8F2FF",
"G> c #5F707A",
"y, c #5F707B",
";< c #9FC1D4",
"'f c #CED2D1",
"qb c #5C7075",
"~b c #1C1F21",
"Wb c #1C1F22",
"gA c #CBD2D2",
"zh c #CBD2D3",
"m2 c #A1D1F3",
"6j c #CBD2D4",
"PM c #D0E2F0",
"r> c #A1D1F5",
"KC c #D0E2F1",
"Q0 c #8D918B",
"3$ c #A1D1F8",
"ID c #C8D2D2",
"tn c #C8D2D3",
"9a c #C8D2D4",
"/1 c #94B1C2",
"46 c #94B1C3",
"%< c #94B1C5",
"Gp c #CCF2FD",
"sj c #CCF2FF",
"Re c #8CA1A8",
"PN c #4C5052",
"9- c #91B1C5",
"eX c #C9F2F2",
"Q% c #91B1C6",
"y@ c #91B1C7",
"[& c #96C1E3",
"Er c #82817A",
"Ln c #87919A",
"NN c #C9F2FE",
"`$ c #8EB1C8",
"#d c #C6F2FD",
"t9 c #C6F2FF",
"ni c #BAC2C2",
"`i c #BAC2C3",
"Xc c #C4E2F9",
"6a c #BAC2C4",
",S c #BFD2E0",
"me c #BAC2C5",
"=w c #BAC2C6",
"q- c #86A1B2",
":b c #BFD2E5",
";3 c #8BB1CF",
">7 c #81919A",
"j- c #8BB1D0",
"gj c #C1E2F9",
"%c c #BCD2DF",
"6B c #BCD2E0",
"RB c #BCD2E1",
"8q c #B7C2C7",
">1 c #C0F2FC",
",$ c #83A1B5",
"0M c #E7C3CB",
"ao c #83A1B7",
"E@ c #C0F2FF",
"t4 c #7E919D",
"~B c #B4C2C2",
"-a c #BEE2F9",
"Km c #EDF3F5",
"eg c #B9D2E5",
"_p c #BBE2F2",
"_@ c #BDF2FE",
"%  c #80A1B8",
"$  c #80A1B9",
"g  c #80A1BA",
"!D c #EAF3F4",
"I> c #7891A0",
"er c #738187",
"tj c #E7F3F4",
"8t c #738188",
"Bh c #E7F3F5",
"W- c #7891A4",
"!g c #E7F3F6",
"bS c #B8E2FD",
"M8 c #AEC2CB",
"P- c #E2E3E2",
"FD c #B0D2DB",
",F c #B0D2DC",
"@q c #A9B2B7",
"Um c #B0D2E0",
"x@ c #70818A",
"fD c #B5E2FD",
"55 c #70818B",
"D. c #7591A6",
"3% c #B0D2E4",
"u; c #B5E2FF",
"Dt c #ABC2CA",
"26 c #7591AB",
"iA c #ADD2DB",
"{V c #ADD2DC",
"[u c #A8C2C2",
"5c c #ADD2DD",
"W@ c #B2E2FB",
"2b c #E1F3F9",
".< c #6D818F",
"Zm c #DCE3E4",
"<F c #AAD2DA",
"{D c #ADD2EF",
"4g c #A8C2D7",
"RM c #A3B2BE",
"2t c #D9E3E7",
"wy c #A0B2B7",
"18 c #A0B2BC",
"VV c #9BA2A3",
"=o c #678192",
"eh c #DBF3FF",
"ex c #5D6162",
"a1 c #A2C2D6",
"27 c #9DB2BD",
":V c #1F2020",
")h c #9FC2CE",
"pg c #9FC2D1",
"u0 c #555147",
"nt c #555149",
"]m c #D3E3F0",
"$6 c #9AB2BF",
"8S c #D3E3F1",
"hd c #D5F3FE",
"Qb c #1C2023",
"$V c #95A2AE",
"6t c #525149",
"mt c #52514A",
"Wx c #CBD3D3",
"9f c #CBD3D4",
"{< c #A1D2F4",
"Bx c #D0E3F0",
"jt c #CBD3D6",
"2$ c #A1D2F7",
"]2 c #97B2C3",
"iy c #C3C3C0",
"$r c #8FA2AA",
"h: c #94B2C6",
"S* c #94B2C7",
"qq c #C5D3DA",
"7c c #8CA2AB",
"t@ c #91B2C7",
"5# c #91B2C8",
"qD c #8CA2AE",
"4N c #C5D3DF",
":- c #91B2C9",
"C: c #96C2E5",
"%M c #87929B",
"}a c #C9F3FE",
"6d c #8EB2C3",
"b0 c #C2D3DC",
"Ou c #BDC3C5",
"py c #BDC3C6",
"xN c #EBB4C1",
".C c #86A2AB",
"1d c #C4E3F8",
"fh c #BAC3C3",
"Jz c #C4E3F9",
"Xw c #41413B",
"!A c #8BB2CA",
"!q c #BAC3C8",
"Bt c #819298",
"|r c #819299",
"XV c #81929A",
"T> c #86A2B5",
"-1 c #C3F3FE",
"8$ c #8BB2D2",
";* c #C3F3FF",
"UN c #B7C3C4",
"va c #BEE3EB",
"kM c #BCD3E1",
"Kj c #BCD3E2",
"~- c #83A2B4",
"Nb c #3E4142",
"7C c #BCD3E6",
"uw c #B2B3B1",
"q& c #C0F3FD",
"F- c #C0F3FE",
"!$ c #83A2B7",
"m5 c #C0F3FF",
"e  c #83A2BB",
/* pixels */
"                      . . . . . . X X X X X X X X X X o o o o o o o o o o o o o o o O X X X X X X X + + + + + + + + @ @ @ @ @ @ @ @ @ @ @ @ @ @ @ @ @ @ @ @ + + + + + + + + + + + + + X X X X X X X X X X X X X X X X X X X X X o o o o o o o o o o o o o o o o ",
"# # $ $ $ $ $ % % % % % % % % % % % % & & & & & & & & & & & & & & & & & & & & & & & & & & & & & & & X X o o o o o * * * = = = = = = = = = @ @ @ @ - - @ + + + + X X X X O O O O O O O O O O O O O O O O O O O O O O O O O O O O O O O O O O O O O O O O O O O O ",
"; ; ; ; ; ; ; ; ; : : : : : : : > > > > > > , , , , , , , , , , , # # # # # # # # # # # # O O O O O O O + + + @ @ < < 1 2 2 2 2 2 3 3 3 3 3 2 4 4 5 5 2 2 2 6 6 = = = 7 7 7 * * o 8 8 8 8 8 $ $ $ $ $ $ $ $ $ $ $ $ $ $ $ $ $ $ $ $ $ $ $ $ $ $ $ $ $ $ $ $ $ $ ",
"9 9 9 9 9 9 9 9 9 0 0 0 0 q w w w w w w w w w w w w w e e e e w w w q q 0 0 0 0 0 , , , , , , % & . . r r t y y u u i i p p p a a s s s s s s s d d d d d f f 3 2 2 1 @ @ @ @ X X X X X X $ g g g g g g g g g g g g g g g g g g g g g h h h h h h h h h h h h h ",
"j j j j j j j j j k k k k k k k k k k k k k k l l l l l l z z z z z x x x x w w w w w c c 8 O O o @ y v v v f b b n m m M M N B B B V V V V V V V C Z A S M D m m b b F G 1 H H @ O O $ $ $ $ $ > q q q : : : : : : > > > > > > > > J J J J J J J J J J J J J J ",
"K K K K K K K K K K K K K L L L P P P P P P P I I I I I I I I I I U U l l l l 0 0 Y T R E W W Q Q u i ! ~ ^ ^ / ( ( V ) ) _ ` ' ' ] ] ] [ [ { { } } ' ' | _  . ...V X.D s d ! o.O.+.< + @.@.h h h h #.#.#.$.$.$.$.$.$.%.%.%.%.%.%.%.q q q q q q q #.#.#.#.q q q ",
"&.&.&.&.*.*.*.*.*.*.*.*.*.*.*.*.=.=.=.=.=.=.-.-.-.-.-.;.;.;.;.;.U U U U l l 9 :.Y R >.,.W <.1.F b 2.3.4.5.6.7.8.9.] 0.q.w.e.r.t.t.y.y.y.y.y.y.y.t.u.i.e.e.p.a.s.] 9.d.) ..V f.g.h.f 4 2 - j.k.8 > q q q l.l.$.z.z.z.z.z.z.z.z.z.z.z.z.z.z.z.z.z.z.x.x.x.x.x.x.x.",
"c.c.c.c.c.v.v.v.v.b.b.b.v.v.n.n.n.n.m.m.m.m.m.m.m.m.m.m.m.*.*.*.*.*.P M.N.z : R . r W Q v ! B.V.C.Z.A.S.D.F.G.e.H.J.K.L.P.I.U.Y.T.R.E.W.Q.E.!.~.^.^./.(.).)._.K.`.'.t.e.s.] ].[.6.S m {.F 1 }.|.& $ h #.$.$.z.z. X X.XXXXXXXXXXXXXXX;.;.oXoXoXoXoXoXoXoXoXoXoXoX",
"OXOXOXOXOXOXOXOXOXOXOX+X+X+X+X+X+X+X+X+X+X+X+Xv.v.v.v.@X@X@X@X*.P P U z 9 R   #X$Xu o.%X&X*X=X-X;X:X>X,X<X1X2X3X4X5X6X7X8X9X0XqXwXeXrXtXyXuXiXpXaXsXdXfXgXhXjX!.Q.kXlXzXxXcXr.w.D.8.7.vX3.bXi nXj.. R : : l.%.z.oXoXoXoXmXmXmXmXmXmXmXmXmXmXmXMXMXMXMXMXMXMXMXMX",
"NXNXNXNXBXBXBXBXVXVXVXVXVXVXVXVXVXVXVXVXVXVXVXVXVX+X+XCXCXc.@XZXAXSXDXFXGXHX<.JXKXLXPXIXUX;XYXTXRXEXWXQX!X~X^X^X^X^X/X(X)X_X`X'X]X[X{X}X|X o.oXoooOo+o@o#o$o%o&o*o=o-o;o:oQ.>o,o`.<o1o2oA.5.V.2.F 3or 4oY 0 z U L ;.5o5o5o5o6o6o6o6o6o6o7o8o8o8o8o8o8o8o8o8o8o8o",
"9o9o9o9o9o9o9o9o0o0oqoqoqoqoqoqoqoqowowowowoeororototo+Xv.youoAXiopoaosodofogohojokolozoxocovobonomoMo)X/X^X^XNoNoBoVoCoZoAoSoDoFoGoHoJoKoLoPoIoUoYoToRoEoWo|XQo!o~o^o/o(o=o)o;o_o>o`o`.'o]o[oZ.V.2.{o3o>.:.9 }o|o O.OXOoO8o8o8oOOOOOOOOOOOOOOOOOOOOOOOOOOOOOOOO",
"+O+O+O+O+O+O+O+O@O@O@O@O#O#O#O#O#O#O#O#O#O9o9o$OVXBX%O&Oyo*O=O-O;O:O>O1.,Oho<O1O2O3O4O5O6O7O8O9O0OqOwOeOBoNo^XrOrO/X)XtOyOuOiOpOaOsOdOfOgOhOjOIokOlOzO@oxOcOvObOnOmOmOMONOBOVOCOZOAOjXSODOK.r.0.FO=X3.GO3oHO4o:.k |oZX7o7oJOKOKOKOKOLOLOLOLOPOPOPOPOPOIOIOIOIOIO",
"UOUOUOYOYOYOYOTOTOTOTOUOUOUOUOUOUOUOUO+O+ORO9o9oEOWOQO!O~O^O/O(O)O_Ogo`O'O]O[O{O}O|O +.+X+o+O+++@+#+wO$+BoNorOrO/X%+(X&+*+=+-+;+:+>+,+<+1+kOUo2+3+4+zO5+6+7+8+9+0+q+w+e+r+t+y+u+i+p+a+s+d+f+g+h+j+k+A.*Xl+fo$X4oDXl K z+5ox+c+v+b+LOLOn+n+n+n+n+n+n+n+n+n+n+n+n+",
"m+m+m+m+m+m+m+m+m+m+M+M+M+N+N+N+N+TOTOB+V+@OC+NXVXZ+A+S+D+/OF+G+H+J+K+L+P+I+U+Y+T+R+E+W+Q+!+O+~+^+/+(+$+Bo)+rO_+`+`+'+]+[+{+}+|+ @.@X@o@O@UoUo2++@zO@@#@$@%@Wo&@*@=@e+-@;@:@>@,@<@1@^o2@3@4@5@6@g+7@8@D.9@V.0@3o>.Y N.q@7o+Xc+IOn+w@w@w@e@e@e@e@e@e@w@r@r@r@r@r@",
"t@t@y@y@y@y@y@y@y@y@y@y@y@u@u@m+m+i@i@p@a@B+s@d@f@g@h@j@k@l@z@&ox@K c@v@b@n@m@M@N@B@V@C@Z@A@S@D@F@G@H@eOrOJ@K@_+L@P@(X]+I@U@Y@T@R@E@cOW@Q@IoUo!@~@zO^@/@(@)@_@`@'@]@[@{@}@|@ #.#pO'XX#o#O#+#@#4@5@##$#%#&#*#=#-#G+)O/O;#:#v.to>#,#w@<#e@e@e@1#1#1#1#1#1#1#1#1#1#",
"2#3#3#4#4#4#4#4#4#5#5#5#5#5#u@6#6#m+N+7#RO8#9#0#q#w#e#r#t#y#u#i#p#a#s#d#f#g#h#j#k#B@l#Q+z#3.x#c#v#b#n#m#/XJ@M#_+`+VoN#yOuOB#V#C#Z#A#S#D#F#G#oo+@H#J#K#L#8+P#I#U#Y#T#{@}@R#E#W#.#DoQ#'X!#~#^#/#(#)#4@AO_#`#'#]#[#{#H+do}#=O|# $.$won+X$o$1#1#1#O$O$O$O$O$O$O$O$O$",
"+$@$@$@$@$#$#$#$#$#$#$#$2#2#3#y@$$%$&$*$=$-$;$:$>$,$l@<$1$2$3$4$5$6$7$8$9$0$m@q$w$R+e$r$.+t$y$u$i$p$a$L@s$rO^X_+L@m#d$f$g$h$j$k$l$z$x$c$G#v$b$4+n$m$M$N$B$V$`@C$Z$A$}@S$D$F$t+G$H$'XJ$K$`XL$*+P$I$U$Y$Y.L.T$R$'oE$W$Q$do!$SX~$Z+^$/$@O($)$_$_$_$`$`$`$`$'$'$'$'$",
"]$[$[$]$]$]$]$]$]$]$+$+${${$}$|$$$ %.%X%o%O%h@+%@%#%$%%%&%*%=%4$-%;%:%>%,%0$<%q$1%B@e$2%.+KX+$3%4%5%6%L@7%rO^X_+L@m#N#8%9%0%q%w%e%M$Tor%oot%y%u%@@K#cOi%p%a%s%d%f%g%h%j%k%l%z%x%c%v%iOb%n%m%[+[+M%N%B%V%C%Z%A%`#S%D%F%G%H%J%K%~$%O/$L%YOP%I%I%U%U%Y%Y%Y%Y%Y%Y%Y%",
"T%T%R%R%R%T%T%T%T%]$]$E%W%}$3#Q%%$!%8#~%O%^%/%(%)%_%`%'%]%[%{%}%|% &.&X&o&I+O&+&@&R+#&$&z#%&&&*&=&-&;&`+s$^X^Xs$P@:&>&,&<&1&2&3&4&m$3+5&t%6&.o7&8&M$9&0&q&w&e&r&g%t&y&u&W#pOi&p&-+a&s&d&f&Aog&*+yOh&j&k&l&z&x&c&g+v&b&n&m&M&N&=OB&V&C&Z&A&S&S&D&F&F&G&G&H&H&H&H&",
"J&J&J&J&J&J&J&K&K&L&L&P&I&}$y$$$U&Y&T&R&E&W&Q&!&~&^&/&(&)&_&`&'&]&[&{&}&|& *.*+&X*|Oo*O*+*@*#*$*%*&***/XrO^X^Xs$P@'+Zo=*Q#j$-*;*N$:*>*,*<*1*2*3*K#4*5*6*7*8*9*0*q*w*e*F$pOr*p&J$J$`Xt*y*u*i*p*yO~#Coa*s*d*f*U$g*h*j*k*<Ol*z*x*c*S+v*1$V+b*u@F&F&n*G&G&m*m*m*m*m*",
"M*M*M*N*N*N*B*B*V*K&C*Z*A*S*D*F*G*H*J*K*L*P*I*{XU*Y*T*R*E*W*Q*!*~*^*/*(*)*_*`*'*]*[*{*}*Q+|* =.=X=o=CoO=rO^X^X+=)XtO[+s&Do@=R@,+K##=$=]%%=~@&=*=M$9&A#==-=;=:=>=}@,=F$t+pOi&<=J$9%1=uO2=i*[+]+~#tOCo'+3=4=5=6=7=8=9=0=q=w=e=r=t=j@A+%Os@p@6#y=u=i=p=a=a=s=d=d=d=",
"f=g=g=g=h=M*j=j=k=l=z=x=c=v=F*G*b=n=m=t+t+M=N=Z$w&B=V=C=Z=A=S=D=~*F=G=H=J=K=L=P=I=U=o*}*Y=T=R=E=W=Q=!=O=K@K@M#~=!=^=/=SoG$[X(=)=_=%=`=c$'=]=@@6+N$[=6**@{=}=|=}@ -.-l%t+Dox%B#K$X-o-L$u**+yO]+tOtOCo(Xm#^XO-+-@-#-$-%-&-*-=-e=r=H%--;-d@ROm+5#:-p=>-,-d=<-1-1-1-",
"2-2-3-4-4-5-6-7-8-l=Z*A*9-F*0-q-w-e-`XpOr-,=>=T#;=t-y-u-i-p-a-s-d-f-g-h-j-k-g#l-z-U=x-.+c-v-b-n-m-M-(XrOK@K@M#VoCo]+=+'X;+ @N-B-V-c$C-%='=Z-*=A-S-D-F-G-d%0*H-S$D$F$J-DoQ#B#iO{+K-m%i*[+yO&+L-N#d$(Xm#Vo~=^XP-I-U-Y-T-R-E-*-W-Q-!-~-^%^-/-i@t@(-u=)-d=_-`-`-'-'-",
"]-]-2-2-[-f=6-{-l=}-c=|- ;.;X;o;[+O;B#+;t+D$@;#;$;%;9+&;R**;=;-;;;:;>;,;<;1;2;h#3;4;5;'.6;3o7;8;9;Mom#rO^XrO_+P@Co*+d&0;q;w;e;r;t;Io]%3+y;u;i;&;p;a;`@G-s;g%t&y&d;t+f;H$h$So`Xn%2=g;*+yO]+tON#(X)XVoVo~=_+`+^Xh;j;k;l;z;x;c;v;W-b;n;m;O%X%*$t@M;N;B;V;V;C;C;Z;A;",
"S;D;D;F;2-G;H;J;K;L;P;I;U;Y;T;[+!#O;R;i&t+E;S$W;e+Q;~&V=!;~;^;/;(;);[&_;`;';];[;{;[*l#'.6;3o};|; :.:L@rOK@rO`+P@tOg&b%Y@X:o:O:W@<*2+kO+:&=@:#:V=bO%;$:%:&:*:=:-:;:G$}+-+U@K$g$m%::*+yO~#tON#(Xm#VoL@`+>:%+_+_+^X,:<:1:2:3:4:5:k*6:7:8:9:T&0:q:w:#*e:r:t:y:u:u:u:",
"i:p:a:s:d:G;f:J;g:h:j:k:l:z:x:_Xc:1=9%p&Dot+,=v:-@e&%;b:n:m:M:N:B:V:C:Z:A:S:D:m@F:G:H:Q+c-HXJ:K:L:P:>:rOK@/XL@I:&+/=iOU:Y:T:M$R:kO2+E:~@RoW:Q:!:~&'@~:^:/:>@(:1&+;,@h$):s&t*o-_:*+yO~#tOCo'+m#3=3=>:`:O=M#s$s$s$^X':5=]:[:{:}:|: >.>X>o>O>+>@>#>$>%>&>*>=>->;>;>",
":>:>>>F;,><>K;1>2>3>4>5>Vo'+~#f$u*K-X-J$,@pO6>7>8>9>q+0>q>w>*;e>r>d-5$t>y>u>i>p>a>4;s>d>f>4og>h>j>k>l>J@z>O=~=**p*n%h$x>w%c>v>O@b>2+3+H##@n>%@9+m>M>N>B>h%V>C>Z>i&p&v%A>b%y*/=[+yO~#tOtO(X(Xm#S>D>`:O=O=O=s$s$s$rO^XF>G>H>J>K>L>P>I>U>Y>T>J*0-R>x=E>{-f=W>Q>!>~>",
"^>:>/>(>)>_>`>'>]>[>{>M#S>)X&+}>8%c:1=|>'XDol%D$ ,f%C$.,X,o,O,&%+,'&@,#,$,%,&,*,q$4;=,-,;,Y :,>,,,a$`:^XBoO=Vo<,1,2,3,4,5,6,7,c$]%3+u%@@/@8,9,~&0,Z$#;q,=:F$w,x%e,J$9%1=L$2=i**+ZotO'+(X(XVoVoVo`:O=O=O=rOrOrOrOrOrOr,t,y,u,i,p,a,s,d,f,g,h,j,k,l,z,J&6-W>x,!>c,",
"v,b,n,m,M,`>N,B,V,^XK@K@>:C,'+~#}>i*L$`XJ$Q#+;F$7>Z,9*U*A,S,D,M:Q*F,G,H,J,K,L,*,P,I,=,U,-,R Y,T,R,E,`:rO^XM#S>W,Q,<&!,~,^,/,Lo]%kOTozO8&cOi%&@U#(,),h%y& #C>Do'XB#iO{+o-u*_,`,',],'+(XS>S>S>~=~=`:O=O=rOrOrOrOrOrOrOrO[,{,},|, <.<X<o<O<+<@<#<$<%<&<*<=<-<>>;<:<",
"><,<(>M,<<N,1<2<^XK@K@K@%+~=)XtO~#p*u*=+|>B#3<l%4<q*s;8*B=5<6<7<8<9<0<q<w<<;1;e<r<w$t<y<u<i<p<a<G@s<`:rOd<s$f<',g<c%q;h<j<k<c$Uo3+y;l<6+z<x<c<v<T#b<n<m<M<DoN<J$iOX-B<2=::8%',V<N#'+m#S>~=~=~=~=l>O=rOrOrOrOrOrO^X^X^X^XC<Z<A<S<D<F<G<H<J<K<L<P<I<U<Y<T<R<E<:<W<",
"Q<n,!<~<^</<(<^X^X^X^X^XrOl>C,d$tO]+g&y*`XJ$N<1&F$h%8>)<_<`<'<]<[<{<}<^*|< 1.1g#X1o1O1+1@1po#1$1%1!=O=^X&1`+*1=1B<i&2&-1$@]<;1:1+@Z-*=cO0&>1,1$;&: -e*<1Y@}+-+11b%g$c:u*p*]+21L-d$)XVo~=l>l>`:`:O=rOrOrOrOrO^X^X^X^X^X^X^X3141516171819101q1w1e1r1t1y1u1i1p1a1s1",
"d1f1g1h1j1^X^X^X^X^X^X^X^X`:+=)XCok1l1/=g$9%R;z1l%m<>=x1U*Woc1v1b1`&'&n1m1M1S:N1B1V1C1Z1A1D+S1D1F1S>rOK@G1L@L-_,So.#Gop%H1E:Uo<*ToJ#M$9&p%J1K1L1 ,m< #;:P1p&U@s&y*m%2=*+]+tON#d$(XVo~=`:O=O=M#M#O=rOrOrOrOrO^X^X^X^X^X^X^X^XI1U1Y1T1R1E1W1Q1!1~1^1/1(1)1_1,<a1`1",
"'1]1[1{1^X^X^X^X^X^X^X^X^XrO/XVo)XN#>&[+c:1=J$p&pO #H-I*}1V$|1 2.2X2o2-%;%O2';+2B1@2#2$2%2&2*2=2-23=K@K@;2m#&+L$:2>2,29&<2]%Io+@zO122232E@42N>W;5262<172e,B#|>=+L$i*i*p*&+'+(X(Xm#~=`:O=M#s$s$/XrOrO^X^X^X^X^X^X^X^X^X^X^X^X829202q2w2e2r2t2y2u2i2p2a2s2d2f2g2h2",
"j2a2k2^X^X^X^X^X^X^X^X^X^XrOrO_+m#I:l2yOg;!#a&c%Z>.#z28>x2U#c2v2b2n2m2M2>;N2B2V2C2Z2t<-,' A2S2D2F2G2z>K@s$)X]+o-H2J2K2L2P2I2I2U2@@M$X@Y2T2]@R2v:|@F$z%N<E2<&K$uO::*+yO&+'+'+VoS>S>`:O=O=M#M#K@^X^X^X^X^X^X^X^X^X^X^X^X^X^X^X^XW2Q2!2~2^2/2(2)2_2`2'2]2[2{2f2}2|2",
" 3.3^X^X^X^X^X^X^X^X^X^X^X^XK@s$`+VoX3o3*+m%d&O3+3@3#3t&[@$39+S,%3&3*3=3-3.&;3:3<%>3B@,3[ <3132333>:J@^X_+'+[+t*435363m$:1738393*=03q3w3=@f%>=R# #C>H$U@2,`Xg$2=p*]+tOCo'+m#Vol>`+%+s$s$K@^X^X^X^X^X^X^X^X^X^X^X^X^X^X^X^X^X^Xe3r3t3y3u3i3p3a3s3d3f3g3h3j3k3l3z3",
"x3^X^X^X^X^X^X^X^X^X^X^X^X^X^Xs$_+L@c3v3yO_,c:b3n3m3F$w*&:K1M3N3B3;1V3C35$Z3A3S3D3F3B@G39.H3J3K3L3/X7%rO`+CoP3U@I3U3Y3T3R3E3]<l<W3Q30>!3~3g%h%e*w,Z>-+^3d&o-2=g&]+tOCo(XeOS>_+s$s$s$s$s$rO^X^X^X^X^X^X^X^X^X^X^X^X^X^X^X^X^X^X/3(3)3_3`3'3]3[3{3}3|3p2 4.4X4o4O4",
"^X^X^X^X^X^X^X^X^X^X^X^X^X^XNoK@/Xs$+4@4tOyOi*=+2,p&C>6>t&T#U#9,#4$4%4&4@,*4`;f#=4-4;4+18.:4>4,4<4_+rO/XS>N#::142434xOLoE3O@44'<54Wo6474-@M=e*84Doe,E2`X=*u**+yOL-Co(Xm#C,S>_+s$s$s$rO+=+=^X^X^X^X^X^X^X^X^X^X^X^X^X^X^X^X^X^X^X9404q4w4e4r4t4y4u4i4p4a4s4d4f4g4",
"^X^X^X^X^X^X^X^X^X^X^X^X^X^XNoNo^X7%`+h4'+~#*+2=b%E2,@l%S$),M>0>W3j4&3k4l4z4c@x4c4q$v4b4n4m4M4N4B4V4s$~=C,V<C4Z4A4S4D4F4E3G4H4J4V=nOK4L4g%,=P4r*x%-+K$g$2=_,]+tON#I4U4C,~=`+_+Y4s$rOrOrOrOrO^X^X^X^X^X^X^X^X^X^X^X^X^X^X^X^X^X^X^XT4R4E4W4Q4!4~4^4/4(4)4_4`4'4]4",
"^X^X^X^X^X^X^X^X^X^X^X^X^X^X^XNo^XrOs$`+I:CoyOi*uOs&<=pO[4N=r&t-|1{4}4+,|4 5.5X5o5O5+5G3@5#5$5%5&5_+rO3=**}>*5=5-5;5:5>5hO,512q>9+*@<5B>7>e*w,15149%X-25::p*],L-d$L@L@>:l>%+s$Y47%^X^X^X^X^X^X^X^X^X^X^X^X^X^X^X^X^X^X^X^X^X^X^X^X3545556575859505q5w5e5r5t5y5u5",
"^X^X^X^X^X^X^X^X^X^X^X^X^X^X^X^X^XrOrOs$L@'+tOp*u*i5<&P1k%w*p50,p;C=a5s5d-^*d5';];f5g5o*h5j5k5l5z5_+&1`+'+_,:2x5c5v>v5b5n5@@$@c2m5M5L1 ,e*<1i&E2*5g$=*g;yO&+Co(Xm#`+`+>:BorOrO^X^X^X^X^X^X^X^X^X^X^X^X^X^X^X^X^X^X^X^X^X^X^X^X^X^XN5B5V5C5Z585A5S5D5F5G5H5J5K5L5",
"^X^X^X^X^X^X^X^X^X^X^X^X^X^X^X^X^X^XrOrO_+m#Co]+_,P5I5p&J-D$U5(,Y5T5R5E5W5Q5!5d#~5+&N@^5/53>(5)5v3&1J@`+tOu*_5`5'5T3c$3+zO/@X@]5-=[5*:|@84P1R;2,K-m%g&{5}5z5f<P@3=`+`+`+^X^X^X^X^X^X^X^X^X^X^X^X^X^X^X^X^X^X^X^X^X^X^X^X^X^X^X^X^X|5 6<$.6X6o6O6+6@6#6$6%6&6*6=6",
"^X^X^X^X^X^X^X^X^X^X^X^X^X^X^X^X^X^X^XrO/X`+m#Co-6g;K-|>,@E;M=s;`@N3;6W*:6>6/*,6<616T+2636465666!=;276h4Zo86=596/@LoooTo@@L#}X06q6w6y&<1P1e6iO!#/=P3r6o3v3)Xc3+4`+`+_+s$^X^X^X^X^X^X^X^X^X^X^X^X^X^X^X^X^X^X^X^X^X^X^X^X^X^X^X^X^X^Xt6y6u6i6p6a6s6d6f6g6h6j6k6l6",
"^X^X^X^X^X^X^X^X^X^X^X^X^X^X^X^X^X^X^XrO^X_+3=(X&+p*/=1=e6J-j%z6x6b:c6.2v6b6n6m6M6h#N6B6V6C6Z6A6c3S676X3_XD6F6E@w>3+83G6K#O:H6J6L1w*K6z%N<-+|>uO[+yO21L-d$m#S>_+s$M#s$rO^X^X^X^X^X^X^X^X^X^X^X^X^X^X^X^X^X^X^X^X^X^X^X^X^X^X^X^X^X^XL6P6I6U6Y6T6R6E6W6Q6!6~6^6/6",
"^X^X^X^X^X^X^X^X^X^X^X^X^X^X^X^X^X^X^X^X^XK@M#m#Co]+P3K-<&,@E;r+(6)6_6`6'6]6[6{6P+m@}6|6 7.7X7o73=J@76N#y*h$O78,#=+7ToJ#L#V$@7N>#7|@$73<E2%7&7g;-6*7L-d$(XVo+=M#K@K@^X^X^X^X^X^X^X^X^X^X^X^X^X^X^X^X^X^X^X^X^X^X^X^X^X^X^X^X^X^X^X^X=7-7;7:7>7,7<7E6172737475767",
"^X^X^X^X^X^X^X^X^X^X^X^X^X^X^X^X^X^X^X^XNoNoK@~=)XtOx:Aos&h$t+7>77T287 29707q7w7e7r71%t7y7u7i7p7>:&1a7s7{+d7f7S#O@3+g7h7!:j7$;|=|@k7P1J$`X&7,&_X^=z5**(Xm#~=rOK@K@^X^X^XNo^X^X^X^X^X^X^X^X^X^X^X^X^X^X^X^X^X^X^X^X^X^X^X^X^X^X^X^X^XK@l7z7x7c7v7b7n7m7M7N7B7V767",
"^X^X^X^X^X^X^X^X^X^X^X^X^X^X^X^X^X^X^X^XNoNo&1/Xl>eOz5C7Z7a&Dom<t&K1A,'<A7m2S7D7F7*,1%G7H7J7K7L7O=^X+4yOiOP7I7U7Y7T7@oq>]5x6R7}@(:Z>c%|>!#::r6x:Co(X)XVoVol>Bo^X^XNoNoNoNo^X^X^X^X^X^X^X^X^X^X^X^X^X^X^X^X^X^X^X^X^X^X^X^X^X^X^X^X^X^XE7W7Q7!7~7^7/7(7)7_7`7'7]7",
"^X^X^X^X^X^X^X^X^X^X^X^X^X^X^X^X^X^X^X^X^X^X&17%O=S>!=yOu*n%B#d;,=[7E@S,{7}7);m1B2c4|7` X.g1 8.8%+rO:&p*X8o8O8+8F4G6@8#8$8%8&8m<pOp&So!#L$p*~#tO(XC,VoVo+=BoBo^XNoNoNoNoNo^X^X^X^X^X^X^X^X^X^X^X^X^X^X^X^X^X^X^X^X^X^X^X^X^X^X^X^X^X^X*8=8-8;8:8>8,8<818_7283848",
"^X^X^X^X^X^X^X^X^X^X^X^X^X^X^X^X^X^X^X^X^X^X7%7%BoO=)X&+f$2=^3,@586878S-D,889808<;q8w8e8GOr8t8y8M#~=!=I@u8i88&p8a8s8d8f8g8q*h8<1x%iOs&L$[+~#Co!=m#`+_+/XrOrO^X^XNo^X^X^X^X^X^X^X^X^X^X^X^X^X^X^X^X^X^X^X^X^X^X^X^X^X^X^X^X^X^X^X^X^X^Xj8k8l8z8x8c8v8b8n8m8M8N8B8",
"^X^X^X^X^X^X^X^X^X^X^X^X^X^X^X^X^X^X^X^X^X^X^XrOrOrO~=)Xo3g&n%'X.#h8V8x<v2C8C3[&Z8];A8S8m D8F8G8%+l>L-H8J8K8L8P8I8/,32U*0* -W#P1R;n%f&*+&+tO(XC,Vos$7%rOrO^X^X^X^X^X^X^X^X^X^X^X^X^X^X^X^X^X^X^X^X^X^X^X^X^X^X^X^X^X^X^X^X^X^X^X^X^X^X^XU8Y8T8R8E8W8Q8!8~8^8/8(8",
"^X^X^X^X^X^X^X^X^X^X^X^X^X^X^X^X^X^X^X^X^X^X^XrO^XK@%+VoN#Zog;^3,@k7)8.@_8`8'8]8[8{8}8|8 9.9X9o9O=D>O9+9@9#9$9%9^@9&;*V8t&E;+;&9b3/=*9~#z5(Xm#l>%+K@^X^X^X^X^X^X^X^X^X^X^X^X^X^X^X^X^X^X^X^X^X^X^X^X^X^X^X^X^X^X^X^X^X^X^X^X^X^X^X^X^X^X=9-9;9:9>9,9<91929394959",
"^X^X^X^X^X^X^X^X^X^X^X^X^X^X^X^X^X^X^X^X^X^X^XrO^XK@M#M#:&<,-6y*'XC>n<Z#6944798999L,09q9<.w9e9Vo^Xr9Co'Xt9L2y9T3$@u9i9N=k%C>:2p9a9-6^=],!=s9_+`:Bo^Xd<J@^X^X^X^XrO^X^X^X^X^X^X^X^X^X^X^X^X^X^X^X^X^X^X^X^X^X^X^X^X^X^X^X^X^X^X^X^X^X^XK@d9f9g9h9j9k9l9z9x9c9v9b9",
"^X^X^X^X^X^X^X^X^X^X^X^X^X^X^X^X^X^X^X^X^X^X^X^X^X^XK@M#`+:&}5[+`X,@n9m9u9{4M9N9B9V9C9Z9A9S9D9F9G9H9J9K9L9P9I9U9Y9HoT9R984e,E9m%l1W9'+:&3=_+s$rOrO^XJ@J@d<^X^X^X^X^X^X^X^X^X^X^X^X^X^X^X^X^X^X^X^X^X^X^X^X^X^X^X^X^X^X^X^X^X^X^X^X^X^X^XQ9!9~9^9/9(9)9_9`9'9]9[9",
"^X^X^X^X^X^X^X^X^X^X^X^X^X^X^X^X^X^X^X^X^X^X^X^X^XNoNorOrO`+**x:Z7E21&{9w&_8}9|9-3 0*#.0X0o0O0+0@0#0$0%0&0*0=0-0;0:0>0l%P12,K-_,L-d$)Xm#_+&1J@d<^X^Xd<d<^X^X^X^X^X^X^X^X^X^X^X^X^X^X^X^X^X^X^X^X^X^X^X^X^X^X^X^X^X^X^X^X^X^X^X^X^X^X^X^X,0<010203040506070809000",
"^X^X^X^X^X^X^X^X^X^X^X^X^X^X^X^X^X^X^X^X^X^X^X^X^XNoNoNo&1_+3=v3f$X-}+x>q0Wow0e0r0t0y0u0i0&0&0&0&0&0&0&0&0&0&0#0u0p0a0s0i*Z7g;x:Co)XS>`+_+d0J@^X^X^X^X^X^X^X^X^X^X^X^X^X^X^X^X^X^X^X^X^X^X^X^X^X^X^X^X^X^X^X^X^X^X^X^X^X^X^X^X^X^X^X^X^Xf0g0h030j0k0l0z0x0c0v0b0",
"^X^X^X^X^X^X^X^X^X^X^X^X^X^X^X^X^X^X^X^X^X^X^X^X^X^XNo^X^XrO_+h4W,=*):$7n0m0M0N0B0i0&0&0&0&0&0&0&0&0&0&0&0&0&0&0&0&0V0C0Z0A0]+tO(X`+`:7%rO^X^X^X^X^X^X^X^X^X^X^X^X^X^X^X^X^X^X^X^X^X^X^X^X^X^X^X^X^X^X^X^X^X^X^X^X^X^X^X^X^X^X^X^X^X^X^XS0D0F0G0H0J0K0L0P0I0U0Y0",
"^X^X^X^X^X^X^X^X^X^X^X^X^X^X^X^X^X^X^X^X^X^X^X^X^X^X^X^X^X^X7%+4I4f$g$Q#T0R0E0&0&0&0&0&0&0&0&0&0&0&0&0&0&0&0&0&0&0&0&0u0W0Q0!0)XL@_+^X^X^X^X^X^X^X^X^X^X^X^X^X^X^X^X^X^X^X^X^X^X^X^X^X^X^X^X^X^X^X^X^X^X^X^X^X^X^X^X^X^X^X^X^X^X^X^X^X^X~0^0/0(0)0_0`0'0]0[0{0}0",
"^X^X^X^X^X^X^X^X^X^X^X^X^X^X^X^X^X^X^X^X^X^X^X^X^X^X^X^X^X^XrOs$U4&+g&|0 q&0&0&0&0&0&0&0&0&0&0&0&0&0&0&0&0&0&0&0&0&0&0&0&0.qXq^X_+^X^X^X^X^X^X^X^X^X^X^X^X^X^X^X^X^X^X^X^X^X^X^X^X^X^X^X^X^X^X^X^X^X^X^X^X^X^X^X^X^X^X^X^X^X^X^X^X^X^X^XoqOq+q@q#q$q%q&q*q=q-q;q",
"^X^X^X^X^X^X^X^X^X^X^X^X^X^X^X^X^X^X^X^X^X^X^X^X^X^X^X^X^X^XrOs$+=:q>q,q&0&0&0&0&0&0&0&0&0&0&0&0&0&0&0&0&0&0&0&0&0&0&0&0&0&0<q1q^XNoNoNo^X^X^X^X^X^X^X^X^X^X^X^X^X^X^X^X^X^X^X^X^X^X^X^X^X^X^X^X^X^X^X^X^X^X^X^X^X^X^X^X^X^X^X^X^X^X^X^X2q3q4q_05q6q7q8q9q0qqqwq",
"^X^X^X^X^X^X^X^X^X^X^X^X^X^X^X^X^X^X^X^X^X^X^X^X^X^X^X^X^X^XrO/Xeqrq#0&0&0&0&0&0&0&0&0&0&0&0&0&0&0&0&0&0&0&0&0&0&0&0&0&0&0&0tqyqK@NoNoNo^X^X^X^X^X^X^X^X^X^X^X^X^X^X^X^X^X^X^X^X^X^X^X^X^X^X^X^X^X^X^X^X^X^X^X^X^X^X^X^X^X^X^X^X^X^X^X^X*8uqiqpqaqsqdqfqgqhqjqkq",
"^X^X^X^X^X^X^X^X^X^X^X^X^X^X^X^X^X^X^X^X^X^X^X^X^X^X^X^X^X^X^Xlqzq&0&0&0&0&0&0&0&0&0&0&0&0&0&0&0&0&0&0&0&0&0&0&0&0&0&0&0&0&0&0xqcq^XNoNo^X^X^X^X^X^X^X^X^X^X^X^X^X^X^X^X^X^X^X^X^X^X^X^X^X^X^X^X^X^X^X^X^X^X^X^X^X^X^X^X^X^X^X^X^X^X^X^XvqbqnqmqMqNqBqVqCqZqAqSq",
"^X^X^X^X^X^X^X^X^X^X^X^X^X^X^X^X^X^X^X^X^X^X^X^X^X^X^X^X^X^XDqzq&0&0&0&0&0&0&0&0&0&0&0&0FqGqHqJqKqLqPqC0Iq&0&0&0&0&0&0&0&0&0&0#0UqYqNoNo^X^X^X^X^X^X^X^X^X^X^X^X^X^X^X^X^X^X^X^X^X^X^X^X^X^X^X^X^X^X^X^X^X^X^X^X^X^X^X^X^X^X^X^X^X^X^X^XTqRqEqMqWqQq!q~q^q/q(q)q",
"^X^X^X^X^X^X^X^X^X^X^X^X^X^X^X^X^X^X^X^X^X^X^X^X^X^X^X^X^X_qrq&0&0&0&0&0&0&0&0&0&0`q'q]q[q{q}q|q w.wXwowOw#0&0&0&0&0&0&0&0&0&0&0+w@w^XNoNo^X^X^X^X^X^X^X^X^X^X^X^X^X^X^X^X^X^X^X^X^X^X^X^X^X^X^X^X^X^X^X^X^X^X^X^X^X^X^X^X^X^X^X^X^X^XK@#w$w%w&w*w=w-w;w:w>w,w<w",
"No^X^X^X^X^X^X^X^X^X^X^X^X^X^X^X^X^X^X^X^X^X^X^X^X^X^X^XK@1w&0&0&0&0&0&0&0&0&0&02w3w4w5w2O6w7w8w9w0wqwwwewrw#0&0&0&0&0&0&0&0&0&0twyw^XNoNo^X^X^X^X^X^X^X^X^X^X^X^X^X^X^X^X^X^X^X^X^X^X^X^X^X^X^X^X^X^X^X^X^X^X^X^X^X^X^X^X^X^X^X^X^X^X^Xuw&wiwpwawswdwfwgwhwjwkw",
"No^X^X^X^X^X^X^X^X^X^X^X^X^X^X^X^X^X^X^X^X^X^X^X^X^X^X^Xlwzw&0&0&0&0&0&0&0&0xwcw4wvw1Xbw1Xnw7w0wmwMwNwu6BwVwCw&0&0&0&0&0&0&0&0&0ZwAw^X^XrO^X^X^X^X^X^X^X^X^X^X^X^X^X^X^X^X^X^X^X^X^X^X^X^X^X^X^X^X^X^X^X^X^X^X^X^X^X^X^X^X^X^X^X^X^X^X|5SwDw*wFwGwHw;wJwKwLwPwIw",
"No^X^X^X^X^X^X^XrOrOrOrO^X^X^X^X^X^X^X^X^X^X^X^X^X^XrOj8$0Uw&0&0&0&0&0&0&0IqYwTw^oRw1X1X1X7wEwWwQwu6!w~w^w/w(wC0&0&0&0&0&0&0&0&0&0)w^XrOrO^X^X^X^X^X^X^X^X^X^X^X^X^X^X^X^X^X^X^X^X^X^X^X^X^X^X^X^X^X^X^X^X^X^X^X^X^X^X^X^X^X^X^X^X^X^X{>_wFw`w=w'w]w[w{w}w|w e.e",
"NoNo^X^X^X^XrOrOrOrOrOrO^X^X^X^X^X^X^X^X^X^X^X^XrOrO^XXeC0&0&0&0&0&0&0&0&0oeOe+e@e#e$e#e0w0w%e&e*e=e-e;e:e>e,e<e&0&0&0&0&0&0&0&0+01e^X^X^X^X^X^X^X^X^X^X^X^X^X^X^X^X^X^X^X^X^X^X^X^X^X^X^X^X^X^X^X^X^X^X^X^X^X^X^X^X^X^X^X^X^X^X^X^X^X2e3e`w4e5e6e7e8e9e0eqeweee",
"rO^X^X^X^X^XrOrOrOrOrOrO^X^X^X^X^X^X^XNoNo^X^X^XrOrOrete&0&0&0&0&0&0&0&0yeue@eiepepeie7wWwaesedefegehejekelezexeIq&0&0&0&0&0&0&0ceve^X^X^X^X^X^X^X^X^X^X^X^X^X^X^X^X^X^X^X^X^X^X^X^X^X^X^X^X^X^X^X^X^X^X^X^X^X^X^X^X^X^X^X^X^X^X^X^X^XbenemeMe'wNeBeVeCeZeAeSeDe",
"rOrOO=rOrOrOrOrOrOrOrOrO^X^X^X^X^XNoNoNoNo^X^X^X^X^XFeGe&0&0&0&0&0&0&0HeJeie@e@eKepe7wEw&eLePeIejeUeYeTeReReEeWe&0&0&0&0&0&0&0&0C0Qe^X^X^X^X^X^X^X^X^X^X^X^X^X^X^X^X^X^X^X^X^X^X^X^X^X^X^X^X^X^X^X^X^X^X^X^X^X^X^X^X^X^X^X^X^X^X^X^X^X!e4eMe~e^e/e(e{w)e_e`e'e]e",
"~=~=O=`:l>+=~=s$Y4s$s$BoK@7%rO^X^XBoNo^X^X^X^X^X^X2e[e&0&0&0&0&0&0&0&0{e}e|e r r r|e.rXrorOr+r@r#r$r%r&r*r&r=r-r&0&0&0&0&0&0&0&0;r:r^X^X^X^X^X^X^X^X^X^X^X^X^X^X^X^X^X^X^X^X^X^X^X^X^X^X^X^X^X^X^X^X^X^X^X^X^X^X^X^X^X^X^X^X^X^X^X^X^X.3MeMe>r,r<r(e1r2r3r4r5r6r",
"VoVoVo~=~=VoVo7r7r_++=`:M#_+s$/XO=rOrO/X/XBo^X^X^X8r9r&0&0&0&0&0&0&0&00r|eqr rwrerrrtrP6Oryrurir&rprarsrdrfrgrhr&0&0IqIqIqIqIqIqjrkr^X^X^X^X^X^X^X^X^X^X^X^X^X^X^X^X^X^X^X^X^X^X^X^X^X^X^X^X^X^X^X^X^X^X^X^X^X^X^X^X^X^X^X^X^X^X^X^X/3lr~e~ezrxrcrvrbrnrmrMrNrBr",
")X)X)Xm#m#m#m#m#m#S>VoS>Vo~=Vol>l>VoVoVoS>`:O=O=M#Vr&0&0&0&0&0&0&0&0CrZr|eqrArSrDr#%FrGr+rHrJrKrLrPrIrUrUrYrTrRrIqIqIqIqIqIqIqC0Er^X^X^X^X^X^X^X^X^X^X^X^X^X^X^X^X^X^X^X^X^X^X^X^X^X^X^X^X^X^X^X^X^X^X^X^X^X^X^X^X^X^X^X^X^X^X^X^X^XWrQr!rzrxr<r~r{w^r/r(r)r_r`r",
"'+'+(Xm#m#P@)X(XI:(X)XI:(XI:(X)X)X(X(X(X(X)Xm#c3s9'r#0&0&0&0&0&0&0&0]r|e[r r|e{r.rXr}r|r@r t.tXtotOt+t@t#t$t%tIqIq&t&t&t&t&t&t,q*t^X^X^X^X^X^X^X^X^X^X^X^X^X^X^XrOrO^X^X^X^X^X^X^X^X^X^X^X^X^X^X^X^X^X^X^X^X^X^X^X^X^X^X^X^X^X^X^X^X=t4ezr>r-t;t(e:t>t,t<t1t2t3t",
"CotOCoI:d$N#N#L-N#4tL-L-L-N#Co'+CotO&+&+Co'+'+'+5t#0&0&0&0&0&0&0IqIq6t7t8t|e|e7t9t0tx7qtwtetrtttytutitptatstdtxwxwxwxwxwxwxwxwi0K@^X^X^X^X^X^X^X^X^X^X^XrO^X^X^XrOrO^X^X^X^X^X^X^X^X^X^X^X^X^X^X^X^X^X^X^X^X^X^X^X^X^X^X^X^X^X^X^X^Xft~ezr,rgt<rht:tjtktltztxtct",
"&+&+&+L-],s7]+]+V<',vt~#]+]+~#~#~#&+~#]+]+~#&+~#btntIqIqIqIqIqIqIqIqmtrrMtMt7t.rXrNtBtVtCtZtTrAtStDtFtGtHtJtKtKtKtKtLtLtLtLtLtPt^X^X^X^X^X^X^X^X^X^XrOrOrO^X^X^X^X^X^X^X^X^X^X^X^X^X^X^X^X^X^X^X^X^X^X^X^X^X^X^X^X^X^X^X^X^X^X^X^XItUtYt~ezrTtRtvrEtWt3r4rNrBrQt",
"]+]+]+yOyOyOyOyOyOp**+p*p*p*p*yOp*r6{5l1f$p*p*yO!t~tIqIqIqIqIqIqIq&t^t/trrrr.r9t(tGr)tHr_t`tTr't]t[t{t{t}t|tLtLt y y y y y y.yXy^X^X^X^X^XrO7%&1^X^XrOrOrO^X^X^X^X^X^X^X^XNoNoNo^X^X^X^X^X^X^X^X^X^X^X^X^X^X^X^X^X^X^X^X^X^X^X^X^XoyOy'wzr+y@y#yVe$y%y&y*y_r=y-y",
"*+*+*+*+p**+*+*+[+[+[+[+p*p*[+*+*+p*r6p*p**+[+p*;y:yIqIq&t&t&txwxwxwxw>y,y<y9t1y0t2y3y4y5y6y7y8y9y0yqywyeyryryryry.y.y.y.ytyyy^XM#^XrOrOrOrO&1&1^X^X^XrOrO^X^X^X^X^XNoNoNoNoNoNo^X^X^X^X^X^X^X^X^X^X^X^X^X^X^X^X^X^X^X^X^X^X^X^Xuyiy4epyYtay<rsydyfygyhyjy2tkyly",
"[+[+i*i*i*[+[+[+[+[+[+[+p*r6*9[+[+p*p**+[+*+p*p*zyxyIqxwxwxwxwxwKtKtKtO0cyvyvybynymyMyNyByVyCyZyAySyDyFy.yGyGyGyGyHyHyHy.yJyrOC,VoVo`+/X+=s$rOrOrOrO)+^X^XrOrOrO^X^XNoNoNo^X^X^X^X^X^X^X^X^X^X^X^X^X^X^X^X^X^X^X^X^X^X^X^X^X^X^X^XlrKyYt>r+y/esydyLyPy<tIyUyYyTy",
"i*i*i*i*i*[+[+[+[+_,[+*+p*r6r6[+[+yO]+yOyOyO~#&+VoRy&0KtKtKtLtLtLtLt y yEyWyQy!yny~y^y/y(y)y_y`y'y]y[y[y[y[y[y{y{y{yFy}y|y u&+}5CoI::&VoVoL@+=_+s$s$M#7%^XrO/X/XrOrO^X^X^X^X^X^X^X^X^X^X^X^X^X^X^XrOrOrOrO^X^XNo^X^X^X^X^X^X^X^X.uXuouOu>r^e+u@u:t#ukt$u%u&u*uTy",
"[+i*i*[+[+8%8%8%f$f$p*yO{5yO{5yOyO]+~#tOtOtOtOCo^X=u-uLtLt y y y yryry.y.y;u:u>u,u<u1u2u3u4u5u6u7uFyFyFyFyFy8u8u9u9u0uquwu*+P3l1Zo~#L-****N#)XL@~=`+eu_+_+_+~=~=/X+=rOrO^X^XrOrOrO^X^X^X^XrO^X^X^XrOrOrOrO^X^XNo^X^X^X^X^XrO^X^XruoutuouYt+y<rvr:tnryuuuiupuauTy",
"*+_,8%f$[+f$f$yOyO]+]+]+~#&+tO&+tOCoCo'+'+(X)X)X/Xsu[y y yryry.y.y.yGyGyHy[y[ydufuguhujukuluzu9u9u9u9uxuxuxucucucucuvubu1=2,t*f&m%_,-6]+x:^=Co**(XI:I:nuL@L@Vo~=~=+=+=+=7%s$/X/X/X^XrO7%s$rO^X^X^X^XrOrOrO^X^XNoNo^XrOrOrOrO^Xj8muMuNuouYtxrBuVe$yVuCujyZuAulySu",
"yOyO]+yOyOyO]+]+]+~#~#&+tOCo'+Co'+(X(X)X)XVo`+`+`+DuFu:y.y.yGyHyHy[y[y{y{yFyFyFy8u9u9u9uxuxucucucuGuGuHuHuJuJuKuKuLuPu+;m3Iu<=11K$K-m%g&[+_,f$x:^=&+L-'+I:I:I:(X)XVo~=_+_+`+`++=+=+=+=+=/XrOrO^Xd<rOrOrOrO^X^XNorOrOrOrOrOrO^XUuYuTuNuouRuxrRtdy^r,tEuIyWuQu!u~u",
"&+~#vtvtvts7&+&+tOCo'+'+(X(X(X!=)Xm#m#Vo~=_+s$s$7%^X^u/u(u[y[y{yFyFyFy8u9u9u9uxucucucuGuHuJuJuKu)u)u_u_u`u`u'u'u]u[uD${uk7w,P1z1'XSoX-b3g$y*2=g&P3*+p*]+],L-4t}u}u)X)X)XP@m#Vo+=+=+=/X/X+=s$s$s$s$s$O=rOrOrO^X^XrOrOrOrOrOrO[,|u i i.iouXioisyOi>t+i@i#i$i%iTy&i",
"],L-L-L-L-L-CoCoCo'+'+!=!=!=eOC,~=~=~=_+_+M#K@^X^X^XK@*i=iFyFy8u9u9uxucucucuGuHuJuKu)u)u_u`u'u'u'u-i-i;i;i;i:i>i,i<i1i2i3ij$t+1&r*e6B#U@9%t*g$Z7L$/=C7_Xf$Zo],L-L-N#Co'+(X)Xm#P@Vol>`:+=`:/Xs$s$s$O=O=Bo/X/XBoBoO=7%7%rOrO^X4i5i i iNuou^e<r6i7i8i9i0iqi=ywieiri",
"L-L-N#N#N#'+'+'+!=eOeOC,S>~=~=+=_+_+s$s$s$7%^X^X^X^X^X2etiKtxucucuGuHuJuKuKu)u_u`u'u'u-i;i;iyiyiuiuiiiiipiaisidifigihiU3F6jikiW#1&r*x%p&<=|>K$`X!#g$Z7L$i*li-6=1}>]+W9tOCo'+(XI:)XeOziS>S>~=~=+=~=+=/X/X/X+=O=O=/Xs$7%7%7%xicivibiniNumiMiNidyBiViCiZi]eAiSi~uDi",
"!='+'+'+(X(XeOC,C,VoVo+=_+_+s$s$s$7%7%d<^X^XrOrOrOO=O=rOFiGiHiJuKu)u_u`u'u'u-i;i;iyiuiuiiiJiKiLiLiPiIiUiYiTiRiEiWiQi!i~i^i/i(ikiU:1&DoP1p&<=):):|>`Xg$g$m%/=[+_Xr6-6Zos7W9tO}5CoCo'+!=!=eOm#S>L@VoVo~=~=`:+=+=+=+=s$7%7%rO)i_w_i i`i'i]ixr[i{i}i|i p.pXpopOp+p@p",
"(X(X)Xm#m#VoVo~=`+_+s$s$s$7%7%7%^X^X^X^X^X^XrOrOO=`:l>'+'+#p$p%p&p'u-i;i;iuiuiiiJiKiLiPiIi*p*pYi=p=p-p;p:p>p,p<p1pWi2p3p4p5p6px57p8p1&G$+;Q#x%<=J$9%K$1=d&2=m%g;g&g&l1-6-6x:Zo],tOtOz5'+(X)Xf<:&m#m#m#m#S>~=~=~=~=~=%+O=9p0pqp_i iNu]i^e+uwpeprp9itpypupipppapsp",
")XVoVo~=l>`:M#s$s$s$s$s$^X^X^X^X^X^X^Xd<d<J@7%O=`:VoCo8%o-):dpfpgphpjpkpJiKiPiIi*p*p=p=plpzpxpcpvpbpnpmpMpNpBpVpCpZpApSpDpFpGpHpJpKpd7f;+;G$,@e6<=E2):X-s&b3Z7c:m%AoP3g&p*p*-6x:~#~#~#tOtOCo'+'+'+'+(Xm#m#m#m#VoVoVo`++=LpPpIpbi`iouUpxrYp{iTpRpEpWpQp*uSi~u!p~p",
"Vol>O=O=O=O=M#s$s$s$s$s$7%^X^X^Xd<J@J@&1&1&1M#^pc3L-_,%7/p(p)psO_p`p'pKiYi]p[pui{p*p}p|p a.aXaoaOa+aZ&{$@a#a$a%a&a*a=a-a;a:a>a,a<a1a2a3aZ4Y@3<Q#<=<&<&112,s&1=1=Z7=*m%i*[+[+p*p*p*p*}>vt],],k1d$'+'+(X(X(X)X)X)Xm#P@P@4a5a_i6a`ituYt^e7a8a9a0aqawaypearataapyaua",
"~=~=M#M#s$s$s$s$s$/XrOrO7%J@J@J@J@J@J@&1s$eus9(Xvtu*t*h$ia7ppaaasadafagahajakalazaxacavabanamaMaNaBab*VaCaS;ZaAaSaDaFaGaHaJaKaLaPaIaUaYaTaZ4Z>z1e,R;RaE2):9%K$`Xd&o-Z7L$/=[+[+[+[+*+f$]+vts7],L-L-tOtO'+'+'+(X)X)Xm#rOEaWa`i'ituKyXiQasy{i}iRp$u!aQp*u!u~uDiua~a",
"O=O=s$s$s$s$rOrO7%&1&1J@J@d<d<^X^XrOrO%+>::&N#}>2=O;,@M<^a/a(a)a_a`a'a]as:[a{aL3)Xu*43}a|a s.sXsosOs+s@sH;#s$s%s&s*s=s-s;s:s>s,s<s1s2s3s4s5s6s7sz1e,<=<&J$So9%O;K$1=Z7=+c:2=C7C7[+*+p*f$}>}>vt~#~#&+tO}5N#Co(X(XI:f<8s9s.iouKyKyUp-tBu0sqswsesrstsupysusapispsas",
"O=O=rOrOrOrOrOd<&1&1)+NoNo^X^XrOrOrOM#S>!=&+p*c:ssx%;:ds~,fsgshsjskslsx,zsxscs**s7d&vsbsnsmsMsNsBsVsCsZsAs,<SsDsFsGsHsJsKsLsPsIsUsYsTsRsEsWsQs!s~s0;e,<=J$E2|>K$K$X-b3g$uOL$/=/=i*i*[+_,*+p*}>}>s7&+&+*7N#N#*1v3X3c3^s/sYt(sRuXiMi)s_sEt`s's]s[s{s}sOp|s d.dXdod",
"O=rOrOrO^X^XNoNo^XBoNoNo^X^XrOrO+=_+L@(X~#[+=+9%Odw,+d@d#d$d%d&d*d=d-db,;d:d>dX3vtb3,d<d1d2d3d4d5d6d7d8d9d0dqdwdedrdtdydudidpdadsdddfdgdhdjdkdldzdxdcdvdE2E2a&O;O;2,1=g$c:Z7c:L$/=/=[+_,_X8%p*}>}>~#s7o3W9L-tOCo'+bdndmdayUpMdNdBdVdOiCdZdEu1tAdSdDdFdGdHdJdodKd",
"rOrOrONoNoNoNoNorOrO^XrOrOrOrO_+`+P@X3&+8%=+iOe6LdPdF6IdUdYdTdRdEdWdQd!d~d^d*1f<}>2,Qs<s/d(d)d_d`d'd]d[d{d}do4|d f.fXfofOf+f@f#f$f%f&f*f=f-f;f:f>f,f<f1f2f3f11O;2,K$b3b%!#g$Z7uO/=u*[+P3g&*9_XyO}>]+s7x:s7&+],tO*14f5f6fMd7f@yNi8fOi9f0fqfjytswfysefrf dtfXdyfuf",
"^X^X^XNo^X^X^XrO7%&1rOrO/X/X+=Vo(XCoW9_,ifa&Q#Z4pfafsfdfffgfhfjfkflfSszfxfcf:&I:8%^3vfbfnfmfMfNfBfVfCfZfAfSfDfFfGfHfJfKfLfPfIfUfYfTfRfEfWfQf!f~f^f/f(f)f_f`fa&a&11K$s&b%d&Z7c:c:2=u*::::g;*9_Xp*}>}>x:x:]+^=s7Co'f]f@yQaQa[f#y8f{f}f|f g.gXgogOg+g@g#g$g%g&g*g=g",
"^X^X^XrOrOrOrOrO&1&1rOrO+=+=m#'+&+l1g;i5-g15f;8px5;g:g>g,g<g1g2g3g4g5g6g7gs<C,N#::8g9g0gqgwgegrgtgygugigpgagsgdgfggghgjgkglgzgxgcgvgbgngmgMgNgBgVgCgZgAgSg`fDgFg1111s&b%d&g$Z7=*=*2=u*i*::_,8%8%p*r6{5{5]+x:~#GgHg7XBdBdJgKgLgPgIgUgYg.gTgRgSdEgWgQg!g~g&g^g/g(g",
"^X^X^XrOrO7%7%&1&1J@M#O=m#eOz5s78%c:b3ss+3G$)gx5_g:g`g'g]g[g*sed{g}g|g h.heOVoL-::8gXhohOh+h@h#h$h%h%h&h*h=h-h;h:h>h,h<h1h2h3h4h5h6h7h8h9h0hqhwhehrhthyhuhihphah8g2,t*b3g$Z7Z7c:L$L$/=/=i*i*i*[+*+p*p*yOyOyOshdhfh8fghhhjhkhlhzhUgxhchvhbhnhmhMhNhBhVhChZhAhShDh",
"^XNoNoNoJ@J@)+7%^XK@M#l>!=**-6g;=+K$J$x%C>FhJ853GhHhJhKhLhPhIhUhYhThRhEhwOC,Vo],::8gWhQh!h~h^h/h(h)h_h`h'h]h[h{h}h|h,h j.jXjojOj+j@j#j$j%j&j*j=j{a-j;j:j>j,j<j1jah8gt*t*n%g$Z7c:uOuO/=/=/=i*i*[+[+*+*+p*yO~#'f2j3j3j3j3j4j5j6j7jxh8j9j0jqjwjejrjtjyjChZhujShij(g",
"NoNoNoNo)+NoNorO/X%+~=X3*7yOg;Z7X-<&}+z%pjaj6psjdjfjgjhjjjkjljzjxjcjvjbj6%Vom#s7m%D6njmjMjNjBjVjCj'hZjAjSjDjFjGjHjJjKjLjPjIjUjYjTjRjEjWjQj!j~j^j/j(j)j_j`j'j]j[j{j{j}j}jt*o-Z7Z7uOL$L$/=/=i*i*[+[+*+*+p*]+|j khh4j4j4j.kXkokOkxh+k@k#k$k%k&k*k=k-k;k:kZh>k,k<k<k",
"No^X^X^XNoNo7%`+L@:&'+s7`,L$=+1kv%p&Y@W#>22k3k4k5k6k7kJs8k9k0kqkwkekrktkeOL@f<vtf&ahykukikpkakskdkfkgkhkjkkklkzkxkckvkbknkmkMkNkBkVkCkZkAkSkDkFkGkHkJkKkLkPkIkUkYkTkTkRk}jn%o-=+uOf&L$L$/=/=i*i*[+*+*+p*EkWkQk!k.k~kXk^k/kOk(k)k_k#k`k'k]k*k[k{k}k:k|k l.l,kXlol",
"^X^X^X^XrO+=`+:&d$L-',l1m%!#2,c%x%z%W#Ol24+l@l#l$l%l&l*l=l-l;l:l>l,l<l1l>:a7I:}>L$Fg2l3l4l5l6l7l8l9l0ljkqllkwlelrltlylulilplalsldlflglhljlklllzlxlclvlblblnlPkIkYkmlMlRkNlBlVlVlo-f&L$L$/=u*i*i*[+[+[+f$ClZlXkXkAlSlDlFlGlHlJl_kKlLlPlIlUlYlTlRlEl|k l.lWlXlXlol",
"^XrOrOrOs$m#(XCo~#',8%I@!#|>:2Z>z%]XQl24!l~l^l/l(l)l_l`l'l]l[l{l}l|l z@4%+3=d$yOuO.z:jXzozOz+z@z#z$z%z%z&z*z=z-z;z:z>z,z<zmk1z2z3z4z5z6z7z8z9z0zqzwzezrztzyznlIkuzYkizMlpzazNlVlszf&f&f&2=2=u*::i*i*yOdzfzgzhz5jjzkzlzzz(kxzczKlvzbznzmzMzNzRlBzVzCz.lXl.:ZzAzZz",
"rOrO_+_+a7'+tO}>f$_,c:t*):J$}+z%1&Szx5DzFzGzHzJzKzLzPzIzUzYzTzRzEzWz*yL@Y4VoCop*L$Qz`j/j!z~z^z/z(z)z_z`z'z]z[z{z}z|z x.xXxoxOx+x+x+x+x+x+x+x+x+x+x+x@x#x$xbl%xnl&xuz*x=x-x;x;x:x:x:x:x>x>x,x<x1x2x3x4x5x6xgzgzzh7xlzzz(kxz8x9x0xbznzqxwxexrxBztx lyxuxWl.:ZzAzAz",
"+=`+Vom#:&tO]+f$::ix%7E2c%OdY@W#Fo(ipxaxsxdxfxgxhxjxkxhglxzxxxcx+x+xvxL@s$m#Cop*uObxnxmxMxNxBxVxCx+x+xZxAxSxDxFxGxHxJxKx+x+x+x+x+x+x+x+x+x+x+x+x+x+x+x+x+xLxPx%xIx&xUx+x+x+x+x+x+x+x+x+x+x+x+x+x+x+xYxTxRxExzhWxlzzzQx!x~x9x^x/x(x]k)x_x+x+x`x'xCz]xWl.:[x[x[x{x",
"+=Vo)XCo&+]+g&g;K-t*U@Odm31&U:}x|xpx c4k#l.cXcocOc+c@c#c$c:h%c&c+x+x*c+=+=)XtO*+=+.zLk=c-c;c:c>c,c<c+x1c2c3c4c5c6c7c8c+x+x+x+x+x9c0cqcwcecrctcycuc+x+x+x+x+xicpcyzacsc+x+x+x+x+x+x+x+x+x+x+x+x+x+x+x+x+x+xdcfclzGlgchcjckclczcxcccvcbcnc+xmcMcNcuxBcVcVc1l[x{x{x",
"Vo)XN#s78%_,I@=+{+-+e6CcZcW#}xJ2/iAcScDcFcGcHcJcKcLcPcIcUcYcTcRc+x+xEc/X~=)X&+*+=+TknxWc-cQc!c~c^c+x+x/c(c)cDx_c`c+x+x+x+x'c]c[cVx{c}c|c v.vXvF8ovOv+vic+x+x+x+x@v#v$v+x+x%v&v*v=v=v-v;v;v:v>v,v<v1v+x+x+x+x2v3v4v5vJl_k6v7vPl8v9v0vNzqv+x+xCzuxBcwvVc[x[x[xev{x",
"'+&+vt8%2=Z7n%O;-+x%+;@3W#rvtvyv+laxuvivPspvavsvdv<hfvgvhvjvkvlvzvxvcv/X~=!=&+[+y*TkvvbvnvovmvMvNvBvVvCv2cZvAv[zSv+x+x+xDvFvGvHvJv{c~cMvKv vLvPvF8IvUvYvTv+x+x+xRvEvWv+x+xQv!v~v^v/v/v(v)v)v_v`v'v]v[v{v+x+x+x}vHl|v bKl0xbznz9v.bNzXbtuobObuxBc+bVc1l@b@bevevev",
"k1]+::2=b3t*a&R;Odr*.#j$Fo(i6p3k#bGz$b%b&b*b=b-b;b:b>b,b>l<b1b2bWleO+=_+Vo'+^=8%y*{j3bbvnvIv4b5b6b7b8bDx2c9b0bqb+x+x+xDvwbebrbtbybVxubibpbabsb4bdbfbIvgbhbjb+x+x+xkblb+x+xzb&xxb~vizcbcbaz)vvbbbnbmbmbMbNb+x+x+xBb8xVbCbZb(xAbSbDbFbGb`x'xNcBc+bHbwv@b@bevevevev",
"l1i*L$!#O;U@14Iu@3JbK6KbLbPbIbUbYbYbTbRbEbWbQbWb!b~b^b/b(b)b_b`b'b]b[b{b}b|b n.n.nXnonOn+n@n#n$n%n5z&n*n=n3c0b-n+x+x;n:n>n,n<nGvyb1n2n+x+x+x3n5bmv4nfbovgbhb5n6n7n8n9n+x+xzbIx&xxb!v~vizcb0nqnwnenrnmbtn9fyn+x+xunin6vpnan8vsnDbFbGbdnfngnhnHbHbwv&5jnjnknknevev",
"Aoy*!#^3J$N<lnZc$7U:zn+x+x+x+x+x+x+x+x+x+x+x+x+x+x+x+x+xOxxncnvn+x+xbnnn+x+x+x+x+x+x+x+x+x+xmnMnNn+x+xBnVn3cCn+x+x+xZnAnSnDnFnGnHnJnKnLnPnInUnYn|c4bF8TnRngbhbEnWnclQn+x+xzbyzIxPkuz!v!n~n^n/n(n(nmb)nEx_n`n+x+x+x6v'n]n[n{n}nNz|ndnMc m+x+xwvwv1ljnjnknknknknev",
"g$`X^3.me,Z>Xmt+u&3iom+x+xOm+m@m#m$m%m+x+x&m*m=m-m;m+x+x+x:m>m,m+x+x<m1m+x+x2m3m4m5m6m+x+x+x7mMn%n8m+x9m0mqmwm+x+x+xemrmtmymumimpmamsmdm{c>c}c+xfmgmhmjmkmRngbhblmzmxm+x+xcmvmyz%xPkMlbmnmmmMmNmenmbBmVmGlCm+x+x+xZmAmSmDmFmGmHmJmKm'xLm+xPmwv1ljnjnknknknknknkn",
"9%J$h$H$P11&;:+d@=P7Im+x-nUm^lYmfxTmRm+x+xEmWmQm!m~m^m+x+x+n/m(m+x+x<m1m+x+x)m/=Vlml_m`m'm+x9c]m[m{m+x}mqm|m M+x+x+x.MXMoMOM+M@Meb#M7z$M%M&M*M=M|c-Mgm;M:MkmRngb>M,M<M+x+xcm1Mvm%x2M3M4M5M6MMmMm7M8MVmGl(k9M+x+x+x7v0MSmDmDmDmDmqMwMNcLm+xPmwv&5jnjnknknknknknkn",
"R;p&i&pOt+pjy&{ueMrMtM+xyMuMiMpMaMsMdM+x+xfMQmgMhMjMkMlM+xzMMoxM+x+x<mcM+x+xvMI@)viznlbMnM+xmMMMNM{m+xBM|m2c(cVM+x+xCMZMAMSMDMFMGMHMJM@x+x'mKMLM}cPM-Mgm;M:MIMUMYMTMRM+x+xcmrz1MEMWMQM!M~M/nMm(n8M7x_ngc!x^M+x+x/M(M)M_MDm`M'M]M[MNc{MLm+xPm&5jnjnknknknknknknkn",
"e6P1w,t+U:h8R#}M|M N.N+xXNiMoNONsM+N@N+x+x#N$NVj%N&N*N=N+x-N(+xM+x+x;N:N+x+x>NI@,Nizac<N1N+x2N3N4N{m+x5N)c|m6N7N+x+x+x8N9NSMAn0NwbqNwNeNrNVxVxtNLMyNPM:cuNiN+x+x+xrcpN+x+xcmvlaNsNdN~M~M~MfNgNhNWxjN4vkNlNam+x+xzN&kxNcNvNbNdnMcNcuxBcLm+xPmjnjnknknknknknknknkn",
"P184K6e*h8nN*:mNMNNN.N+xBNVNCNZNANSNDN+x+xFNGNHNJNKNmkLN+xPN}5IN+x+x;N:N+x+xUNI@)vYknlbMYn+x2NYNTN{m+xRN)c|m|m)cEN+x+x+xWNQNAn0N>n!N~NwN^N/NJvtN(N~cyN)N_N+x+x+x`N'N]N+x+x[N{N}N|N B.B BfNXBoBzhOB4vkN+B@B+x+x+x#B$B0vNzbN%BtxNcNcBcwvLm+xPmjnknknknknknknknknkn",
"84d;&B=:h%*B=Bw%-B;B.N+x:B>B,B<B+f1B2B+x+x3B4B5B6B7Bsl8B+x9B'+0B+x+xqBwB+x+xeBrBtBUknlbMYn+x2NLvyB{m+xuBiB|m|m6NpBaB+x+x+x<csBdB0N+MfBrbtb^N/zgBhBjBkBmc+x+x+x+xlBzBxB+x+xcBvBbB B.B.BfNnBmBzh8fMBNBBB+x+x+x+xVB9v0vNzbNGbtxNcNcBcwvwvCB+xPmjnknknknknknknknknkn",
"u&58j%R9ZB=BABSBDBFB.N+xGBHBJBKBLBPBIB+x+xUBYBTBRBEBWBQB+x!B)X0B+x+xqB5v+x+x~Bf&^B/Bnl(BYn+x2NLv)B{m+x_B`B'B'B]B3c[B{B+x+x+x+x+x}B|B V.VXVoVOV3z2N+x+x+x+x+x+V@V;M#V$V+x+x@x%V&V*V*V*V=V-V;V:V>V+x+x+x+x+x+x,V9v0vNzXb<VtxCzNcBc+bwvwvCB+xPmknknknknknknknknknkn",
"y&,=1V2V3V4VSB5V6V7V8V+x9V0VqVwVeVrVtV+x+xyVuV5BiVdmpVaV+xsVVodV+x+xfVgV+x+xhVsz^B/BjVrzkV+xlV4b)BzV+xxVDxcV2c]B2cDxvVbV+x+x+x+x+x+x+x+x+x+x+x+x+x+x+x+x+xnVmVMVuNzBNV+x+x+x+x+x+x+x+x+x+x+x+x+x+x+x+x+xBVVVmzMzTlXb<VtxCzNcBc+bwvwv@bCV+xZVknknknknknknknknknkn",
"}M*:AVSVw%SBDVFVGVHV+x+xJVKVLVPVIVUVYV+x+xTVRVEVWVMvQV!V+x~V+=^V+x+x/V(V+x+x)Vszpz_V`V(B'V+x*M4b]V+x+x[V{V2c}V'B2c=n|V C.CXCCM+x+x+x+x+x+x+x+x+x+x+x'coCOC+CPM@CNx#C$C+x+x+x+x+x+x+x+x+x+x+x+x+xaB:V%C&C*CmzMzTlXb<Vtx'xNcBc+bwvwv@bjn=C+x+xknknknknknknknknknkn",
" ,R7-C;C5,:CK8>C,C<C1C2C3C4C_l5C6C7C8C9C0CqCuVwCyb 8eCrCtCyC/XuCiCpCaCsCdCfCgCVlTk_VhC(BjCkClCzCxCcCvCbCnC2c}V'B]B2cmCmC5cFxMCNCBCVCCCZCAC8c~bSCDC2zFCGCHCJC+CKCLCPCICUCYCYCTCRCECWCQC!C~C^C/C(Cgh`k'k*CmzMzTlXb<Vtx'xNcBc+bwvwv@bjnjn)C_C`Cknknknknknknknknknkn",
"L1$;'C]CT:[C{C}C|C Z.ZXZoZOZ+Z@ZIz#Z$Z%Z&Z*Z=Z-Z;Z:Zp$>ZCoVo/X/XO=~=:&N#yO8%/=VlTkuz#v(B,ZUvTn4b<Z1Z2Z3Z4Z2c5Z'B]B6N=n|V6ZFx6c7Z8Z9Z0ZqZwZqNrbileZrZtZyZuZHCiZpZv+aZsZdZdZfZgZhZgzjZ7jkZxzlZzZxZqjcZ*C$B0vTlXb<VtxCzNcBc+bwvwv@bjnjnknknknknknknknknknknknknknkn",
"$;78K2vZbZnZmZMZNZBZTd<gVZCZZZAZSZ$ZDZhvFZGZHZJZKZLZPZIZ(X+=/X/X/X~=(XtOyO[+/=VlTkuz#v(B,ZUZYZTZ<Z{cRZEZWZDx5Z5Z]B2c2cqm4c5cQZ7Z!Z~Z^Z0Nwb/Z~N(Z)Z/N_Z`Z'Z]Z[Z{Z}Z~M~M~MXBoB|ZkzjN A.AJllZXAxZZb(M8v$B0vNzbNGbtxoANcBcHbwvwvjnjnjnOAOAOAOAOAOAOAOAOAOAOAOAOAknkn",
"78+AvZ@A#A$A%A&A*A=A-A;A:A>A,A<A1A2A3A4A5A&Z6A7A8A9A0A*7m#/X/X/X+=Vo'+&+yO[+m%VlMlIkqA(BwAUvfbPv veArAtAyA4c]B]B]B'B2cuAiA5cFx6c7ZXM9Z^Z0NwbGMrbpA^N'ZaA.;sAdAfA~MfNXBnBmBgAVmGl4v5vhA_kKl7vbz(M&kvcDbNzbNGbtxoANcBcHbwvwvjnjnjnknOAOAOAOAOAOAOAOAOAOAOAOAknknkn",
"K2jAK8kAlAzAxAcAvAbAnAmAMANABAVACAZAAASADAFAGAvjHAJAKACo~=^XrO/X~=m#'+&+yO[+f&Nlmluzyz(BwAUvfbPv vLAPAIAUAYA|m6N]B'B2ciB4c{VTA6c6cRAAn0N0NwbGMrbEAWAQA!A~A^AgNfNgZ/AmB|Zkz_n(AkZxz)Akc_A`k'knzAbSbDbFb|n%B`AoA'A]AHbwv[AjnjnjnOAOAOAOAOAOAOAOAOAOAOAOAOAOAOAOAOA",
"{A}A|A S.SXSoSOS+S@S#S$S%S&S*S=S-S;S:S>S4A,S<S1S2S3S4S(X+=^XrO/X~=)XtO]+p*i*f&5S6SuzqA(BEn7Sfbdb8S9S0SqSwSeS=n6NrS|m|m)ctS{VTAyS!ZRArm9Z0NuSiSpSaSsSdSfS6MgZgZ/AhZ|Zzh/kGlgShS)k8x9xjS/xan8v9v}nkSlSGbdn`AoA'A]AHbwv[AjnjnjnOAOAOAOAOAOAOAOAOAOAOAOAOAOAOAOAOAOA",
"zSxScSvSbSnSmSMSNSBSVSCSZSASSSDSFS[lGSHSxxJSKSLSPSM-*7m#+=rO/X+=VoI:Co]+p*i*f&5SMlIkqA(BIS7SIvdb8SUS0SYSTSRSuA6NrS|m|m)c`B_cESySWSRAQSAnqZ@M!S~S^S/S(S7M/A7MhZ6xIgVm_n)S(k_S~xinlc7vbz(xAbsn`SNzbNGb`A'S'AA0]Awvwv]Sjn[S[S*7*7*7*7*7*7*7*7*7*7*7*7*7*7*7*7*7*7^=",
"{S}S|S D.DXDoDOD+D@D#D$D%D&D*D=D-D;D:D>D,D<D1D2Dcs3Dz5~=/X/X/X~=m#(XtO]+*+i*y*NlYkIkbl(BEn7Sfbdb4DUS5D6D7D8DDx2c2c2c2c)c`B_c9D0DWS9NSMAnYAqDwDeDrDtDtDhNyDuDExVm_nzz(k!x)k_k9xCbiDanpD9v)xaDsDbNdn`A'S'ABc]Awv]S]Sjn[S[S*7*7*7*7*7*7*7*7*7*7*7*7*7*7*7*7*7*7^=^=",
"B-dDfDgDhDjDkDlDzDxDcDvDbDnDmD;DMDNDBDHSRBVDCD%53Sev)X+=rO/X+=~=)X'+&+yO_,u*VlNl!vPkqA(BEn7SZDdb.vAD5DSDDDWZFD(c2c2c2c)cAv_cGD0DHDJDXMKDW LDPD8M8M)n)nIDWx/kUDYDQx5v|v~xinTDRDED(xAbWDQD!DlS~D^D/D(D'A]A[A[A]S[S[S[S[S*7*7*7*7*7*7*7*7*7*7*7*7*7*7*7*7*7*7*7*7*7",
")DfD_D`D'D]D[D{D}D|D F.FXFoFOF+F@F#F$F%FKN&F*F=F-F&+C,/XBo/X+=Vo)X'+&+yO_,u*Vl^BYkPkqA(BEn7SIvdb.v5b;F:F>FyA,FiBiB3c3ciB<F1F2F3FtS4Fr=5F6F7F8M)n)nIDWx/klzYD8FHl_S9F0FqFCbiDanpD9vwFQD!DeFrFtF'S(D]AyF[A[A]S[S[S[S[S*7*7*7*7*7*7*7*7*7*7*7*7*7*7*7*7*7*7*7*7*7^="
};
